; generated by PrusaSlicer 2.8.0+win64 on 2024-07-21 at 18:30:27 UTC

; 

; external perimeters extrusion width = 0.45mm
; perimeters extrusion width = 0.45mm
; infill extrusion width = 0.45mm
; solid infill extrusion width = 0.45mm
; top infill extrusion width = 0.40mm
; support material extrusion width = 0.35mm
; first layer extrusion width = 0.42mm

; external perimeters extrusion width = 0.45mm
; perimeters extrusion width = 0.45mm
; infill extrusion width = 0.45mm
; solid infill extrusion width = 0.45mm
; top infill extrusion width = 0.40mm
; support material extrusion width = 0.35mm
; first layer extrusion width = 0.42mm

M73 P0 R18
M73 Q0 S18

; printing object cap.stl id:0 copy 0
; stop printing object cap.stl id:0 copy 0
; printing object cap.stl id:1 copy 0
; stop printing object cap.stl id:1 copy 0

;TYPE:Custom
M862.3 P "MK3S" ; printer model check
M862.1 P0.4 ; nozzle diameter check
M115 U3.9.3 ; tell printer latest fw version
G90 ; use absolute coordinates
M83 ; extruder relative mode
M104 S205 ; set extruder temp
M140 S67 ; set bed temp
M190 S67 ; wait for bed temp
M109 S205 ; wait for extruder temp
G28 W ; home all without mesh bed level
G80 ; mesh bed leveling
G1 Y-3.0 F1000.0 ; go outside print area
G92 E0.0
G1 X60.0 E9.0 F1000.0 ; intro line
G1 X100.0 E12.5 F1000.0 ; intro line
G92 E0.0
M221 S95

; Don't change E values below. Excessive value can damage the printer.
M907 E430 ; set extruder motor current
G21 ; set units to millimeters
G90 ; use absolute coordinates
M83 ; use relative distances for extrusion
M900 K0.05 ; Filament gcode LA 1.5
M900 K30 ; Filament gcode LA 1.0
M107
;LAYER_CHANGE
;Z:0.2
;HEIGHT:0.2
G1 E-.8 F2100
G1 Z.6 F10800
G1 X164.298 Y32.492
G1 Z.2
G1 E.8 F2100
M204 S1000
;TYPE:Skirt/Brim
;WIDTH:0.42
G1 F1200
G1 X164.551 Y31.519 E.03152
G1 X165.071 Y30.672 E.03116
G1 X166.032 Y29.814 E.04039
G1 X167.425 Y29.347 E.04607
G1 X182.906 Y29.351 E.4854
G1 X183.299 Y29.425 E.01254
G1 X198.794 Y29.414 E.48583
G1 X200.187 Y29.881 E.04607
G1 X201.148 Y30.738 E.04037
G1 X201.669 Y31.586 E.03121
G1 X201.921 Y32.558 E.03148
G1 X201.921 Y48.051 E.48577
G1 X201.454 Y49.444 E.04607
G1 X200.597 Y50.404 E.04035
G1 X199.749 Y50.925 E.03121
G1 X198.777 Y51.178 E.03149
G1 X167.425 Y51.112 E.98302
G1 X166.032 Y50.644 E.04608
M73 P1 R18
M73 Q1 S18
G1 X165.071 Y49.787 E.04037
G1 X164.551 Y48.939 E.03119
G1 X164.298 Y47.967 E.03149
G1 X164.298 Y32.552 E.48333
G1 X164.298 Y32.552 F10800
G1 X164.675 Y32.552
G1 F1200
G1 X164.675 Y32.517 E.0011
G1 X164.907 Y31.644 E.02832
G1 X165.353 Y30.923 E.02658
G1 X166.235 Y30.134 E.0371
G1 X167.456 Y29.724 E.04038
G1 X198.764 Y29.791 E.98164
G1 X199.985 Y30.2 E.04037
G1 X200.866 Y30.99 E.0371
G1 X201.312 Y31.71 E.02656
G1 X201.544 Y32.583 E.02832
G1 X201.544 Y48.02 E.48402
G1 X201.135 Y49.241 E.04037
G1 X200.345 Y50.122 E.0371
G1 X199.625 Y50.568 E.02656
G1 X198.752 Y50.801 E.02833
G1 X167.456 Y50.735 E.98127
G1 X166.235 Y50.325 E.04038
G1 X165.353 Y49.536 E.0371
G1 X164.907 Y48.815 E.02658
G1 X164.675 Y47.942 E.02832
G1 X164.675 Y32.612 E.48066
G1 X164.675 Y32.612 F10800
G1 X165.052 Y32.612
G1 F1200
G1 X165.052 Y32.543 E.00216
G1 X165.263 Y31.771 E.02509
G1 X165.635 Y31.175 E.02203
G1 X166.436 Y30.454 E.03379
G1 X167.486 Y30.101 E.03473
G1 X182.866 Y30.105 E.48223
G1 X183.257 Y30.186 E.01252
G1 X198.733 Y30.168 E.48524
G1 X199.783 Y30.52 E.03472
G1 X200.584 Y31.241 E.03379
G1 X200.956 Y31.837 E.02203
G1 X201.167 Y32.609 E.02509
G1 X201.167 Y47.99 E.48226
G1 X200.815 Y49.039 E.03469
G1 X200.094 Y49.841 E.03381
G1 X199.498 Y50.212 E.02201
G1 X198.726 Y50.424 E.0251
G1 X183.353 Y50.424 E.48201
G1 X182.985 Y50.335 E.01187
G1 X167.486 Y50.358 E.48596
G1 X166.436 Y50.005 E.03473
M73 P2 R18
M73 Q2 S18
G1 X165.635 Y49.284 E.03379
G1 X165.263 Y48.688 E.02203
G1 X165.052 Y47.916 E.02509
G1 X165.052 Y32.672 E.47796
G1 X165.052 Y32.672 F10800
G1 X165.429 Y32.672
G1 F1200
G1 X165.429 Y32.57 E.0032
G1 X165.618 Y31.901 E.0218
G1 X165.916 Y31.427 E.01756
G1 X166.637 Y30.774 E.0305
G1 X167.517 Y30.478 E.02911
G1 X182.845 Y30.482 E.4806
G1 X183.243 Y30.57 E.01278
G1 X198.702 Y30.545 E.48471
G1 X199.582 Y30.841 E.02911
M73 P2 R17
G1 X200.303 Y31.493 E.03048
G1 X200.601 Y31.967 E.01756
G1 X200.79 Y32.636 E.0218
G1 X200.79 Y47.959 E.48044
G1 X200.494 Y48.839 E.02911
G1 X199.842 Y49.559 E.03046
G1 X199.368 Y49.857 E.01756
G1 X198.699 Y50.047 E.02181
G1 X183.378 Y50.047 E.48038
G1 X183.005 Y49.95 E.01208
G1 X167.517 Y49.98 E.48562
G1 X166.637 Y49.685 E.0291
M73 Q2 S17
G1 X165.916 Y49.032 E.0305
G1 X165.618 Y48.558 E.01756
G1 X165.429 Y47.889 E.0218
G1 X165.429 Y32.732 E.47524
G1 X165.429 Y32.732 F10800
G1 X165.806 Y32.732
G1 F1200
G1 X165.806 Y32.598 E.0042
G1 X165.972 Y32.034 E.01843
G1 X166.197 Y31.679 E.01318
G1 X166.836 Y31.096 E.02712
G1 X167.548 Y30.856 E.02356
G1 X182.822 Y30.859 E.47891
G1 X183.229 Y30.954 E.0131
G1 X198.671 Y30.922 E.48417
G1 X199.383 Y31.162 E.02356
G1 X200.022 Y31.745 E.02712
G1 X200.247 Y32.1 E.01318
G1 X200.413 Y32.664 E.01843
G1 X200.413 Y47.928 E.47859
G1 X200.173 Y48.64 E.02356
G1 X199.59 Y49.278 E.0271
G1 X199.235 Y49.504 E.01319
G1 X198.671 Y49.67 E.01843
G1 X183.406 Y49.67 E.47862
G1 X183.027 Y49.563 E.01235
G1 X167.548 Y49.603 E.48533
G1 X166.836 Y49.363 E.02356
M73 P3 R17
M73 Q3 S17
G1 X166.197 Y48.78 E.02712
G1 X165.972 Y48.425 E.01318
G1 X165.806 Y47.861 E.01843
G1 X165.806 Y32.792 E.47248
G1 X165.806 Y32.792 F10800
G1 X166.183 Y32.792
G1 F1200
G1 X166.183 Y32.627 E.00517
G1 X166.324 Y32.171 E.01497
G1 X166.884 Y31.526 E.02678
G1 X167.579 Y31.233 E.02365
G1 X182.806 Y31.236 E.47743
G1 X183.176 Y31.347 E.01211
G1 X198.64 Y31.299 E.48487
G1 X199.186 Y31.484 E.01808
G1 X199.741 Y31.998 E.02372
G1 X200.036 Y32.693 E.02367
G1 X200.036 Y47.897 E.47671
G1 X199.851 Y48.442 E.01805
G1 X199.337 Y48.998 E.02374
G1 X198.642 Y49.293 E.02367
G1 X183.436 Y49.293 E.47677
G1 X183.051 Y49.175 E.01263
G1 X182.766 Y49.226 E.00908
G1 X167.579 Y49.226 E.47618
G1 X167.034 Y49.041 E.01805
G1 X166.478 Y48.527 E.02374
G1 X166.183 Y47.832 E.02367
G1 X166.183 Y32.852 E.46969
G1 X166.183 Y32.852 F10800
G1 X166.56 Y32.852
G1 F1200
G1 X166.56 Y32.659 E.00605
G1 X166.758 Y32.185 E.01611
G1 X167.228 Y31.742 E.02025
G1 X167.611 Y31.61 E.0127
G1 X182.783 Y31.613 E.47571
G1 X183.192 Y31.762 E.01365
G1 X183.469 Y31.676 E.00909
G1 X198.608 Y31.676 E.47467
G1 X198.991 Y31.808 E.0127
G1 X199.461 Y32.252 E.02027
G1 X199.659 Y32.725 E.01608
G1 X199.659 Y47.865 E.4747
G1 X199.527 Y48.248 E.0127
G1 X199.083 Y48.718 E.02027
G1 X198.61 Y48.916 E.01608
G1 X183.469 Y48.916 E.47474
G1 X183.02 Y48.766 E.01484
G1 X182.751 Y48.849 E.00883
G1 X167.611 Y48.849 E.4747
G1 X167.228 Y48.717 E.0127
G1 X166.758 Y48.274 E.02025
G1 X166.56 Y47.8 E.01611
G1 X166.56 Y32.912 E.4668
G1 X166.56 Y32.912 F10800
M73 P4 R17
M73 Q4 S17
G1 X166.937 Y32.912
G1 F1200
G1 X166.937 Y32.694 E.00684
G1 X167.037 Y32.439 E.00859
G1 X167.39 Y32.086 E.01565
G1 X167.644 Y31.987 E.00855
G1 X182.73 Y31.987 E.47301
G1 X183.117 Y32.216 E.0141
G1 X183.489 Y32.053 E.01273
G1 X198.575 Y32.053 E.47301
G1 X198.829 Y32.153 E.00856
G1 X199.182 Y32.506 E.01565
G1 X199.282 Y32.76 E.00856
G1 X199.282 Y47.831 E.47254
G1 X199.182 Y48.086 E.00859
G1 X198.829 Y48.439 E.01565
G1 X198.575 Y48.538 E.00855
G1 X183.504 Y48.538 E.47254
G1 X183.102 Y48.309 E.01451
G1 X182.73 Y48.472 E.01273
G1 X167.644 Y48.472 E.47301
G1 X167.39 Y48.373 E.00855
G1 X167.037 Y48.019 E.01567
G1 X166.937 Y47.765 E.00856
G1 X166.937 Y32.972 E.46382
G1 X166.937 Y32.972 F10800
G1 X167.342 Y32.972
G1 F1200
G1 X167.343 Y32.666 E.00959
G1 X167.686 Y32.364 E.01433
G1 X182.743 Y32.393 E.4721
G1 X183.143 Y32.792 E.01771
G1 X183.546 Y32.43 E.01699
G1 X198.602 Y32.459 E.47207
G1 X198.905 Y32.802 E.01435
G1 X198.876 Y47.859 E.4721
G1 X198.533 Y48.161 E.01433
G1 X183.546 Y48.161 E.46991
G1 X183.076 Y47.733 E.01993
G1 X182.674 Y48.095 E.01696
G1 X167.617 Y48.066 E.4721
G1 X167.314 Y47.723 E.01435
G1 X167.342 Y33.032 E.46063
;WIPE_START
G1 F8640
G1 X167.342 Y32.972 E-.01385
G1 X167.343 Y32.666 E-.07066
G1 X167.686 Y32.364 E-.10552
G1 X170.328 Y32.369 E-.60997
;WIPE_END
G1 Z.6 F10800
G1 X183.551 Y33.032
G1 Z.2
G1 E.8 F2100
G1 F1200
G1 X183.551 Y32.918 E.00357
G1 X183.661 Y32.807 E.0049
G1 X198.417 Y32.807 E.46266
G1 X198.528 Y32.918 E.00492
G1 X198.528 Y47.674 E.46266
G1 X198.417 Y47.784 E.0049
M73 P5 R17
M73 Q5 S17
G1 X183.661 Y47.784 E.46266
G1 X183.551 Y47.674 E.00488
G1 X183.551 Y33.092 E.45721
G1 X183.551 Y33.092 F10800
G1 X182.669 Y33.092
G1 F1200
G1 X182.669 Y47.608 E.45514
G1 X182.558 Y47.718 E.0049
G1 X167.802 Y47.718 E.46266
G1 X167.691 Y47.608 E.0049
G1 X167.691 Y32.851 E.4627
G1 X167.802 Y32.741 E.0049
G1 X182.558 Y32.741 E.46266
G1 X182.669 Y32.851 E.0049
G1 X182.669 Y33.032 E.00568
;WIPE_START
G1 F8640
G1 X182.669 Y33.092 E-.01385
G1 X182.669 Y36.497 E-.78615
;WIPE_END
G1 Z.6 F10800
; printing object cap.stl id:0 copy 0
G1 X179.63 Y35.779
G1 Z.2
G1 E.8 F2100
;TYPE:Perimeter
;WIDTH:0.419999
G1 F1200
G1 X179.63 Y40.229 E.13953
G1 X179.63 Y44.68 E.13956
G1 X170.73 Y44.68 E.27905
G1 X170.73 Y35.779 E.27908
G1 X179.57 Y35.779 E.27717
G1 X179.57 Y35.779 F10800
G1 X180.008 Y35.402
G1 F1200
G1 X180.008 Y40.229 E.15135
G1 X180.008 Y45.057 E.15138
G1 X170.352 Y45.057 E.30276
G1 X170.352 Y35.402 E.30273
G1 X179.948 Y35.402 E.30088
G1 X179.948 Y35.402 F10800
G1 X180.385 Y35.025
G1 F1200
G1 X180.385 Y40.229 E.16317
G1 X180.385 Y45.434 E.1632
G1 X169.975 Y45.434 E.3264
G1 X169.975 Y35.025 E.32637
G1 X180.325 Y35.025 E.32452
M73 Q6 S17
G1 X180.325 Y35.025 F10800
M73 P6 R17
G1 X180.762 Y34.648
G1 F1200
G1 X180.762 Y40.229 E.17499
G1 X180.762 Y45.811 E.17502
G1 X169.598 Y45.811 E.35004
G1 X169.598 Y34.648 E.35001
G1 X180.702 Y34.648 E.34816
G1 X180.702 Y34.648 F10800
G1 X181.139 Y34.271
G1 F1200
G1 X181.139 Y40.229 E.18681
G1 X181.139 Y46.188 E.18684
G1 X169.221 Y46.188 E.37368
G1 X169.221 Y34.271 E.37365
G1 X181.079 Y34.271 E.3718
G1 X181.079 Y34.271 F10800
G1 X181.516 Y33.894
G1 F1200
G1 X181.516 Y40.229 E.19863
G1 X181.516 Y46.565 E.19866
G1 X168.844 Y46.565 E.39732
G1 X168.844 Y33.894 E.39729
G1 X181.456 Y33.894 E.39544
G1 X181.456 Y33.894 F10800
G1 X181.893 Y33.517
G1 F1200
G1 X181.893 Y40.229 E.21045
G1 X181.893 Y46.942 E.21048
G1 X168.467 Y46.942 E.42096
G1 X168.467 Y33.517 E.42093
G1 X181.833 Y33.517 E.41908
G1 X181.833 Y33.517 F10800
G1 X182.27 Y33.139
;TYPE:External perimeter
G1 F1200
G1 X182.27 Y40.229 E.2223
G1 X182.27 Y47.319 E.2223
G1 X168.09 Y47.319 E.4446
M73 P7 R17
M73 Q7 S17
G1 X168.09 Y33.139 E.4446
G1 X182.21 Y33.139 E.44272
;WIPE_START
G1 F8640
G1 X182.27 Y33.139 E-.01385
G1 X182.27 Y36.544 E-.78615
;WIPE_END
G1 Z.6 F10800
G1 X179.517 Y36.671
G1 Z.2
G1 E.8 F2100
;TYPE:Solid infill
;WIDTH:0.427955
G1 F1200
G1 X178.908 Y36.062 E.02757
G1 X178.363 Y36.062 E.01745
G1 X179.348 Y37.046 E.04458
G1 X179.348 Y37.591 E.01745
G1 X177.819 Y36.062 E.06923
G1 X177.274 Y36.062 E.01745
G1 X179.348 Y38.135 E.09388
G1 X179.348 Y38.68 E.01745
G1 X176.73 Y36.062 E.11854
G1 X176.185 Y36.062 E.01745
G1 X179.348 Y39.224 E.14319
G1 X179.348 Y39.769 E.01745
G1 X175.641 Y36.062 E.16784
G1 X175.096 Y36.062 E.01745
G1 X179.348 Y40.313 E.1925
G1 X179.348 Y40.858 E.01745
G1 X174.552 Y36.062 E.21715
G1 X174.007 Y36.062 E.01745
G1 X179.348 Y41.402 E.2418
G1 X179.348 Y41.947 E.01745
G1 X173.463 Y36.062 E.26646
G1 X172.918 Y36.062 E.01745
G1 X179.348 Y42.491 E.29111
G1 X179.348 Y43.036 E.01745
G1 X172.374 Y36.062 E.31576
G1 X171.829 Y36.062 E.01745
G1 X179.348 Y43.58 E.34042
G1 X179.348 Y44.125 E.01745
G1 X171.285 Y36.062 E.36507
G1 X171.012 Y36.062 E.00874
M73 P7 R16
G1 X171.012 Y36.334 E.00871
G1 X179.075 Y44.397 E.36507
G1 X178.531 Y44.397 E.01742
G1 X171.012 Y36.879 E.34042
G1 X171.012 Y37.423 E.01742
G1 X177.986 Y44.397 E.31576
G1 X177.442 Y44.397 E.01742
G1 X171.012 Y37.968 E.29111
G1 X171.012 Y38.512 E.01742
M73 Q7 S16
G1 X176.897 Y44.397 E.26646
G1 X176.353 Y44.397 E.01742
G1 X171.012 Y39.057 E.2418
G1 X171.012 Y39.601 E.01742
G1 X175.808 Y44.397 E.21715
G1 X175.264 Y44.397 E.01742
M73 P8 R16
M73 Q8 S16
G1 X171.012 Y40.146 E.1925
G1 X171.012 Y40.69 E.01742
G1 X174.719 Y44.397 E.16784
G1 X174.175 Y44.397 E.01742
G1 X171.012 Y41.235 E.14319
G1 X171.012 Y41.779 E.01742
G1 X173.63 Y44.397 E.11854
G1 X173.086 Y44.397 E.01742
G1 X171.012 Y42.324 E.09388
G1 X171.012 Y42.868 E.01742
G1 X172.541 Y44.397 E.06923
G1 X171.997 Y44.397 E.01742
G1 X171.012 Y43.413 E.04458
G1 X171.012 Y43.957 E.01742
G1 X171.622 Y44.567 E.02762
;WIPE_START
G1 F8640
G1 X171.012 Y43.957 E-.19919
G1 X171.012 Y43.413 E-.12561
G1 X171.997 Y44.397 E-.32148
G1 X172.541 Y44.397 E-.12561
G1 X172.455 Y44.311 E-.02811
;WIPE_END
G1 Z.6 F10800
; stop printing object cap.stl id:0 copy 0
; printing object cap.stl id:1 copy 0
G1 X186.589 Y44.746
G1 Z.2
G1 E.8 F2100
;TYPE:Perimeter
;WIDTH:0.419999
G1 F1200
G1 X186.589 Y35.845 E.27908
G1 X195.49 Y35.845 E.27908
G1 X195.49 Y40.296 E.13956
G1 X195.49 Y44.746 E.13953
G1 X186.649 Y44.746 E.2772
G1 X186.649 Y44.746 F10800
G1 X186.212 Y45.123
G1 F1200
G1 X186.212 Y35.468 E.30273
G1 X195.867 Y35.468 E.30273
G1 X195.867 Y40.296 E.15138
G1 X195.867 Y45.123 E.15135
G1 X186.272 Y45.123 E.30084
G1 X186.272 Y45.123 F10800
G1 X185.835 Y45.5
G1 F1200
G1 X185.835 Y35.091 E.32637
G1 X196.244 Y35.091 E.32637
G1 X196.244 Y40.296 E.1632
G1 X196.244 Y45.5 E.16317
G1 X185.895 Y45.5 E.32449
G1 X185.895 Y45.5 F10800
G1 X185.458 Y45.877
G1 F1200
G1 X185.458 Y34.714 E.35001
G1 X196.621 Y34.714 E.35001
G1 X196.621 Y40.296 E.17502
G1 X196.621 Y45.877 E.17499
G1 X185.518 Y45.877 E.34813
G1 X185.518 Y45.877 F10800
G1 X185.08 Y46.255
G1 F1200
G1 X185.08 Y34.337 E.37368
G1 X196.998 Y34.337 E.37368
M73 P9 R16
M73 Q9 S16
G1 X196.998 Y40.296 E.18684
G1 X196.998 Y46.255 E.18684
G1 X185.14 Y46.255 E.3718
G1 X185.14 Y46.255 F10800
G1 X184.703 Y46.632
G1 F1200
G1 X184.703 Y33.96 E.39732
G1 X197.375 Y33.96 E.39732
G1 X197.375 Y40.296 E.19866
G1 X197.375 Y46.632 E.19866
G1 X184.763 Y46.632 E.39544
G1 X184.763 Y46.632 F10800
G1 X184.326 Y47.009
G1 F1200
G1 X184.326 Y33.583 E.42096
G1 X197.752 Y33.583 E.42096
G1 X197.752 Y40.296 E.21048
G1 X197.752 Y47.009 E.21048
G1 X184.386 Y47.009 E.41908
G1 X184.386 Y47.009 F10800
G1 X183.949 Y47.386
;TYPE:External perimeter
G1 F1200
G1 X183.949 Y33.206 E.4446
G1 X198.129 Y33.206 E.4446
G1 X198.129 Y40.296 E.2223
G1 X198.129 Y47.386 E.2223
G1 X184.009 Y47.386 E.44272
;WIPE_START
G1 F8640
G1 X183.949 Y47.386 E-.01385
G1 X183.949 Y43.981 E-.78615
;WIPE_END
G1 Z.6 F10800
G1 X195.377 Y36.738
G1 Z.2
G1 E.8 F2100
;TYPE:Solid infill
;WIDTH:0.427955
G1 F1200
G1 X194.767 Y36.128 E.02762
G1 X194.223 Y36.128 E.01742
G1 X195.207 Y37.112 E.04455
G1 X195.207 Y37.657 E.01745
M73 P10 R16
M73 Q10 S16
G1 X193.678 Y36.128 E.06923
G1 X193.134 Y36.128 E.01742
G1 X195.207 Y38.201 E.09386
G1 X195.207 Y38.746 E.01745
G1 X192.589 Y36.128 E.11854
G1 X192.044 Y36.128 E.01745
G1 X195.207 Y39.29 E.14319
G1 X195.207 Y39.835 E.01745
G1 X191.5 Y36.128 E.16784
G1 X190.955 Y36.128 E.01745
G1 X195.207 Y40.38 E.19252
G1 X195.207 Y40.924 E.01742
G1 X190.411 Y36.128 E.21715
G1 X189.866 Y36.128 E.01745
G1 X195.207 Y41.469 E.24183
G1 X195.207 Y42.013 E.01742
G1 X189.322 Y36.128 E.26646
G1 X188.777 Y36.128 E.01745
G1 X195.207 Y42.558 E.29113
G1 X195.207 Y43.102 E.01742
G1 X188.233 Y36.128 E.31576
G1 X187.688 Y36.128 E.01745
G1 X195.207 Y43.647 E.34044
G1 X195.207 Y44.191 E.01742
G1 X187.144 Y36.128 E.36507
G1 X186.872 Y36.128 E.00871
G1 X186.872 Y36.4 E.00871
G1 X194.935 Y44.463 E.36507
G1 X194.39 Y44.463 E.01745
G1 X186.872 Y36.945 E.34039
G1 X186.872 Y37.489 E.01742
G1 X193.845 Y44.463 E.31574
G1 X193.301 Y44.463 E.01742
G1 X186.872 Y38.034 E.29109
G1 X186.872 Y38.579 E.01745
G1 X192.756 Y44.463 E.26641
G1 X192.212 Y44.463 E.01742
G1 X186.872 Y39.123 E.24178
G1 X186.872 Y39.668 E.01745
G1 X191.667 Y44.463 E.2171
G1 X191.123 Y44.463 E.01742
G1 X186.872 Y40.212 E.19247
G1 X186.872 Y40.757 E.01745
G1 X190.578 Y44.463 E.1678
G1 X190.034 Y44.463 E.01742
G1 X186.872 Y41.301 E.14317
G1 X186.872 Y41.846 E.01745
G1 X189.489 Y44.463 E.11849
G1 X188.945 Y44.463 E.01742
G1 X186.872 Y42.39 E.09386
G1 X186.872 Y42.935 E.01745
