; generated by PrusaSlicer 2.8.0+win64 on 2024-07-21 at 18:29:35 UTC

; 

; external perimeters extrusion width = 0.45mm
; perimeters extrusion width = 0.45mm
; infill extrusion width = 0.45mm
; solid infill extrusion width = 0.45mm
; top infill extrusion width = 0.40mm
; first layer extrusion width = 0.42mm

M73 P0 R21
M73 Q0 S21

; printing object gear2.stl id:0 copy 0
; stop printing object gear2.stl id:0 copy 0

;TYPE:Custom
M862.3 P "MK3S" ; printer model check
M862.1 P0.4 ; nozzle diameter check
M115 U3.9.3 ; tell printer latest fw version
G90 ; use absolute coordinates
M83 ; extruder relative mode
M104 S205 ; set extruder temp
M140 S67 ; set bed temp
M190 S67 ; wait for bed temp
M109 S205 ; wait for extruder temp
G28 W ; home all without mesh bed level
G80 ; mesh bed leveling
G1 Y-3.0 F1000.0 ; go outside print area
G92 E0.0
G1 X60.0 E9.0 F1000.0 ; intro line
G1 X100.0 E12.5 F1000.0 ; intro line
G92 E0.0
M221 S95

; Don't change E values below. Excessive value can damage the printer.
M907 E430 ; set extruder motor current
G21 ; set units to millimeters
G90 ; use absolute coordinates
M83 ; use relative distances for extrusion
M900 K0.05 ; Filament gcode LA 1.5
M900 K30 ; Filament gcode LA 1.0
M107
;LAYER_CHANGE
;Z:0.2
;HEIGHT:0.2
G1 E-.8 F2100
G1 Z.6 F10800
; printing object gear2.stl id:0 copy 0
G1 X135.878 Y97.611
G1 Z.2
G1 E.8 F2100
M204 S1000
;TYPE:Perimeter
;WIDTH:0.506603
G1 F1200
G1 X135.769 Y97.941 E.0134
;WIDTH:0.490806
G1 X135.574 Y98.388 E.01816
G1 X135.23 Y98.95 E.02454
;WIDTH:0.476507
G1 X134.827 Y99.47 E.02372
G1 X134.359 Y99.937 E.02384
;WIDTH:0.473363
G1 X133.831 Y100.349 E.02397
;WIDTH:0.491065
G1 X133.268 Y100.692 E.02457
G1 X132.645 Y100.949 E.02511
;WIDTH:0.501369
G1 X132.01 Y101.161 E.02552
G1 X131.365 Y101.242 E.02478
;WIDTH:0.501202
G1 X130.81 Y101.29 E.02123
G1 X130.036 Y101.213 E.02964
;WIDTH:0.476689
G1 X129.393 Y101.077 E.0237
G1 X128.768 Y100.858 E.02389
;WIDTH:0.488344
G1 X128.368 Y100.681 E.0162
G1 X127.884 Y100.379 E.02113
;WIDTH:0.47654
G1 X127.293 Y99.934 E.02667
;WIDTH:0.471931
G1 X126.888 Y99.524 E.02056
;WIDTH:0.482538
G1 X126.582 Y99.173 E.01702
G1 X126.293 Y98.729 E.01937
;WIDTH:0.502147
G1 X126.023 Y98.279 E.02004
G1 X125.733 Y97.494 E.03196
;WIDTH:0.495577
G1 X125.609 Y97.012 E.01873
G1 X125.511 Y96.239 E.02933
;WIDTH:0.477783
G1 X125.508 Y95.713 E.01902
G1 X125.575 Y95.077 E.02312
;WIDTH:0.478972
G1 X125.69 Y94.554 E.01942
G1 X125.916 Y93.889 E.02547
;WIDTH:0.486763
G1 X126.114 Y93.458 E.0175
G1 X126.452 Y92.92 E.02345
;WIDTH:0.475227
G1 X126.818 Y92.437 E.02178
G1 X127.324 Y91.938 E.02555
;WIDTH:0.489107
G1 X127.609 Y91.69 E.01402
G1 X128.1 Y91.381 E.02152
;WIDTH:0.500278
G1 X128.531 Y91.124 E.01908
G1 X129.032 Y90.938 E.02032
;WIDTH:0.502289
G1 X129.659 Y90.737 E.02515
G1 X130.295 Y90.658 E.02448
;WIDTH:0.500568
G1 X130.854 Y90.604 E.02137
G1 X131.459 Y90.666 E.02314
;WIDTH:0.502358
G1 X132.026 Y90.74 E.02184
G1 X132.772 Y90.987 E.03002
;WIDTH:0.493058
G1 X133.265 Y91.202 E.02013
G1 X133.739 Y91.487 E.0207
;WIDTH:0.502999
G1 X134.184 Y91.792 E.02064
G1 X134.684 Y92.279 E.0267
;WIDTH:0.479389
G1 X135.099 Y92.749 E.02276
G1 X135.422 Y93.251 E.02166
;WIDTH:0.489415
G1 X135.696 Y93.752 E.0212
G1 X135.894 Y94.318 E.02226
;WIDTH:0.488677
G1 X136.064 Y94.889 E.02208
G1 X136.126 Y95.406 E.0193
;WIDTH:0.497513
G1 X136.172 Y95.943 E.02037
G1 X136.106 Y96.696 E.02857
;WIDTH:0.506603
G1 X136.031 Y97.145 E.01755
G1 X135.896 Y97.554 E.01661
G1 X135.896 Y97.554 F10800
G1 X135.499 Y97.486
;WIDTH:0.419999
G1 F1200
G1 X135.496 Y97.496 E.00033
G1 X135.269 Y98.083 E.01973
G1 X134.9 Y98.725 E.02322
G1 X134.515 Y99.211 E.01944
G1 X134.101 Y99.627 E.0184
G1 X133.606 Y100.018 E.01978
G1 X133.069 Y100.331 E.01949
G1 X132.52 Y100.57 E.01877
G1 X131.918 Y100.753 E.01973
G1 X131.313 Y100.846 E.01919
G1 X130.715 Y100.868 E.01876
G1 X130.095 Y100.819 E.0195
G1 X129.491 Y100.684 E.01941
G1 X128.935 Y100.49 E.01846
G1 X128.334 Y100.195 E.02099
G1 X127.854 Y99.867 E.01823
G1 X127.563 Y99.634 E.01169
G1 X127.177 Y99.246 E.01716
G1 X126.804 Y98.778 E.01876
G1 X126.448 Y98.199 E.02131
G1 X126.225 Y97.684 E.0176
G1 X126.04 Y97.067 E.0202
G1 X125.945 Y96.49 E.01833
G1 X125.904 Y95.931 E.01757
G1 X125.937 Y95.422 E.01599
G1 X126.027 Y94.868 E.0176
G1 X126.211 Y94.236 E.02064
G1 X126.459 Y93.688 E.01886
G1 X126.775 Y93.158 E.01935
G1 X127.124 Y92.702 E.018
G1 X127.6 Y92.235 E.02091
G1 X128.074 Y91.87 E.01876
G1 X128.524 Y91.594 E.01655
G1 X129.079 Y91.35 E.01901
G1 X129.569 Y91.186 E.0162
G1 X130.141 Y91.085 E.01821
G1 X130.708 Y91.023 E.01788
G1 X131.425 Y91.062 E.02251
G1 X131.925 Y91.145 E.01589
G1 X132.626 Y91.359 E.02298
G1 X133.079 Y91.572 E.0157
G1 X133.519 Y91.819 E.01582
G1 X133.93 Y92.124 E.01605
G1 X134.387 Y92.545 E.01948
G1 X134.774 Y92.994 E.01859
G1 X135.079 Y93.462 E.01751
G1 X135.318 Y93.914 E.01603
G1 X135.516 Y94.452 E.01797
G1 X135.66 Y94.966 E.01674
G1 X135.752 Y95.697 E.0231
G1 X135.739 Y96.324 E.01966
G1 X135.67 Y96.854 E.01676
G1 X135.515 Y97.428 E.01864
G1 X135.515 Y97.428 F10800
G1 X135.141 Y97.368
G1 F1200
G1 X135.133 Y97.395 E.00088
G1 X134.932 Y97.913 E.01742
G1 X134.589 Y98.513 E.02167
G1 X134.225 Y98.97 E.01832
G1 X133.859 Y99.337 E.01625
G1 X133.394 Y99.707 E.01863
G1 X132.887 Y100.001 E.01838
G1 X132.403 Y100.212 E.01655
G1 X131.835 Y100.385 E.01862
G1 X131.264 Y100.472 E.01811
G1 X130.736 Y100.492 E.01657
G1 X130.152 Y100.446 E.01837
G1 X129.582 Y100.318 E.01832
G1 X129.091 Y100.147 E.0163
G1 X128.526 Y99.87 E.01973
G1 X128.072 Y99.56 E.01724
G1 X127.815 Y99.354 E.01033
G1 X127.449 Y98.984 E.01632
G1 X127.119 Y98.571 E.01658
G1 X126.785 Y98.029 E.01996
G1 X126.573 Y97.539 E.01674
G1 X126.41 Y96.996 E.01778
G1 X126.317 Y96.43 E.01798
G1 X126.286 Y95.818 E.01921
G1 X126.342 Y95.203 E.01936
G1 X126.484 Y94.619 E.01884
G1 X126.667 Y94.124 E.01655
G1 X126.912 Y93.636 E.01712
G1 X127.269 Y93.123 E.0196
G1 X127.621 Y92.73 E.01654
G1 X128.007 Y92.38 E.01634
G1 X128.514 Y92.039 E.01916
G1 X129.018 Y91.779 E.01778
G1 X129.562 Y91.578 E.01818
G1 X130.195 Y91.459 E.02019
G1 X130.72 Y91.4 E.01656
G1 X131.393 Y91.438 E.02114
G1 X131.927 Y91.536 E.01702
G1 X132.489 Y91.71 E.01845
G1 X133.016 Y91.962 E.01832
G1 X133.464 Y92.243 E.01658
G1 X133.92 Y92.607 E.01829
G1 X134.321 Y93.036 E.01841
G1 X134.621 Y93.438 E.01573
G1 X134.883 Y93.876 E.016
G1 X135.161 Y94.579 E.0237
G1 X135.317 Y95.207 E.02029
G1 X135.376 Y95.717 E.0161
G1 X135.363 Y96.306 E.01847
G1 X135.291 Y96.817 E.01618
G1 X135.156 Y97.31 E.01603
G1 X135.156 Y97.31 F10800
G1 X134.775 Y97.247
G1 F1200
G1 X134.693 Y97.524 E.00906
G1 X134.404 Y98.093 E.02001
G1 X134.088 Y98.545 E.01729
G1 X133.618 Y99.048 E.02158
G1 X133.181 Y99.395 E.0175
G1 X132.704 Y99.671 E.01728
G1 X132.277 Y99.857 E.0146
G1 X131.752 Y100.017 E.01721
G1 X131.215 Y100.098 E.01703
G1 X130.712 Y100.113 E.01578
G1 X130.208 Y100.074 E.01585
G1 X129.672 Y99.952 E.01724
G1 X128.989 Y99.685 E.02299
G1 X128.552 Y99.438 E.01574
G1 X128.067 Y99.074 E.01901
G1 X127.573 Y98.555 E.02247
G1 X127.259 Y98.096 E.01744
G1 X127.044 Y97.69 E.0144
G1 X126.839 Y97.162 E.01776
G1 X126.711 Y96.506 E.02096
G1 X126.659 Y95.943 E.01773
G1 X126.714 Y95.264 E.02136
M73 Q1 S21
G1 X126.848 Y94.717 E.01766
G1 X127.076 Y94.143 E.01937
G1 X127.382 Y93.606 E.01938
G1 X127.694 Y93.196 E.01615
G1 X128.113 Y92.787 E.01836
G1 X128.715 Y92.358 E.02318
G1 X129.156 Y92.13 E.01557
G1 X129.667 Y91.94 E.01709
G1 X130.249 Y91.832 E.01856
G1 X130.841 Y91.776 E.01864
G1 X131.36 Y91.813 E.01631
G1 X131.825 Y91.899 E.01483
M73 P1 R21
G1 X132.351 Y92.062 E.01727
G1 X132.847 Y92.299 E.01724
G1 X133.293 Y92.587 E.01665
G1 X133.826 Y93.048 E.0221
G1 X134.172 Y93.448 E.01658
G1 X134.459 Y93.893 E.0166
G1 X134.683 Y94.359 E.01621
G1 X134.868 Y94.894 E.01775
G1 X134.982 Y95.555 E.02103
G1 X134.986 Y96.288 E.02298
G1 X134.902 Y96.82 E.01689
G1 X134.792 Y97.19 E.0121
G1 X134.792 Y97.19 F10800
G1 X134.418 Y97.13
G1 F1200
G1 X134.342 Y97.387 E.0084
G1 X134.074 Y97.911 E.01845
G1 X133.644 Y98.489 E.02259
G1 X133.177 Y98.923 E.01999
G1 X132.794 Y99.19 E.01464
G1 X132.334 Y99.433 E.01631
G1 X131.77 Y99.624 E.01867
G1 X131.166 Y99.724 E.0192
G1 X130.458 Y99.721 E.0222
G1 X129.763 Y99.586 E.0222
G1 X129.146 Y99.342 E.0208
G1 X128.77 Y99.13 E.01353
G1 X128.32 Y98.794 E.01761
G1 X127.867 Y98.319 E.02058
G1 X127.574 Y97.889 E.01631
G1 X127.27 Y97.25 E.02219
G1 X127.135 Y96.766 E.01575
G1 X127.041 Y96.129 E.02019
G1 X127.065 Y95.506 E.01955
G1 X127.176 Y94.952 E.01772
G1 X127.347 Y94.451 E.0166
G1 X127.622 Y93.921 E.01872
G1 X127.979 Y93.443 E.01871
G1 X128.37 Y93.063 E.0171
G1 X128.916 Y92.677 E.02097
G1 X129.493 Y92.403 E.02003
G1 X130.016 Y92.247 E.01711
G1 X130.516 Y92.174 E.01584
G1 X130.993 Y92.16 E.01496
G1 X131.491 Y92.21 E.01569
G1 X132.028 Y92.35 E.0174
G1 X132.571 Y92.582 E.01851
G1 X133.005 Y92.841 E.01585
G1 X133.408 Y93.161 E.01613
G1 X133.759 Y93.539 E.01617
G1 X134.117 Y94.056 E.01972
G1 X134.353 Y94.557 E.01736
G1 X134.517 Y95.038 E.01593
G1 X134.608 Y95.603 E.01794
G1 X134.609 Y96.27 E.02091
G1 X134.536 Y96.729 E.01457
G1 X134.435 Y97.072 E.01121
G1 X134.435 Y97.072 F10800
G1 X134.065 Y97.013
G1 F1200
G1 X134.043 Y97.092 E.00257
G1 X133.893 Y97.458 E.0124
G1 X133.599 Y97.951 E.018
G1 X133.247 Y98.366 E.01706
G1 X132.834 Y98.716 E.01697
G1 X132.34 Y99.011 E.01804
G1 X131.744 Y99.238 E.02
G1 X131.116 Y99.35 E.02
G1 X130.479 Y99.344 E.01997
G1 X129.854 Y99.22 E.01998
G1 X129.303 Y99 E.0186
G1 X128.726 Y98.637 E.02137
G1 X128.572 Y98.514 E.00618
G1 X128.161 Y98.083 E.01867
G1 X127.864 Y97.643 E.01664
G1 X127.618 Y97.106 E.01852
G1 X127.507 Y96.706 E.01302
G1 X127.417 Y96.102 E.01915
G1 X127.441 Y95.534 E.01783
G1 X127.577 Y94.911 E.01999
G1 X127.818 Y94.341 E.0194
G1 X128.18 Y93.795 E.02054
G1 X128.626 Y93.339 E.02
G1 X129.116 Y92.996 E.01875
G1 X129.631 Y92.754 E.01784
G1 X130.108 Y92.614 E.01559
G1 X130.702 Y92.533 E.0188
G1 X131.295 Y92.565 E.01862
G1 X131.924 Y92.712 E.02025
G1 X132.401 Y92.919 E.0163
G1 X132.835 Y93.186 E.01598
G1 X133.264 Y93.551 E.01766
G1 X133.593 Y93.933 E.01581
G1 X133.879 Y94.398 E.01712
G1 X134.095 Y94.958 E.01882
G1 X134.207 Y95.443 E.01561
G1 X134.247 Y95.951 E.01598
G1 X134.196 Y96.533 E.01832
G1 X134.081 Y96.955 E.01371
G1 X134.081 Y96.955 F10800
G1 X133.706 Y96.895
G1 F1200
G1 X133.68 Y96.99 E.00309
G1 X133.414 Y97.546 E.01933
G1 X133.064 Y98.008 E.01817
G1 X132.642 Y98.387 E.01778
G1 X132.157 Y98.681 E.01778
G1 X131.626 Y98.88 E.01778
G1 X131.067 Y98.977 E.01779
G1 X130.5 Y98.968 E.01778
G1 X129.945 Y98.854 E.01776
G1 X129.46 Y98.657 E.01641
G1 X128.944 Y98.329 E.01917
G1 X128.825 Y98.233 E.00479
G1 X128.455 Y97.847 E.01676
G1 X128.131 Y97.348 E.01865
G1 X127.922 Y96.836 E.01734
G1 X127.828 Y96.326 E.01626
G1 X127.793 Y95.883 E.01393
G1 X127.854 Y95.334 E.01732
G1 X128.009 Y94.815 E.01698
G1 X128.252 Y94.335 E.01687
G1 X128.57 Y93.913 E.01657
G1 X128.953 Y93.555 E.01644
G1 X129.424 Y93.251 E.01758
G1 X129.983 Y93.026 E.01889
G1 X130.624 Y92.92 E.02037
G1 X131.263 Y92.94 E.02005
G1 X131.82 Y93.075 E.01797
G1 X132.338 Y93.31 E.01783
G1 X132.784 Y93.622 E.01707
G1 X133.197 Y94.042 E.01847
G1 X133.497 Y94.488 E.01685
G1 X133.74 Y95.084 E.02018
G1 X133.833 Y95.492 E.01312
G1 X133.87 Y95.933 E.01388
G1 X133.827 Y96.453 E.01636
G1 X133.722 Y96.837 E.01248
G1 X133.722 Y96.837 F10800
G1 X133.345 Y96.776
G1 F1200
G1 X133.287 Y96.978 E.00659
G1 X133.032 Y97.449 E.01679
G1 X132.652 Y97.889 E.01823
G1 X132.256 Y98.195 E.01569
G1 X131.805 Y98.424 E.01586
G1 X131.233 Y98.574 E.01854
G1 X130.797 Y98.607 E.01371
G1 X130.278 Y98.548 E.01638
G1 X129.869 Y98.43 E.01335
G1 X129.425 Y98.208 E.01556
G1 X129.077 Y97.953 E.01353
G1 X128.727 Y97.583 E.01597
G1 X128.454 Y97.15 E.01605
G1 X128.26 Y96.636 E.01723
G1 X128.179 Y96.13 E.01607
G1 X128.193 Y95.59 E.01694
G1 X128.332 Y95.022 E.01833
G1 X128.568 Y94.542 E.01677
G1 X128.904 Y94.111 E.01713
G1 X129.286 Y93.781 E.01583
G1 X129.708 Y93.534 E.01533
G1 X130.199 Y93.363 E.0163
G1 X130.752 Y93.286 E.01751
G1 X131.304 Y93.326 E.01735
G1 X131.801 Y93.466 E.01619
G1 X132.267 Y93.703 E.01639
G1 X132.702 Y94.055 E.01755
G1 X133.017 Y94.428 E.01531
G1 X133.262 Y94.865 E.01571
G1 X133.433 Y95.367 E.01663
G1 X133.494 Y95.89 E.01651
G1 X133.447 Y96.421 E.01671
G1 X133.362 Y96.718 E.00969
G1 X133.362 Y96.718 F10800
G1 X132.988 Y96.658
G1 F1200
G1 X132.936 Y96.841 E.00596
G1 X132.688 Y97.279 E.01578
G1 X132.409 Y97.601 E.01336
G1 X132.065 Y97.87 E.01369
G1 X131.688 Y98.066 E.01332
G1 X131.183 Y98.201 E.01639
G1 X130.818 Y98.23 E.01148
G1 X130.369 Y98.182 E.01416
G1 X130.026 Y98.087 E.01116
G1 X129.643 Y97.9 E.01336
G1 X129.329 Y97.673 E.01215
G1 X129.012 Y97.331 E.01462
G1 X128.786 Y96.968 E.01341
G1 X128.624 Y96.526 E.01476
G1 X128.545 Y96.021 E.01603
G1 X128.585 Y95.52 E.01576
G1 X128.706 Y95.104 E.01358
G1 X128.9 Y94.724 E.01338
G1 X129.161 Y94.387 E.01336
G1 X129.486 Y94.1 E.01359
G1 X129.846 Y93.885 E.01315
G1 X130.271 Y93.734 E.01414
G1 X130.777 Y93.662 E.01603
G1 X131.286 Y93.707 E.01602
G1 X131.791 Y93.878 E.01672
G1 X132.147 Y94.084 E.0129
G1 X132.421 Y94.306 E.01106
G1 X132.696 Y94.626 E.01323
G1 X132.932 Y95.062 E.01554
G1 X133.086 Y95.589 E.01721
G1 X133.117 Y95.898 E.00974
G1 X133.083 Y96.324 E.0134
G1 X133.004 Y96.601 E.00903
G1 X133.004 Y96.601 F10800
G1 X132.63 Y96.54
;TYPE:External perimeter
G1 F1200
G1 X132.59 Y96.687 E.00478
G1 X132.347 Y97.1 E.01502
G1 X131.974 Y97.471 E.0165
G1 X131.57 Y97.707 E.01467
G1 X131.134 Y97.827 E.01418
G1 X130.839 Y97.854 E.00929
G1 X130.46 Y97.816 E.01194
G1 X130.184 Y97.744 E.00894
G1 X129.861 Y97.592 E.01119
G1 X129.582 Y97.393 E.01075
G1 X129.327 Y97.125 E.0116
G1 X129.134 Y96.823 E.01124
G1 X128.996 Y96.466 E.012
G1 X128.921 Y95.97 E.01573
G1 X128.997 Y95.438 E.01685
G1 X129.192 Y94.965 E.01604
G1 X129.418 Y94.663 E.01183
G1 X129.687 Y94.419 E.01139
G1 X129.984 Y94.236 E.01094
G1 X130.325 Y94.107 E.01143
G1 X130.831 Y94.039 E.01601
G1 X131.201 Y94.074 E.01165
G1 X131.723 Y94.266 E.01744
G1 X132.141 Y94.558 E.01599
G1 X132.375 Y94.824 E.01111
G1 X132.577 Y95.189 E.01308
G1 X132.712 Y95.638 E.0147
G1 X132.726 Y96.182 E.01706
G1 X132.645 Y96.482 E.00974
;WIPE_START
G1 F8640
G1 X132.63 Y96.54 E-.01383
G1 X132.59 Y96.687 E-.03518
G1 X132.347 Y97.1 E-.11065
G1 X131.974 Y97.471 E-.12148
G1 X131.57 Y97.707 E-.10803
G1 X131.134 Y97.827 E-.10442
G1 X130.839 Y97.854 E-.0684
G1 X130.46 Y97.816 E-.08795
G1 X130.184 Y97.744 E-.06586
G1 X129.861 Y97.592 E-.08243
G1 X129.855 Y97.588 E-.00177
;WIPE_END
G1 Z.6 F10800
G1 X136.281 Y97.744
G1 Z.2
G1 E.8 F2100
;TYPE:Perimeter
;WIDTH:0.502299
G1 F1200
G1 X136.073 Y98.416 E.02687
G1 X135.951 Y98.629 E.00938
;WIDTH:0.490806
G1 X135.586 Y99.177 E.02452
;WIDTH:0.50354
G1 X135.303 Y99.627 E.02036
G1 X134.887 Y100.008 E.02161
;WIDTH:0.501616
G1 X134.496 Y100.429 E.02191
G1 X134.232 Y100.6 E.012
;WIDTH:0.477541
G1 X133.766 Y100.893 E.01989
;WIDTH:0.503936
G1 X133.284 Y101.199 E.02189
G1 X132.768 Y101.349 E.0206
;WIDTH:0.501369
G1 X132.169 Y101.586 E.02456
G1 X131.94 Y101.622 E.00884
;WIDTH:0.489644
G1 X131.413 Y101.662 E.01963
;WIDTH:0.501202
G1 X130.862 Y101.741 E.02121
G1 X130.584 Y101.708 E.01067
;WIDTH:0.48337
G1 X129.991 Y101.631 E.0219
;WIDTH:0.505107
G1 X129.466 Y101.578 E.02028
G1 X128.934 Y101.365 E.02202
;WIDTH:0.504473
G1 X128.363 Y101.189 E.02293
G1 X128.138 Y101.06 E.00995
;WIDTH:0.488344
G1 X127.651 Y100.732 E.02175
;WIDTH:0.500783
G1 X127.15 Y100.421 E.02245
G1 X126.803 Y100.035 E.01976
;WIDTH:0.498289
G1 X126.348 Y99.614 E.02347
G1 X126.208 Y99.402 E.00962
;WIDTH:0.482538
G1 X125.941 Y98.965 E.01872
;WIDTH:0.502147
G1 X125.634 Y98.518 E.02071
G1 X125.55 Y98.268 E.01007
;WIDTH:0.484613
G1 X125.337 Y97.638 E.02442
;WIDTH:0.50408
G1 X125.166 Y97.167 E.01921
G1 X125.125 Y96.604 E.02165
;WIDTH:0.500469
G1 X125.038 Y95.859 E.02854
G1 X125.123 Y95.35 E.01963
;WIDTH:0.501805
G1 X125.171 Y94.718 E.02418
G1 X125.331 Y94.281 E.01776
;WIDTH:0.506804
G1 X125.58 Y93.495 E.0318
G1 X125.703 Y93.278 E.00962
;WIDTH:0.492206
G1 X125.992 Y92.85 E.01929
;WIDTH:0.501707
G1 X126.358 Y92.267 E.02626
G1 X126.802 Y91.861 E.02295
;WIDTH:0.501509
G1 X127.178 Y91.448 E.0213
