; generated by PrusaSlicer 2.8.0+win64 on 2024-07-21 at 18:27:54 UTC

; 

; external perimeters extrusion width = 0.45mm
; perimeters extrusion width = 0.45mm
; infill extrusion width = 0.45mm
; solid infill extrusion width = 0.45mm
; top infill extrusion width = 0.40mm
; first layer extrusion width = 0.42mm

M73 P0 R31
M73 Q0 S32

; printing object gear1.stl id:0 copy 0
; stop printing object gear1.stl id:0 copy 0

;TYPE:Custom
M862.3 P "MK3S" ; printer model check
M862.1 P0.4 ; nozzle diameter check
M115 U3.9.3 ; tell printer latest fw version
G90 ; use absolute coordinates
M83 ; extruder relative mode
M104 S205 ; set extruder temp
M140 S67 ; set bed temp
M190 S67 ; wait for bed temp
M109 S205 ; wait for extruder temp
G28 W ; home all without mesh bed level
G80 ; mesh bed leveling
G1 Y-3.0 F1000.0 ; go outside print area
G92 E0.0
G1 X60.0 E9.0 F1000.0 ; intro line
G1 X100.0 E12.5 F1000.0 ; intro line
G92 E0.0
M221 S95

; Don't change E values below. Excessive value can damage the printer.
M907 E430 ; set extruder motor current
G21 ; set units to millimeters
G90 ; use absolute coordinates
M83 ; use relative distances for extrusion
M900 K0.05 ; Filament gcode LA 1.5
M900 K30 ; Filament gcode LA 1.0
M107
;LAYER_CHANGE
;Z:0.2
;HEIGHT:0.2
G1 E-.8 F2100
G1 Z.6 F10800
; printing object gear1.stl id:0 copy 0
G1 X198.812 Y32.499
G1 Z.2
G1 E.8 F2100
M204 S1000
;TYPE:Perimeter
;WIDTH:0.419999
G1 F1200
G1 X198.821 Y32.325 E.00546
G1 X198.9 Y31.824 E.0159
G1 X199.137 Y31.094 E.02406
G1 X199.368 Y30.642 E.01592
G1 X199.655 Y30.203 E.01644
;WIDTH:0.45877
G1 X199.902 Y29.919 E.01301
;WIDTH:0.497541
G1 X200.15 Y29.635 E.01425
;WIDTH:0.508229
G1 X200.469 Y29.359 E.01632
;WIDTH:0.53905
G1 X200.973 Y29.056 E.02426
G1 X201.258 Y28.962 E.01238
;WIDTH:0.499367
G1 X201.544 Y28.867 E.01144
;WIDTH:0.459683
G1 X201.829 Y28.773 E.0104
;WIDTH:0.419999
G1 X202.452 Y28.668 E.01981
G1 X202.817 Y28.637 E.01149
G1 X203.554 Y28.715 E.02324
G1 X204.241 Y28.876 E.02212
G1 X204.93 Y29.212 E.02403
G1 X205.44 Y29.558 E.01932
G1 X205.909 Y30.022 E.02069
G1 X206.276 Y30.49 E.01865
G1 X206.591 Y31.094 E.02136
G1 X206.774 Y31.572 E.01605
G1 X206.907 Y32.325 E.02398
G1 X206.936 Y32.778 E.01423
G1 X206.828 Y33.593 E.02578
G1 X206.695 Y34.089 E.0161
G1 X206.266 Y34.943 E.02997
G1 X205.909 Y35.395 E.01806
G1 X205.551 Y35.754 E.0159
G1 X205.124 Y36.094 E.01711
M73 Q0 S31
G1 X204.478 Y36.435 E.0229
G1 X203.993 Y36.62 E.01628
G1 X203.282 Y36.746 E.02264
G1 X202.751 Y36.779 E.01668
G1 X202.166 Y36.701 E.0185
G1 X201.648 Y36.595 E.01658
G1 X200.798 Y36.204 E.02934
G1 X200.36 Y35.919 E.01638
G1 X199.887 Y35.463 E.0206
G1 X199.504 Y35.009 E.01862
G1 X199.215 Y34.475 E.01904
G1 X199.028 Y34.074 E.01387
G1 X198.848 Y33.263 E.02605
G1 X198.795 Y32.846 E.01318
G1 X198.809 Y32.559 E.00901
G1 X198.809 Y32.559 F10800
G1 X199.179 Y32.527
G1 F1200
G1 X199.273 Y31.883 E.02041
G1 X199.473 Y31.265 E.02037
G1 X199.704 Y30.813 E.01592
G1 X199.946 Y30.442 E.01389
G1 X200.444 Y29.929 E.02242
G1 X200.712 Y29.703 E.01099
G1 X201.171 Y29.445 E.01651
G1 X201.911 Y29.141 E.02508
G1 X202.513 Y29.04 E.01914
G1 X202.821 Y29.014 E.00969
G1 X203.498 Y29.088 E.02135
G1 X204.106 Y29.228 E.01956
G1 X204.759 Y29.548 E.0228
G1 X205.19 Y29.841 E.01634
G1 X205.643 Y30.288 E.01995
G1 X205.953 Y30.685 E.01579
G1 X206.255 Y31.265 E.0205
G1 X206.411 Y31.673 E.0137
G1 X206.535 Y32.384 E.02263
G1 X206.545 Y32.956 E.01794
G1 X206.455 Y33.534 E.01834
G1 X206.343 Y33.954 E.01363
G1 X205.944 Y34.746 E.02781
G1 X205.604 Y35.167 E.01697
G1 X205.157 Y35.604 E.0196
G1 X204.759 Y35.868 E.01497
G1 X204.307 Y36.099 E.01592
G1 X203.79 Y36.281 E.01719
G1 X203.223 Y36.373 E.01801
G1 X202.768 Y36.402 E.0143
G1 X202.225 Y36.329 E.01718
G1 X201.758 Y36.235 E.01494
G1 X200.969 Y35.868 E.02728
G1 X200.522 Y35.561 E.017
G1 X200.153 Y35.196 E.01627
G1 X199.819 Y34.801 E.01622
G1 X199.551 Y34.303 E.01773
G1 X199.381 Y33.941 E.01254
G1 X199.221 Y33.204 E.02365
G1 X199.173 Y32.587 E.0194
G1 X199.173 Y32.587 F10800
G1 X199.566 Y32.559
G1 F1200
G1 X199.566 Y32.443 E.00364
G1 X199.645 Y31.942 E.0159
G1 X199.809 Y31.437 E.01665
G1 X200.04 Y30.984 E.01594
G1 X200.352 Y30.555 E.01663
G1 X200.711 Y30.196 E.01592
G1 X201.14 Y29.884 E.01663
G1 X201.592 Y29.654 E.0159
G1 X202.092 Y29.49 E.0165
G1 X202.756 Y29.393 E.02104
G1 X203.442 Y29.461 E.02161
G1 X203.972 Y29.581 E.01704
G1 X204.588 Y29.884 E.02152
G1 X204.94 Y30.124 E.01336
G1 X205.376 Y30.555 E.01922
G1 X205.63 Y30.879 E.01291
G1 X205.919 Y31.437 E.0197
G1 X206.081 Y31.93 E.01627
G1 X206.162 Y32.443 E.01628
G1 X206.162 Y32.974 E.01665
G1 X206.083 Y33.475 E.0159
G1 X205.991 Y33.818 E.01113
G1 X205.623 Y34.549 E.02566
G1 X205.338 Y34.9 E.01418
G1 X204.914 Y35.316 E.01862
G1 X204.588 Y35.532 E.01226
G1 X204.136 Y35.763 E.01592
G1 X203.713 Y35.912 E.01406
G1 X203.164 Y36.001 E.01744
G1 X202.786 Y36.025 E.01188
G1 X202.284 Y35.957 E.01588
G1 X201.868 Y35.874 E.0133
G1 X201.14 Y35.532 E.02522
G1 X200.774 Y35.281 E.01391
G1 X200.352 Y34.861 E.01867
G1 X200.04 Y34.432 E.01663
G1 X199.809 Y33.98 E.01592
G1 X199.645 Y33.475 E.01665
G1 X199.566 Y32.974 E.0159
G1 X199.566 Y32.619 E.01113
G1 X199.566 Y32.619 F10800
G1 X199.931 Y32.587
G1 F1200
G1 X200.018 Y32.001 E.01857
G1 X200.206 Y31.489 E.0171
G1 X200.497 Y30.961 E.0189
G1 X200.977 Y30.463 E.02169
G1 X201.311 Y30.22 E.01295
G1 X201.764 Y29.989 E.01594
G1 X202.152 Y29.863 E.01279
G1 X202.776 Y29.77 E.01978
G1 X203.387 Y29.834 E.01926
G1 X203.886 Y29.953 E.01608
G1 X204.417 Y30.22 E.01864
G1 X204.751 Y30.463 E.01295
G1 X205.11 Y30.821 E.0159
G1 X205.352 Y31.156 E.01296
G1 X205.583 Y31.608 E.01592
G1 X205.71 Y32 E.01292
G1 X205.79 Y32.502 E.01594
G1 X205.785 Y32.943 E.01383
G1 X205.707 Y33.438 E.01571
G1 X205.583 Y33.809 E.01226
G1 X205.301 Y34.352 E.01918
G1 X205.071 Y34.633 E.01139
G1 X204.67 Y35.028 E.01765
G1 X204.187 Y35.313 E.01758
G1 X203.704 Y35.527 E.01656
G1 X203.105 Y35.628 E.01905
G1 X202.658 Y35.634 E.01402
G1 X202.156 Y35.554 E.01594
G1 X201.75 Y35.42 E.01341
G1 X201.262 Y35.17 E.01719
G1 X200.977 Y34.954 E.01121
G1 X200.618 Y34.595 E.01592
G1 X200.357 Y34.225 E.0142
G1 X200.1 Y33.71 E.01805
G1 X199.965 Y33.086 E.02002
G1 X199.926 Y32.646 E.01385
G1 X199.926 Y32.646 F10800
G1 X200.306 Y32.616
G1 F1200
G1 X200.39 Y32.059 E.01766
G1 X200.542 Y31.66 E.01339
G1 X200.798 Y31.188 E.01684
G1 X201.244 Y30.729 E.02007
G1 X201.483 Y30.556 E.00925
G1 X201.935 Y30.325 E.01592
G1 X202.212 Y30.235 E.00913
G1 X202.795 Y30.146 E.01849
G1 X203.331 Y30.207 E.01691
G1 X203.737 Y30.299 E.01305
G1 X204.245 Y30.556 E.01785
G1 X204.484 Y30.729 E.00925
G1 X204.848 Y31.093 E.01614
G1 X205.071 Y31.433 E.01275
G1 X205.317 Y31.963 E.01832
G1 X205.417 Y32.561 E.01901
G1 X205.413 Y32.884 E.01013
G1 X205.315 Y33.462 E.01838
G1 X204.98 Y34.155 E.02413
G1 X204.484 Y34.687 E.02281
G1 X204.246 Y34.86 E.00923
G1 X203.793 Y35.091 E.01594
G1 X203.444 Y35.193 E.0114
G1 X202.867 Y35.273 E.01826
G1 X202.215 Y35.182 E.02064
G1 X201.921 Y35.084 E.00972
G1 X201.447 Y34.842 E.01669
G1 X201.244 Y34.687 E.00801
G1 X200.885 Y34.328 E.01592
G1 X200.693 Y34.054 E.01049
G1 X200.449 Y33.567 E.01708
G1 X200.338 Y33.027 E.01729
G1 X200.304 Y32.676 E.01106
G1 X200.304 Y32.676 F10800
G1 X200.701 Y32.648
G1 F1200
G1 X200.763 Y32.118 E.01673
G1 X201.048 Y31.498 E.0214
G1 X201.511 Y30.996 E.02141
G1 X201.955 Y30.738 E.0161
G1 X202.272 Y30.607 E.01075
G1 X202.815 Y30.523 E.01723
G1 X203.421 Y30.602 E.01916
G1 X203.622 Y30.661 E.00657
G1 X204.074 Y30.892 E.01592
G1 X204.576 Y31.355 E.02141
G1 X204.911 Y31.95 E.02141
G1 X205.045 Y32.62 E.02142
G1 X204.965 Y33.298 E.02141
G1 X204.658 Y33.957 E.02279
G1 X204.217 Y34.42 E.02005
G1 X203.622 Y34.755 E.02141
G1 X202.987 Y34.884 E.02032
G1 X202.737 Y34.883 E.00784
G1 X202.225 Y34.799 E.01627
G1 X201.654 Y34.524 E.01987
G1 X201.22 Y34.13 E.01838
G1 X201.029 Y33.882 E.00981
G1 X200.798 Y33.424 E.01608
G1 X200.683 Y32.797 E.01999
G1 X200.694 Y32.708 E.00281
G1 X200.694 Y32.708 F10800
G1 X201.064 Y32.677
;TYPE:External perimeter
G1 F1200
G1 X201.135 Y32.177 E.01583
G1 X201.384 Y31.669 E.01774
G1 X201.777 Y31.263 E.01772
G1 X202.277 Y30.997 E.01776
G1 X202.814 Y30.902 E.0171
G1 X203.366 Y30.975 E.01746
G1 X203.903 Y31.228 E.01861
G1 X204.31 Y31.621 E.01774
G1 X204.575 Y32.121 E.01774
G1 X204.672 Y32.679 E.01776
G1 X204.593 Y33.239 E.01773
G1 X204.337 Y33.76 E.0182
G1 X203.951 Y34.154 E.01729
G1 X203.451 Y34.419 E.01774
G1 X202.928 Y34.511 E.01665
G1 X202.333 Y34.437 E.0188
G1 X201.825 Y34.189 E.01772
G1 X201.418 Y33.795 E.01776
G1 X201.153 Y33.295 E.01774
G1 X201.056 Y32.738 E.01773
;WIPE_START
G1 F8640
G1 X201.064 Y32.677 E-.01421
G1 X201.135 Y32.177 E-.11661
G1 X201.384 Y31.669 E-.13063
G1 X201.777 Y31.263 E-.13047
G1 X202.277 Y30.997 E-.13077
G1 X202.814 Y30.902 E-.12592
G1 X203.366 Y30.975 E-.12857
G1 X203.455 Y31.017 E-.02282
;WIPE_END
G1 Z.6 F10800
G1 X207.776 Y6.953
G1 Z.2
G1 E.8 F2100
;TYPE:Perimeter
;WIDTH:0.6393
G1 F1200
G1 X207.894 Y7.73 E.03897
;WIPE_START
G1 F8640
G1 X207.776 Y6.953 E-.18147
;WIPE_END
G1 E-.61853 F2100
G1 Z.6 F10800
G1 X208.451 Y11.086
G1 Z.2
G1 E.8 F2100
;WIDTH:0.473774
G1 F1200
G1 X208.446 Y11.458 E.01333
;WIDTH:0.448335
G1 X208.442 Y11.83 E.01254
;WIDTH:0.4591
G1 X208.462 Y12.049 E.00761
;WIDTH:0.495303
G1 X208.481 Y12.268 E.00827
;WIDTH:0.531506
G1 X208.501 Y12.486 E.00889
;WIDTH:0.534056
G1 X208.503 Y12.501 E.00062
;WIPE_START
G1 F8640
G1 X208.501 Y12.486 E-.00349
G1 X208.481 Y12.268 E-.05055
G1 X208.462 Y12.049 E-.05076
G1 X208.442 Y11.83 E-.05078
G1 X208.446 Y11.458 E-.0859
G1 X208.451 Y11.086 E-.0859
;WIPE_END
G1 E-.47262 F2100
G1 Z.6 F10800
G1 X208.738 Y15.679
G1 Z.2
G1 E.8 F2100
;WIDTH:0.578532
G1 F1200
G1 X208.685 Y16.282 E.02696
;WIPE_START
G1 F8640
G1 X208.738 Y15.679 E-.13977
;WIPE_END
G1 E-.66023 F2100
G1 Z.6 F10800
G1 X208.739 Y17.98
G1 Z.2
G1 E.8 F2100
;WIDTH:0.378964
G1 F1200
G1 X208.691 Y18.279 E.00846
;WIPE_START
G1 F8640
G1 X208.739 Y17.98 E-.06992
;WIPE_END
G1 E-.73008 F2100
G1 Z.6 F10800
G1 X204.893 Y27.517
G1 Z.2
G1 E.8 F2100
;WIDTH:0.419999
G1 F1200
G1 X204.413 Y27.371 E.01573
G1 X205.01 Y26.763 E.02672
G1 X205.903 Y25.77 E.04187
G1 X206.844 Y24.607 E.04691
G1 X207.585 Y23.573 E.03989
G1 X207.621 Y24.168 E.01869
G1 X207.717 Y24.952 E.02477
G1 X207.691 Y25.577 E.01961
G1 X207.724 Y26.407 E.02604
G1 X207.801 Y27.048 E.02024
G1 X207.762 Y27.817 E.02414
G1 X207.776 Y28.648 E.02606
G1 X207.851 Y29.353 E.02223
G1 X207.782 Y30.111 E.02386
G1 X207.422 Y29.487 E.02259
G1 X206.976 Y28.955 E.02177
G1 X206.617 Y28.596 E.01592
G1 X206.222 Y28.25 E.01646
G1 X205.615 Y27.868 E.02249
G1 X204.949 Y27.538 E.0233
G1 X204.949 Y27.538 F10800
G1 X204.802 Y27.895
G1 F1200
G1 X204.645 Y27.82 E.00546
G1 X203.65 Y27.586 E.03205
G1 X204.734 Y26.505 E.048
G1 X205.237 Y25.964 E.02316
G1 X206.115 Y24.922 E.04272
G1 X206.543 Y24.38 E.02165
G1 X207.146 Y23.549 E.03219
G1 X207.927 Y22.352 E.04481
G1 X207.969 Y22.584 E.00739
G1 X207.947 Y23.316 E.02296
G1 X207.997 Y24.145 E.02604
G1 X208.102 Y24.813 E.0212
G1 X208.068 Y25.562 E.02351
G1 X208.1 Y26.393 E.02607
G1 X208.199 Y27.1 E.02238
G1 X208.139 Y27.811 E.02237
G1 X208.153 Y28.642 E.02606
G1 X208.235 Y29.351 E.02238
G1 X208.16 Y30.061 E.02239
G1 X208.157 Y30.892 E.02606
;WIDTH:0.416037
G1 X208.234 Y31.659 E.02392
;WIDTH:0.415138
G1 X208.185 Y31.876 E.00689
;WIDTH:0.459305
G1 X208.137 Y32.092 E.00766
;WIDTH:0.503472
G1 X208.088 Y32.309 E.00852
G1 X208.063 Y32.227 E.00328
;WIDTH:0.475282
G1 X208.038 Y32.146 E.00305
;WIDTH:0.447091
G1 X207.977 Y31.886 E.00898
;WIDTH:0.409031
G1 X207.917 Y31.627 E.00809
;WIDTH:0.416037
G1 X207.763 Y30.961 E.02121
;WIDTH:0.419999
G1 X207.423 Y30.235 E.02514
G1 X207.113 Y29.703 E.01931
G1 X206.709 Y29.222 E.0197
G1 X205.993 Y28.55 E.03079
G1 X205.444 Y28.204 E.02035
G1 X204.856 Y27.921 E.02046
;WIPE_START
G1 F8640
G1 X204.802 Y27.895 E-.01384
G1 X204.645 Y27.82 E-.04018
G1 X203.65 Y27.586 E-.23602
G1 X204.734 Y26.505 E-.35349
G1 X205.195 Y26.009 E-.15647
;WIPE_END
G1 Z.6 F10800
G1 X208.088 Y32.309
G1 Z.2
G1 E.8 F2100
;WIDTH:0.503472
G1 F1200
G1 X208.091 Y32.812 E.01926
;WIDTH:0.50657
G1 X208.079 Y33.055 E.00938
;WIDTH:0.544672
G1 X208.068 Y33.299 E.01019
;WIDTH:0.582774
G1 X208.056 Y33.542 E.01092
;WIDTH:0.620876
G1 X208.044 Y33.786 E.01174
;WIDTH:0.664634
G1 X207.95 Y34.291 E.02655
;WIPE_START
G1 F8640
M73 Q1 S31
G1 X208.044 Y33.786 E-.11861
G1 X208.056 Y33.542 E-.05641
G1 X208.068 Y33.299 E-.05618
G1 X208.079 Y33.055 E-.0564
G1 X208.091 Y32.812 E-.05618
G1 X208.088 Y32.309 E-.11615
;WIPE_END
G1 E-.34007 F2100
G1 Z.6 F10800
G1 X207.628 Y35.594
G1 Z.2
G1 E.8 F2100
M73 P1 R31
;WIDTH:0.419999
G1 F1200
G1 X207.651 Y36.104 E.01601
G1 X207.542 Y36.777 E.02138
G1 X207.481 Y37.606 E.02606
G1 X207.488 Y38.27 E.02082
G1 X207.362 Y39.011 E.02357
G1 X207.282 Y39.838 E.02605
G1 X207.269 Y40.416 E.01813
G1 X207.241 Y40.673 E.00811
G1 X207.131 Y41.24 E.01811
G1 X207.033 Y42.066 E.02608
G1 X207.007 Y42.658 E.01858
G1 X206.851 Y43.464 E.02574
G1 X206.734 Y44.287 E.02606
G1 X206.696 Y44.915 E.01973
G1 X206.521 Y45.681 E.02464
G1 X206.385 Y46.501 E.02606
G1 X206.333 Y47.121 E.01951
G1 X206.214 Y47.572 E.01462
G1 X205.979 Y48.763 E.03806
G1 X205.648 Y47.945 E.02767
G1 X205.375 Y47.342 E.02075
G1 X205.031 Y46.657 E.02403
G1 X204.673 Y46.013 E.0231
G1 X204.34 Y45.472 E.01992
G1 X203.987 Y44.937 E.0201
G1 X203.554 Y44.329 E.0234
G1 X203.168 Y43.826 E.01988
G1 X202.767 Y43.35 E.01951
G1 X201.901 Y42.41 E.04007
G1 X201.264 Y41.799 E.02768
G1 X200.45 Y41.103 E.03358
G1 X199.904 Y40.675 E.02175
G1 X199.178 Y40.16 E.02791
G1 X198.417 Y39.675 E.02829
G1 X197.429 Y39.124 E.03547
G1 X196.889 Y38.851 E.01897
G1 X196.084 Y38.49 E.02766
G1 X195.1 Y38.114 E.03303
G1 X194.416 Y37.885 E.02262
G1 X193.576 Y37.649 E.02736
G1 X192.716 Y37.451 E.02767
G1 X191.551 Y37.256 E.03704
G1 X189.473 Y37.037 E.06551
G1 X187.918 Y36.921 E.04889
G1 X185.897 Y36.825 E.06344
G1 X183.221 Y36.781 E.08392
G1 X180.661 Y36.84 E.08029
G1 X178.656 Y36.947 E.06295
G1 X177.014 Y37.08 E.05165
G1 X175.463 Y37.241 E.04889
G1 X173.916 Y37.437 E.04889
G1 X172.374 Y37.668 E.04889
G1 X170.837 Y37.933 E.0489
G1 X169.843 Y38.127 E.03175
G1 X167.763 Y38.57 E.06668
G1 X165.809 Y39.054 E.06312
G1 X164.761 Y39.333 E.034
G1 X163.348 Y39.742 E.04612
G1 X161.776 Y40.235 E.05166
G1 X160.35 Y40.718 E.04721
G1 X158.834 Y41.269 E.05058
G1 X157.798 Y41.672 E.03485
G1 X157.843 Y41.126 E.01718
G1 X157.781 Y40.117 E.0317
G1 X157.605 Y38.948 E.03707
G1 X157.465 Y37.832 E.03527
G1 X157.353 Y36.713 E.03526
G1 X157.268 Y35.591 E.03528
G1 X157.211 Y34.469 E.03522
G1 X157.182 Y33.307 E.03644
G1 X157.186 Y31.945 E.0427
G1 X168.125 Y33.24 E.34538
G1 X169.505 Y33.468 E.04386
G1 X171.153 Y33.704 E.0522
G1 X172.721 Y33.894 E.04952
G1 X174.294 Y34.05 E.04956
G1 X175.87 Y34.173 E.04956
G1 X176.948 Y34.234 E.03385
G1 X178.492 Y34.299 E.04845
G1 X180.607 Y34.339 E.06633
G1 X182.187 Y34.327 E.04954
G1 X183.788 Y34.28 E.05022
G1 X185.78 Y34.171 E.06255
G1 X186.922 Y34.089 E.0359
G1 X188.495 Y33.942 E.04954
G1 X190.065 Y33.762 E.04955
G1 X192.089 Y33.477 E.06409
G1 X193.192 Y33.302 E.03502
G1 X194.748 Y33.022 E.04957
G1 X196.24 Y32.721 E.04772
G1 X196.762 Y32.579 E.01696
G1 X197.303 Y32.345 E.01848
G1 X197.29 Y32.461 E.00366
G1 X197.331 Y33.328 E.02721
G1 X197.411 Y33.829 E.01591
G1 X197.617 Y34.607 E.02523
G1 X197.793 Y35.007 E.0137
G1 X198.024 Y35.459 E.01592
G1 X198.354 Y35.997 E.01979
G1 X198.82 Y36.529 E.02217
G1 X199.406 Y37.087 E.02537
G1 X200.113 Y37.548 E.02646
G1 X200.736 Y37.861 E.02186
G1 X201.208 Y38.038 E.01581
G1 X201.743 Y38.162 E.01722
G1 X202.245 Y38.241 E.01593
G1 X202.875 Y38.29 E.01981
G1 X203.483 Y38.241 E.01913
G1 X203.985 Y38.161 E.01594
G1 X204.579 Y38.02 E.01914
G1 X205.163 Y37.779 E.01981
G1 X205.615 Y37.548 E.01592
G1 X206.15 Y37.22 E.01968
G1 X206.617 Y36.82 E.01928
G1 X207.186 Y36.235 E.02559
G1 X207.594 Y35.644 E.02252
;WIPE_START
G1 F8640
G1 X207.628 Y35.594 E-.01396
G1 X207.651 Y36.104 E-.11788
G1 X207.542 Y36.777 E-.15742
G1 X207.481 Y37.606 E-.19194
G1 X207.488 Y38.27 E-.15333
G1 X207.368 Y38.976 E-.16547
;WIPE_END
G1 Z.6 F10800
G1 X207.873 Y37.417
G1 Z.2
G1 E.8 F2100
G1 F1200
