; generated by PrusaSlicer 2.8.0+win64 on 2024-07-23 at 20:11:12 UTC

; 

; external perimeters extrusion width = 0.45mm
; perimeters extrusion width = 0.45mm
; infill extrusion width = 0.45mm
; solid infill extrusion width = 0.45mm
; top infill extrusion width = 0.40mm
; first layer extrusion width = 0.42mm

; external perimeters extrusion width = 0.45mm
; perimeters extrusion width = 0.45mm
; infill extrusion width = 0.45mm
; solid infill extrusion width = 0.45mm
; top infill extrusion width = 0.40mm
; first layer extrusion width = 0.42mm

; external perimeters extrusion width = 0.45mm
; perimeters extrusion width = 0.45mm
; infill extrusion width = 0.45mm
; solid infill extrusion width = 0.45mm
; top infill extrusion width = 0.40mm
; first layer extrusion width = 0.42mm

; external perimeters extrusion width = 0.45mm
; perimeters extrusion width = 0.45mm
; infill extrusion width = 0.45mm
; solid infill extrusion width = 0.45mm
; top infill extrusion width = 0.40mm
; first layer extrusion width = 0.42mm

; external perimeters extrusion width = 0.45mm
; perimeters extrusion width = 0.45mm
; infill extrusion width = 0.45mm
; solid infill extrusion width = 0.45mm
; top infill extrusion width = 0.40mm
; first layer extrusion width = 0.42mm

; external perimeters extrusion width = 0.45mm
; perimeters extrusion width = 0.45mm
; infill extrusion width = 0.45mm
; solid infill extrusion width = 0.45mm
; top infill extrusion width = 0.40mm
; first layer extrusion width = 0.42mm

M73 P0 R9
M73 Q0 S9

; printing object lens.stl id:2 copy 0
; stop printing object lens.stl id:2 copy 0
; printing object lens.stl id:5 copy 0
; stop printing object lens.stl id:5 copy 0
; printing object lens.stl id:4 copy 0
; stop printing object lens.stl id:4 copy 0
; printing object lens.stl id:3 copy 0
; stop printing object lens.stl id:3 copy 0
; printing object lens.stl id:0 copy 0
; stop printing object lens.stl id:0 copy 0
; printing object lens.stl id:1 copy 0
; stop printing object lens.stl id:1 copy 0

;TYPE:Custom
M862.3 P "MK3S" ; printer model check
M862.1 P0.4 ; nozzle diameter check
M115 U3.9.3 ; tell printer latest fw version
G90 ; use absolute coordinates
M83 ; extruder relative mode
M104 S205 ; set extruder temp
M140 S67 ; set bed temp
M190 S67 ; wait for bed temp
M109 S205 ; wait for extruder temp
G28 W ; home all without mesh bed level
G80 ; mesh bed leveling
G1 Y-3.0 F1000.0 ; go outside print area
G92 E0.0
G1 X60.0 E9.0 F1000.0 ; intro line
G1 X100.0 E12.5 F1000.0 ; intro line
G92 E0.0
M221 S95

; Don't change E values below. Excessive value can damage the printer.
M907 E430 ; set extruder motor current
G21 ; set units to millimeters
G90 ; use absolute coordinates
M83 ; use relative distances for extrusion
M900 K0.05 ; Filament gcode LA 1.5
M900 K30 ; Filament gcode LA 1.0
M107
;LAYER_CHANGE
;Z:0.2
;HEIGHT:0.2
G1 E-.8 F2100
M73 P1 R9
M73 Q1 S9
G1 Z.6 F10800
G1 X162.651 Y38.34
G1 Z.2
G1 E.8 F2100
M204 S1000
;TYPE:Skirt/Brim
;WIDTH:0.42
G1 F1200
G1 X162.812 Y37.842 E.01641
G1 X163.411 Y37.19 E.02776
G1 X164.045 Y36.945 E.02131
G1 X170.269 Y36.948 E.19515
G1 X170.583 Y37.029 E.01017
G1 X183.385 Y36.961 E.4014
G1 X183.93 Y37.146 E.01805
G1 X184.486 Y37.66 E.02374
G1 X184.781 Y38.355 E.02367
G1 X184.781 Y44.562 E.19462
G1 X184.715 Y44.805 E.0079
G1 X184.753 Y51.176 E.19976
G1 X184.568 Y51.722 E.01808
G1 X184.054 Y52.278 E.02374
G1 X183.358 Y52.572 E.02369
G1 X177.147 Y52.564 E.19474
G1 X176.774 Y52.668 E.01214
G1 X170.435 Y52.637 E.19876
G1 X170.089 Y52.738 E.0113
G1 X163.885 Y52.738 E.19452
G1 X163.339 Y52.553 E.01808
G1 X162.784 Y52.039 E.02372
G1 X162.489 Y51.344 E.02367
G1 X162.489 Y45.139 E.19455
G1 X162.653 Y44.613 E.01728
G1 X162.651 Y38.4 E.1948
G1 X162.651 Y38.4 F10800
G1 X163.028 Y38.398
G1 F1200
G1 X163.028 Y38.371 E.00085
G1 X163.225 Y37.898 E.01607
G1 X163.63 Y37.498 E.01785
G1 X164.077 Y37.322 E.01506
G1 X170.25 Y37.325 E.19355
G1 X170.538 Y37.431 E.00962
G1 X183.353 Y37.338 E.40182
G1 X183.826 Y37.533 E.01604
M73 P2 R9
M73 Q2 S9
G1 X184.206 Y37.913 E.01685
G1 X184.403 Y38.387 E.01609
G1 X184.403 Y44.53 E.19261
G1 X184.32 Y44.8 E.00886
G1 X184.376 Y45.002 E.00657
G1 X184.376 Y51.145 E.19261
G1 X184.181 Y51.617 E.01601
G1 X183.8 Y51.998 E.01689
G1 X183.327 Y52.195 E.01607
G1 X177.067 Y52.187 E.19628
G1 X176.756 Y52.291 E.01028
G1 X170.428 Y52.241 E.19842
G1 X170.057 Y52.361 E.01223
G1 X163.917 Y52.361 E.19252
G1 X163.444 Y52.166 E.01604
G1 X163.063 Y51.786 E.01687
G1 X162.866 Y51.312 E.01609
G1 X162.866 Y45.171 E.19255
G1 X163.069 Y44.686 E.01649
G1 X163.028 Y38.458 E.19528
G1 X163.028 Y38.458 F10800
G1 X163.405 Y38.458
G1 F1200
G1 X163.405 Y38.406 E.00163
G1 X163.486 Y38.179 E.00756
G1 X163.858 Y37.798 E.0167
G1 X164.112 Y37.699 E.00855
G1 X170.231 Y37.706 E.19186
G1 X170.521 Y37.837 E.00998
G1 X170.705 Y37.781 E.00603
G1 X176.941 Y37.825 E.19553
G1 X177.248 Y37.715 E.01023
G1 X183.319 Y37.715 E.19035
G1 X183.574 Y37.814 E.00858
G1 X183.927 Y38.168 E.01567
G1 X184.026 Y38.422 E.00855
G1 X184.026 Y44.493 E.19035
G1 X183.918 Y44.798 E.01014
G1 X183.999 Y45.038 E.00794
G1 X183.999 Y51.111 E.19041
G1 X183.899 Y51.365 E.00856
G1 X183.546 Y51.719 E.01567
G1 X183.292 Y51.818 E.00855
G1 X177.058 Y51.775 E.19547
G1 X176.735 Y51.914 E.01103
G1 X170.649 Y51.914 E.19082
G1 X170.371 Y51.819 E.00921
G1 X170.021 Y51.984 E.01213
G1 X163.95 Y51.984 E.19035
G1 X163.696 Y51.885 E.00855
M73 P3 R9
M73 Q3 S9
G1 X163.343 Y51.531 E.01567
G1 X163.243 Y51.277 E.00856
G1 X163.243 Y45.206 E.19035
G1 X163.507 Y44.776 E.01582
G1 X163.405 Y44.478 E.00988
G1 X163.405 Y38.518 E.18687
G1 X163.81 Y38.52 F10800
G1 F1200
G1 X163.811 Y38.379 E.00442
G1 X164.154 Y38.076 E.01435
G1 X170.141 Y38.076 E.18772
G1 X170.488 Y38.382 E.01451
G1 X170.751 Y38.158 E.01083
G1 X176.739 Y38.158 E.18775
G1 X176.981 Y38.36 E.00988
G1 X177.29 Y38.092 E.01282
G1 X183.347 Y38.121 E.18992
G1 X183.649 Y38.464 E.01433
G1 X183.649 Y44.451 E.18772
G1 X183.361 Y44.78 E.01371
G1 X183.622 Y45.082 E.01252
G1 X183.593 Y51.138 E.18988
G1 X183.25 Y51.441 E.01435
G1 X177.262 Y51.441 E.18775
G1 X177.019 Y51.238 E.00993
G1 X176.679 Y51.537 E.0142
G1 X170.692 Y51.537 E.18772
G1 X170.371 Y51.256 E.01338
G1 X169.979 Y51.607 E.0165
G1 X163.923 Y51.578 E.18988
G1 X163.62 Y51.235 E.01435
G1 X163.62 Y45.248 E.18772
G1 X164.067 Y44.761 E.02073
G1 X163.782 Y44.435 E.01358
G1 X163.81 Y38.58 E.18358
;WIPE_START
G1 F8640
G1 X163.81 Y38.52 E-.01385
G1 X163.811 Y38.379 E-.03256
G1 X164.154 Y38.076 E-.10568
G1 X166.96 Y38.076 E-.64791
;WIPE_END
G1 Z.6 F10800
G1 X164.108 Y45.253
G1 Z.2
G1 E.8 F2100
G1 F1200
G1 X169.864 Y45.253 E.18048
G1 X169.974 Y45.363 E.00488
G1 X169.974 Y51.12 E.18051
G1 X169.864 Y51.23 E.00488
G1 X164.108 Y51.23 E.18048
G1 X163.997 Y51.12 E.0049
M73 P4 R9
M73 Q4 S9
G1 X163.997 Y45.363 E.18051
G1 X164.065 Y45.295 E.00302
;WIPE_START
G1 F8640
G1 X164.108 Y45.253 E-.01388
G1 X167.512 Y45.253 E-.78612
;WIPE_END
G1 Z.6 F10800
G1 X170.697 Y45.295
G1 Z.2
G1 E.8 F2100
G1 F1200
G1 X170.697 Y45.293 E.00006
G1 X170.808 Y45.183 E.0049
G1 X176.564 Y45.183 E.18048
G1 X176.674 Y45.293 E.00488
M73 P4 R8
G1 X176.674 Y51.049 E.18048
G1 X176.564 Y51.16 E.0049
G1 X170.808 Y51.16 E.18048
G1 X170.697 Y51.049 E.00492
G1 X170.697 Y45.355 E.17853
;WIPE_START
G1 F8640
G1 X170.697 Y45.295 E-.01385
G1 X170.697 Y45.293 E-.00046
G1 X170.808 Y45.183 E-.03608
G1 X174.054 Y45.183 E-.74961
;WIPE_END
G1 Z.6 F10800
G1 X177.268 Y45.355
G1 Z.2
G1 E.8 F2100
G1 F1200
G1 X177.268 Y45.197 E.00495
G1 X177.378 Y45.087 E.00488
G1 X183.134 Y45.087 E.18048
G1 X183.245 Y45.197 E.0049
G1 X183.245 Y50.953 E.18048
G1 X183.134 Y51.064 E.00492
G1 X177.378 Y51.064 E.18048
G1 X177.268 Y50.953 E.0049
G1 X177.268 Y45.415 E.17364
G1 X177.268 Y45.415 F10800
G1 X177.406 Y44.446
G1 F1200
G1 X177.295 Y44.336 E.0049
G1 X177.295 Y38.579 E.18051
G1 X177.406 Y38.469 E.0049
G1 X183.162 Y38.469 E.18048
G1 X183.272 Y38.579 E.00488
M73 Q4 S8
G1 X183.272 Y44.336 E.18051
G1 X183.162 Y44.446 E.00488
G1 X177.466 Y44.446 E.17859
G1 X177.466 Y44.446 F10800
G1 X176.734 Y44.402
G1 F1200
G1 X176.623 Y44.512 E.0049
G1 X170.867 Y44.512 E.18048
G1 X170.757 Y44.402 E.00488
G1 X170.757 Y38.646 E.18048
G1 X170.867 Y38.535 E.0049
G1 X176.623 Y38.535 E.18048
G1 X176.734 Y38.646 E.00492
M73 P5 R8
M73 Q5 S8
G1 X176.734 Y44.342 E.17859
;WIPE_START
G1 F8640
G1 X176.734 Y44.402 E-.01385
G1 X176.623 Y44.512 E-.03608
G1 X173.375 Y44.512 E-.75007
;WIPE_END
G1 Z.6 F10800
G1 X170.136 Y44.32
G1 Z.2
G1 E.8 F2100
G1 F1200
G1 X170.026 Y44.43 E.00488
G1 X164.27 Y44.43 E.18048
G1 X164.159 Y44.32 E.0049
G1 X164.159 Y38.564 E.18048
G1 X164.27 Y38.453 E.00492
G1 X170.026 Y38.453 E.18048
G1 X170.136 Y38.564 E.0049
G1 X170.136 Y44.26 E.17859
;WIPE_START
G1 F8640
G1 X170.136 Y44.32 E-.01385
G1 X170.026 Y44.43 E-.03592
G1 X166.777 Y44.43 E-.75023
;WIPE_END
G1 Z.6 F10800
; printing object lens.stl id:3 copy 0
G1 X167.69 Y47.537
G1 Z.2
G1 E.8 F2100
;TYPE:Perimeter
;WIDTH:0.419999
G1 F1200
G1 X167.69 Y48.242 E.0221
G1 X167.69 Y48.946 E.02207
G1 X166.281 Y48.946 E.04418
G1 X166.281 Y47.537 E.04418
G1 X167.63 Y47.537 E.0423
G1 X167.63 Y47.537 F10800
G1 X168.067 Y47.16
G1 F1200
G1 X168.067 Y48.242 E.03393
G1 X168.067 Y49.323 E.03389
G1 X165.904 Y49.323 E.06782
G1 X165.904 Y47.16 E.06782
G1 X168.007 Y47.16 E.06594
G1 X168.007 Y47.16 F10800
G1 X168.445 Y46.783
G1 F1200
G1 X168.445 Y48.242 E.04575
G1 X168.445 Y49.7 E.04571
G1 X165.527 Y49.7 E.09149
G1 X165.527 Y46.783 E.09146
G1 X168.385 Y46.783 E.08961
G1 X168.385 Y46.783 F10800
G1 X168.822 Y46.406
G1 F1200
G1 X168.822 Y48.242 E.05757
G1 X168.822 Y50.077 E.05754
G1 X165.15 Y50.077 E.11513
G1 X165.15 Y46.406 E.1151
G1 X168.762 Y46.406 E.11325
G1 X168.762 Y46.406 F10800
G1 X169.199 Y46.029
G1 F1200
G1 X169.199 Y48.242 E.06939
G1 X169.199 Y50.454 E.06936
G1 X164.773 Y50.454 E.13877
G1 X164.773 Y46.029 E.13874
G1 X169.139 Y46.029 E.13689
G1 X169.139 Y46.029 F10800
M73 P6 R8
M73 Q6 S8
G1 X169.576 Y45.652
;TYPE:External perimeter
G1 F1200
G1 X169.576 Y48.242 E.08121
G1 X169.576 Y50.832 E.08121
G1 X164.396 Y50.832 E.16241
G1 X164.396 Y45.652 E.16241
G1 X169.516 Y45.652 E.16053
;WIPE_START
G1 F8640
G1 X169.576 Y45.652 E-.01385
G1 X169.576 Y48.242 E-.59804
G1 X169.576 Y49.057 E-.18811
;WIPE_END
G1 Z.6 F10800
G1 X167.577 Y48.528
G1 Z.2
G1 E.8 F2100
;TYPE:Solid infill
;WIDTH:0.474492
G1 F1200
G1 X166.869 Y47.82 E.03593
G1 X166.564 Y47.82 E.01095
G1 X166.564 Y48.125 E.01095
G1 X167.272 Y48.833 E.03593
;WIPE_START
G1 F8640
G1 X166.564 Y48.125 E-.23119
G1 X166.564 Y47.82 E-.07043
G1 X166.869 Y47.82 E-.07043
G1 X167.577 Y48.528 E-.23119
;WIPE_END
G1 E-.19676 F2100
G1 Z.6 F10800
; stop printing object lens.stl id:3 copy 0
; printing object lens.stl id:4 copy 0
G1 X172.981 Y48.876
G1 Z.2
G1 E.8 F2100
;TYPE:Perimeter
;WIDTH:0.419999
G1 F1200
G1 X172.981 Y47.466 E.04421
G1 X174.39 Y47.466 E.04418
G1 X174.39 Y48.171 E.0221
G1 X174.39 Y48.876 E.0221
G1 X173.041 Y48.876 E.0423
G1 X173.041 Y48.876 F10800
G1 X172.604 Y49.253
G1 F1200
G1 X172.604 Y47.089 E.06785
G1 X174.767 Y47.089 E.06782
G1 X174.767 Y48.171 E.03393
G1 X174.767 Y49.253 E.03393
G1 X172.664 Y49.253 E.06594
G1 X172.664 Y49.253 F10800
G1 X172.227 Y49.63
G1 F1200
G1 X172.227 Y46.712 E.09149
G1 X175.144 Y46.712 E.09146
G1 X175.144 Y48.171 E.04575
G1 X175.144 Y49.63 E.04575
G1 X172.287 Y49.63 E.08958
G1 X172.287 Y49.63 F10800
G1 X171.85 Y50.007
G1 F1200
G1 X171.85 Y46.335 E.11513
G1 X175.521 Y46.335 E.1151
G1 X175.521 Y48.171 E.05757
G1 X175.521 Y50.007 E.05757
G1 X171.91 Y50.007 E.11322
G1 X171.91 Y50.007 F10800
G1 X171.473 Y50.384
G1 F1200
G1 X171.473 Y45.958 E.13877
G1 X175.899 Y45.958 E.13877
G1 X175.899 Y48.171 E.06939
G1 X175.899 Y50.384 E.06939
G1 X171.533 Y50.384 E.13689
G1 X171.533 Y50.384 F10800
G1 X171.096 Y50.761
;TYPE:External perimeter
G1 F1200
G1 X171.096 Y45.581 E.16241
G1 X176.276 Y45.581 E.16241
M73 P7 R8
M73 Q7 S8
G1 X176.276 Y48.171 E.08121
G1 X176.276 Y50.761 E.08121
G1 X171.156 Y50.761 E.16053
;WIPE_START
G1 F8640
G1 X171.096 Y50.761 E-.01385
G1 X171.096 Y47.356 E-.78615
;WIPE_END
G1 Z.6 F10800
G1 X174.277 Y48.457
G1 Z.2
G1 E.8 F2100
;TYPE:Solid infill
;WIDTH:0.474492
G1 F1200
G1 X173.569 Y47.749 E.03593
G1 X173.264 Y47.749 E.01095
G1 X173.264 Y48.055 E.01098
G1 X173.972 Y48.763 E.03593
;WIPE_START
G1 F8640
G1 X173.264 Y48.055 E-.23119
G1 X173.264 Y47.749 E-.07066
G1 X173.569 Y47.749 E-.07043
G1 X174.277 Y48.457 E-.23119
;WIPE_END
G1 E-.19653 F2100
G1 Z.6 F10800
; stop printing object lens.stl id:4 copy 0
; printing object lens.stl id:5 copy 0
G1 X179.551 Y48.78
G1 Z.2
G1 E.8 F2100
;TYPE:Perimeter
;WIDTH:0.419999
G1 F1200
G1 X179.551 Y47.371 E.04418
G1 X180.961 Y47.371 E.04421
G1 X180.961 Y48.075 E.02207
G1 X180.961 Y48.78 E.0221
G1 X179.611 Y48.78 E.04233
G1 X179.611 Y48.78 F10800
G1 X179.174 Y49.157
G1 F1200
G1 X179.174 Y46.994 E.06782
G1 X181.338 Y46.994 E.06785
G1 X181.338 Y48.075 E.03389
G1 X181.338 Y49.157 E.03393
G1 X179.234 Y49.157 E.06597
G1 X179.234 Y49.157 F10800
G1 X178.797 Y49.534
G1 F1200
G1 X178.797 Y46.617 E.09146
G1 X181.715 Y46.617 E.09149
G1 X181.715 Y48.075 E.04571
G1 X181.715 Y49.534 E.04575
G1 X178.857 Y49.534 E.08961
G1 X178.857 Y49.534 F10800
G1 X178.42 Y49.911
G1 F1200
G1 X178.42 Y46.24 E.1151
G1 X182.092 Y46.24 E.11513
G1 X182.092 Y48.075 E.05754
G1 X182.092 Y49.911 E.05757
G1 X178.48 Y49.911 E.11325
G1 X178.48 Y49.911 F10800
G1 X178.043 Y50.288
G1 F1200
G1 X178.043 Y45.862 E.13877
G1 X182.469 Y45.862 E.13877
G1 X182.469 Y48.075 E.06939
G1 X182.469 Y50.288 E.06939
G1 X178.103 Y50.288 E.13689
G1 X178.103 Y50.288 F10800
G1 X177.666 Y50.665
;TYPE:External perimeter
G1 F1200
G1 X177.666 Y45.485 E.16241
G1 X182.846 Y45.485 E.16241
G1 X182.846 Y48.075 E.08121
M73 P8 R8
G1 X182.846 Y50.665 E.08121
M73 Q8 S8
G1 X177.726 Y50.665 E.16053
;WIPE_START
G1 F8640
G1 X177.666 Y50.665 E-.01385
G1 X177.666 Y47.261 E-.78615
;WIPE_END
G1 Z.6 F10800
G1 X180.848 Y48.362
G1 Z.2
G1 E.8 F2100
;TYPE:Solid infill
;WIDTH:0.474492
G1 F1200
G1 X180.139 Y47.654 E.03596
G1 X179.834 Y47.654 E.01095
G1 X179.834 Y47.959 E.01095
G1 X180.542 Y48.667 E.03593
;WIPE_START
G1 F8640
G1 X179.834 Y47.959 E-.23119
G1 X179.834 Y47.654 E-.07043
G1 X180.139 Y47.654 E-.07043
G1 X180.848 Y48.362 E-.23136
;WIPE_END
G1 E-.19659 F2100
G1 Z.6 F10800
; stop printing object lens.stl id:5 copy 0
; printing object lens.stl id:2 copy 0
G1 X180.988 Y42.162
G1 Z.2
G1 E.8 F2100
;TYPE:Perimeter
;WIDTH:0.419999
G1 F1200
G1 X179.579 Y42.162 E.04418
G1 X179.579 Y40.753 E.04418
G1 X180.988 Y40.753 E.04418
G1 X180.988 Y41.458 E.0221
G1 X180.988 Y42.102 E.02019
G1 X180.988 Y42.102 F10800
G1 X181.365 Y42.539
G1 F1200
G1 X179.202 Y42.539 E.06782
G1 X179.202 Y40.376 E.06782
G1 X181.365 Y40.376 E.06782
G1 X181.365 Y41.458 E.03393
G1 X181.365 Y42.479 E.03201
G1 X181.365 Y42.479 F10800
G1 X181.742 Y42.916
G1 F1200
G1 X178.825 Y42.916 E.09146
G1 X178.825 Y39.999 E.09146
G1 X181.742 Y39.999 E.09146
G1 X181.742 Y41.458 E.04575
G1 X181.742 Y42.856 E.04383
G1 X181.742 Y42.856 F10800
G1 X182.12 Y43.293
G1 F1200
G1 X178.448 Y43.293 E.11513
G1 X178.448 Y39.622 E.1151
G1 X182.12 Y39.622 E.11513
G1 X182.12 Y41.458 E.05757
G1 X182.12 Y43.233 E.05565
G1 X182.12 Y43.233 F10800
G1 X182.497 Y43.671
G1 F1200
G1 X178.071 Y43.671 E.13877
G1 X178.071 Y39.245 E.13877
G1 X182.497 Y39.245 E.13877
G1 X182.497 Y41.458 E.06939
G1 X182.497 Y43.611 E.06751
G1 X182.497 Y43.611 F10800
G1 X182.874 Y44.048
;TYPE:External perimeter
G1 F1200
G1 X177.694 Y44.048 E.16241
G1 X177.694 Y38.868 E.16241
G1 X182.874 Y38.868 E.16241
G1 X182.874 Y41.458 E.08121
G1 X182.874 Y43.988 E.07933
M73 P9 R8
M73 Q9 S8
;WIPE_START
G1 F8640
G1 X182.874 Y44.048 E-.01385
G1 X179.469 Y44.048 E-.78615
;WIPE_END
G1 Z.6 F10800
G1 X180.875 Y41.744
G1 Z.2
G1 E.8 F2100
;TYPE:Solid infill
;WIDTH:0.474492
G1 F1200
G1 X180.167 Y41.036 E.03593
G1 X179.862 Y41.036 E.01095
G1 X179.862 Y41.341 E.01095
G1 X180.57 Y42.049 E.03593
;WIPE_START
G1 F8640
G1 X179.862 Y41.341 E-.23119
G1 X179.862 Y41.036 E-.07043
G1 X180.167 Y41.036 E-.07043
G1 X180.875 Y41.744 E-.23119
;WIPE_END
G1 E-.19676 F2100
G1 Z.6 F10800
; stop printing object lens.stl id:2 copy 0
