; generated by PrusaSlicer 2.8.0+win64 on 2024-07-23 at 19:40:49 UTC

; 

; external perimeters extrusion width = 0.60mm
; perimeters extrusion width = 0.50mm
; infill extrusion width = 0.50mm
; solid infill extrusion width = 0.50mm
; top infill extrusion width = 0.45mm
; first layer extrusion width = 0.42mm

M73 P0 R115
M73 Q0 S117

; printing object middle.stl id:0 copy 0
; stop printing object middle.stl id:0 copy 0

;TYPE:Custom
M862.3 P "MK3S" ; printer model check
M862.1 P0.4 ; nozzle diameter check
M115 U3.9.3 ; tell printer latest fw version
G90 ; use absolute coordinates
M83 ; extruder relative mode
M104 S205 ; set extruder temp
M140 S67 ; set bed temp
M190 S67 ; wait for bed temp
M109 S205 ; wait for extruder temp
G28 W ; home all without mesh bed level
G80 ; mesh bed leveling
G1 Y-3.0 F1000.0 ; go outside print area
G92 E0.0
G1 X60.0 E9.0 F1000.0 ; intro line
G1 X100.0 E12.5 F1000.0 ; intro line
G92 E0.0
M221 S95

; Don't change E values below. Excessive value can damage the printer.

M907 E538 ; set extruder motor current
G21 ; set units to millimeters
G90 ; use absolute coordinates
M83 ; use relative distances for extrusion
M900 K0.05 ; Filament gcode LA 1.5
M900 K30 ; Filament gcode LA 1.0
M107
;LAYER_CHANGE
;Z:0.2
;HEIGHT:0.2
G1 E-.8 F2100
G1 Z.6 F10800
; printing object middle.stl id:0 copy 0
G1 X165.801 Y59.21
G1 Z.2
G1 E.8 F2100
M204 S1000
;TYPE:External perimeter
;WIDTH:0.419999
G1 F1200
G1 X165.884 Y59.373 E.00574
G1 X165.845 Y59.533 E.00516
G1 X163.35 Y62.527 E.1222
G1 X163.35 Y64.33 E.05653
G1 X163.35 Y65.709 E.04324
G1 X165.795 Y68.154 E.10842
G1 X165.85 Y68.298 E.00483
G1 X165.85 Y74.6 E.19759
G1 X165.799 Y74.729 E.00435
G1 X165.661 Y74.789 E.00472
G1 X129.218 Y74.789 E1.14264
G1 X129.077 Y74.725 E.00486
G1 X129.03 Y74.548 E.00574
G1 X129.03 Y71.789 E.08651
G1 X124.218 Y71.789 E.15088
G1 X124.071 Y71.718 E.00512
G1 X124.03 Y71.555 E.00527
G1 X124.03 Y59.157 E.38873
G1 X124.095 Y59.015 E.0049
G1 X124.218 Y58.969 E.00412
G1 X165.581 Y58.969 E1.29691
G1 X165.698 Y59.01 E.00389
G1 X165.773 Y59.156 E.00515
;WIPE_START
G1 F8640
G1 X165.801 Y59.21 E-.01405
G1 X165.884 Y59.373 E-.04224
G1 X165.845 Y59.533 E-.03803
G1 X163.888 Y61.881 E-.70568
;WIPE_END
G1 Z.6 F10800
G1 X166.306 Y60.727
G1 Z.2
G1 E.8 F2100
G1 F1200
G1 X166.583 Y60.634 E.00916
G1 X167.014 Y60.55 E.01377
G1 X167.428 Y60.524 E.01301
G1 X167.89 Y60.553 E.01451
G1 X168.34 Y60.647 E.01441
G1 X168.735 Y60.783 E.0131
G1 X169.128 Y60.979 E.01377
G1 X169.492 Y61.224 E.01376
G1 X169.821 Y61.515 E.01377
G1 X170.11 Y61.846 E.01378
G1 X170.339 Y62.191 E.01298
G1 X170.626 Y62.845 E.02239
G1 X170.761 Y63.406 E.01809
G1 X170.796 Y63.891 E.01525
G1 X170.765 Y64.329 E.01377
G1 X170.678 Y64.759 E.01376
G1 X170.501 Y65.244 E.01619
G1 X170.34 Y65.567 E.01132
G1 X170.095 Y65.931 E.01376
G1 X169.804 Y66.26 E.01377
G1 X169.473 Y66.549 E.01378
G1 X169.107 Y66.791 E.01376
G1 X168.419 Y67.083 E.02343
G1 X167.89 Y67.204 E.01701
G1 X167.427 Y67.235 E.01455
G1 X166.99 Y67.204 E.01374
G1 X166.457 Y67.08 E.01716
G1 X166.144 Y66.974 E.01036
G1 X165.751 Y66.779 E.01376
G1 X165.387 Y66.534 E.01376
G1 X165.058 Y66.243 E.01377
G1 X164.77 Y65.912 E.01376
G1 X164.527 Y65.546 E.01377
G1 X164.335 Y65.152 E.01374
G1 X164.195 Y64.735 E.01379
G1 X164.111 Y64.305 E.01374
G1 X164.084 Y63.866 E.01379
G1 X164.114 Y63.429 E.01373
G1 X164.254 Y62.845 E.01883
G1 X164.527 Y62.212 E.02161
G1 X164.785 Y61.826 E.01456
G1 X165.076 Y61.497 E.01377
G1 X165.407 Y61.209 E.01376
G1 X165.773 Y60.966 E.01377
G1 X166.167 Y60.774 E.01374
G1 X166.25 Y60.746 E.00275
;WIPE_START
G1 F8640
G1 X166.306 Y60.727 E-.01365
G1 X166.583 Y60.634 E-.06747
G1 X167.014 Y60.55 E-.10139
G1 X167.428 Y60.524 E-.09578
G1 X167.89 Y60.553 E-.10689
G1 X168.34 Y60.647 E-.10615
G1 X168.735 Y60.783 E-.09646
G1 X169.128 Y60.979 E-.1014
G1 X169.492 Y61.224 E-.10131
G1 X169.523 Y61.251 E-.0095
;WIPE_END
G1 Z.6 F10800
G1 X125.919 Y72.538
G1 Z.2
G1 E.8 F2100
;TYPE:Perimeter
;WIDTH:0.41104
G1 F1200
G1 X125.667 Y72.521 E.00773
;WIDTH:0.376996
G1 X125.416 Y72.504 E.00699
;WIDTH:0.356654
G1 X125.258 Y72.511 E.00413
;WIPE_START
G1 F8640
G1 X125.416 Y72.504 E-.03652
G1 X125.667 Y72.521 E-.05809
G1 X125.919 Y72.538 E-.05832
;WIPE_END
G1 E-.64707 F2100
G1 Z.6 F10800
G1 X127.805 Y74.697
G1 Z.2
G1 E.8 F2100
;WIDTH:0.612714
G1 F1200
G1 X127.808 Y74.21 E.02307
;WIDTH:0.601452
G1 X127.713 Y73.937 E.01342
;WIDTH:0.55853
G1 X127.619 Y73.664 E.01238
;WIDTH:0.515607
G1 X127.525 Y73.39 E.01139
;WIDTH:0.472684
G1 X127.247 Y72.946 E.01872
G1 X127.872 Y72.946 E.02233
G1 X127.872 Y73.687 E.02648
;WIDTH:0.515607
G1 X127.851 Y73.861 E.00689
;WIDTH:0.55853
G1 X127.829 Y74.036 E.00756
;WIDTH:0.601452
G1 X127.815 Y74.15 E.00533
;WIPE_START
G1 F8640
G1 X127.808 Y74.21 E-.01395
G1 X127.713 Y73.937 E-.06674
G1 X127.619 Y73.664 E-.06667
G1 X127.525 Y73.39 E-.06689
G1 X127.247 Y72.946 E-.12096
G1 X127.872 Y72.946 E-.14431
G1 X127.872 Y73.687 E-.1711
G1 X127.851 Y73.861 E-.04047
G1 X127.829 Y74.036 E-.04073
G1 X127.815 Y74.15 E-.02652
;WIPE_END
G1 E-.04166 F2100
G1 Z.6 F10800
G1 X124.063 Y57.379
G1 Z.2
G1 E.8 F2100
;WIDTH:0.596954
G1 F1200
G1 X124.218 Y57.379 E.00714
;WIDTH:0.583368
G1 X165.581 Y57.379 E1.85879
;WIDTH:0.59787
G1 X165.776 Y57.382 E.009
;WIPE_START
G1 F8640
G1 X165.581 Y57.379 E-.04503
G1 X162.311 Y57.379 E-.75497
;WIPE_END
G1 Z.6 F10800
G1 X167.453 Y71.91
G1 Z.2
G1 E.8 F2100
;WIDTH:0.61032
G1 F1200
G1 X167.44 Y71.6 E.01464
;WIDTH:0.583368
G1 X167.44 Y68.825 E.1247
;WIPE_START
G1 F8640
G1 X167.44 Y71.6 E-.64076
G1 X167.453 Y71.91 E-.07164
;WIPE_END
G1 E-.0876 F2100
G1 Z.6 F10800
G1 X167.349 Y59.018
G1 Z.2
G1 E.8 F2100
;WIDTH:0.419999
G1 F1200
G1 X167.117 Y58.438 E.01959
G1 X166.641 Y57.833 E.02414
G1 X166.237 Y57.593 E.01473
;WIDTH:0.464467
G1 X166.122 Y57.54 E.00444
;WIDTH:0.508935
G1 X166.007 Y57.488 E.00489
;WIDTH:0.553403
G1 X165.892 Y57.435 E.00537
;WIDTH:0.59787
G1 X165.776 Y57.382 E.00588
G1 X165.894 Y57.335 E.00586
;WIDTH:0.553403
G1 X166.011 Y57.288 E.00535
;WIDTH:0.508935
G1 X166.129 Y57.24 E.00494
;WIDTH:0.464467
G1 X166.246 Y57.193 E.00442
;WIDTH:0.419999
G1 X166.66 Y56.972 E.01471
G1 X167.152 Y56.411 E.0234
;WIDTH:0.467579
G1 X167.22 Y56.286 E.00502
;WIDTH:0.515159
G1 X167.289 Y56.16 E.00564
;WIDTH:0.562739
G1 X167.358 Y56.035 E.00617
;WIDTH:0.610318
G1 X167.426 Y55.91 E.00671
G1 X167.45 Y56.059 E.00712
;WIDTH:0.562739
G1 X167.474 Y56.207 E.00648
;WIDTH:0.515159
G1 X167.498 Y56.356 E.00593
;WIDTH:0.467579
G1 X167.521 Y56.505 E.00532
;WIDTH:0.419999
G1 X167.517 Y59.014 E.07867
G1 X167.409 Y59.017 E.00339
;WIPE_START
G1 F8640
G1 X167.349 Y59.018 E-.01386
G1 X167.117 Y58.438 E-.14424
G1 X166.641 Y57.833 E-.17775
G1 X166.237 Y57.593 E-.1085
G1 X166.122 Y57.54 E-.02924
G1 X166.007 Y57.488 E-.02914
G1 X165.892 Y57.435 E-.02924
G1 X165.776 Y57.382 E-.02945
G1 X165.894 Y57.335 E-.02933
G1 X166.011 Y57.288 E-.02911
G1 X166.129 Y57.24 E-.02941
G1 X166.246 Y57.193 E-.02911
G1 X166.66 Y56.972 E-.10836
G1 X166.698 Y56.929 E-.01326
;WIPE_END
G1 Z.6 F10800
G1 X167.426 Y55.91
G1 Z.2
G1 E.8 F2100
;WIDTH:0.610318
G1 F1200
G1 X167.44 Y55.6 E.01464
;WIDTH:0.583368
G1 X167.44 Y38.658 E.76135
;WIPE_START
G1 F8640
G1 X167.44 Y42.123 E-.8
;WIPE_END
G1 Z.6 F10800
G1 X178.016 Y35.615
G1 Z.2
G1 E.8 F2100
;WIDTH:0.419999
G1 F1200
G1 X178.016 Y30.671 E.15502
G1 X178.088 Y30.182 E.0155
G1 X178.287 Y29.751 E.01488
G1 X178.624 Y29.37 E.01595
G1 X179.116 Y29.083 E.01786
G1 X179.42 Y29 E.00988
G1 X179.713 Y28.974 E.00922
G1 X192.661 Y28.974 E.40597
G1 X193.115 Y29.036 E.01437
G1 X193.521 Y29.208 E.01383
G1 X193.946 Y29.563 E.01736
G1 X194.209 Y29.975 E.01533
G1 X194.345 Y30.46 E.01579
G1 X194.358 Y35.662 E.16311
G1 X194.568 Y35.723 E.00686
G1 X194.997 Y36.112 E.01816
G1 X195.271 Y36.621 E.01812
G1 X195.358 Y37.157 E.01703
G1 X195.358 Y37.73 E.01797
G1 X195.728 Y37.331 E.01706
G1 X196.259 Y36.996 E.01969
G1 X196.801 Y36.796 E.01811
G1 X197.317 Y36.715 E.01638
G1 X197.845 Y36.759 E.01661
G1 X198.376 Y36.879 E.01707
G1 X198.913 Y37.164 E.01906
G1 X199.365 Y37.543 E.01849
G1 X199.582 Y37.802 E.01059
G1 X199.876 Y38.312 E.01846
G1 X199.992 Y38.63 E.01061
G1 X200.094 Y39.21 E.01846
G1 X200.069 Y39.841 E.0198
G1 X199.876 Y40.445 E.01988
G1 X199.589 Y40.947 E.01813
G1 X199.389 Y41.188 E.00982
G1 X198.956 Y41.561 E.01792
G1 X198.646 Y41.747 E.01134
G1 X198.067 Y41.964 E.01939
G1 X197.518 Y42.046 E.0174
G1 X196.813 Y41.964 E.02225
G1 X196.259 Y41.762 E.01849
G1 X195.966 Y41.593 E.01061
G1 X195.515 Y41.214 E.01847
G1 X195.358 Y41.027 E.00766
G1 X195.358 Y63.73 E.71184
G1 X195.515 Y63.543 E.00766
M73 P0 R114
G1 X195.966 Y63.164 E.01847
G1 X196.491 Y62.884 E.01866
G1 X197.11 Y62.74 E.01993
;WIDTH:0.451555
G1 X197.398 Y62.721 E.00981
;WIDTH:0.48311
G1 X197.686 Y62.701 E.01057
G1 X198.165 Y62.785 E.0178
;WIDTH:0.478157
G1 X198.393 Y62.89 E.00908
;WIDTH:0.449078
G1 X198.621 Y62.996 E.00849
;WIDTH:0.419999
G1 X198.913 Y63.164 E.01056
G1 X199.365 Y63.543 E.01849
G1 X199.615 Y63.843 E.01224
G1 X199.876 Y64.312 E.01683
G1 X199.992 Y64.63 E.01061
G1 X200.094 Y65.21 E.01846
G1 X200.069 Y65.841 E.0198
G1 X199.89 Y66.413 E.01879
G1 X199.611 Y66.911 E.0179
G1 X199.383 Y67.192 E.01135
G1 X198.913 Y67.593 E.01937
G1 X198.336 Y67.893 E.02039
G1 X197.822 Y68.007 E.01651
G1 X197.466 Y68.048 E.01124
G1 X196.813 Y67.964 E.02064
G1 X196.259 Y67.762 E.01849
G1 X195.966 Y67.593 E.01061
G1 X195.515 Y67.215 E.01845
G1 X195.358 Y67.028 E.00766
G1 X195.358 Y74.6 E.23741
G1 X195.273 Y75.132 E.01689
G1 X195.131 Y75.447 E.01083
G1 X194.928 Y75.729 E.01089
G1 X194.697 Y75.944 E.00989
G1 X194.466 Y76.094 E.00864
G1 X193.954 Y76.272 E.017
G1 X193.661 Y76.297 E.00922
G1 X176.218 Y76.297 E.54691
G1 X175.669 Y76.206 E.01745
G1 X175.34 Y76.052 E.01139
G1 X174.949 Y75.726 E.01596
G1 X174.824 Y75.554 E.00667
G1 X174.582 Y75.956 E.01471
G1 X174.22 Y76.366 E.01715
G1 X173.913 Y76.593 E.01197
G1 X173.621 Y76.762 E.01058
G1 X173.067 Y76.964 E.01849
G1 X172.44 Y77.048 E.01983
G1 X171.813 Y76.964 E.01983
G1 X171.259 Y76.762 E.01849
G1 X170.966 Y76.593 E.01061
G1 X170.522 Y76.223 E.01812
G1 X170.142 Y75.733 E.01944
G1 X169.898 Y75.156 E.01964
G1 X169.793 Y74.711 E.01434
G1 X169.785 Y74.21 E.01571
G1 X169.802 Y73.97 E.00754
G1 X170.003 Y73.312 E.02157
G1 X169.218 Y73.297 E.02462
G1 X168.841 Y73.255 E.01189
G1 X168.416 Y73.096 E.01423
G1 X167.987 Y72.768 E.01693
G1 X167.651 Y72.251 E.01933
;WIDTH:0.46758
G1 X167.602 Y72.166 E.00346
;WIDTH:0.51516
G1 X167.552 Y72.081 E.00387
;WIDTH:0.56274
G1 X167.503 Y71.995 E.00428
;WIDTH:0.61032
G1 X167.453 Y71.91 E.00465
G1 X167.429 Y72.01 E.00485
;WIDTH:0.56274
G1 X167.406 Y72.11 E.00444
;WIDTH:0.51516
G1 X167.382 Y72.21 E.00404
;WIDTH:0.46758
G1 X167.358 Y72.31 E.00363
;WIDTH:0.419999
G1 X167.358 Y74.6 E.0718
G1 X167.331 Y74.904 E.00957
G1 X167.18 Y75.357 E.01497
G1 X166.903 Y75.756 E.01523
G1 X166.663 Y75.97 E.01008
G1 X166.367 Y76.144 E.01077
G1 X165.954 Y76.272 E.01356
G1 X165.661 Y76.297 E.00922
G1 X129.218 Y76.297 E1.14264
G1 X128.669 Y76.206 E.01745
G1 X128.34 Y76.052 E.01139
G1 X127.949 Y75.726 E.01596
G1 X127.824 Y75.554 E.00667
G1 X127.582 Y75.956 E.01471
G1 X127.22 Y76.366 E.01715
G1 X126.913 Y76.593 E.01197
G1 X126.621 Y76.762 E.01058
G1 X126.067 Y76.964 E.01849
G1 X125.44 Y77.048 E.01983
G1 X124.813 Y76.964 E.01983
G1 X124.259 Y76.762 E.01849
G1 X123.966 Y76.593 E.01061
G1 X123.522 Y76.223 E.01812
G1 X123.157 Y75.758 E.01853
G1 X122.898 Y75.156 E.02055
G1 X122.79 Y74.672 E.01555
G1 X122.788 Y74.107 E.01772
G1 X122.888 Y73.63 E.01528
G1 X123.097 Y73.1 E.01786
G1 X123.201 Y72.946 E.00583
G1 X122.896 Y72.663 E.01305
G1 X122.651 Y72.25 E.01506
G1 X122.543 Y71.87 E.01239
G1 X122.521 Y70.992 E.02754
G1 X122.521 Y59.157 E.37108
G1 X122.588 Y58.686 E.01492
G1 X122.749 Y58.308 E.01288
G1 X123.108 Y57.874 E.01766
G1 X123.545 Y57.6 E.01617
;WIDTH:0.464238
G1 X123.674 Y57.545 E.00491
;WIDTH:0.508477
G1 X123.804 Y57.489 E.00548
;WIDTH:0.552716
G1 X123.933 Y57.434 E.00594
;WIDTH:0.596954
G1 X124.063 Y57.379 E.0065
G1 X123.933 Y57.324 E.0065
;WIDTH:0.552716
G1 X123.804 Y57.268 E.00596
;WIDTH:0.508477
G1 X123.674 Y57.213 E.00546
;WIDTH:0.464238
G1 X123.545 Y57.158 E.00491
;WIDTH:0.419999
G1 X123.108 Y56.884 E.01617
G1 X122.749 Y56.45 E.01766
G1 X122.607 Y56.133 E.01089
G1 X122.538 Y55.839 E.00947
G1 X122.521 Y55.6 E.00751
G1 X122.521 Y42.157 E.4215
G1 X122.578 Y41.721 E.01379
G1 X122.788 Y41.244 E.01634
G1 X123.091 Y40.889 E.01463
G1 X123.2 Y40.811 E.0042
G1 X123.027 Y40.493 E.01135
G1 X122.846 Y39.996 E.01658
G1 X122.785 Y39.548 E.01418
G1 X122.804 Y38.958 E.01851
G1 X122.963 Y38.424 E.01747
G1 X123.197 Y37.935 E.017
G1 X123.515 Y37.543 E.01583
G1 X123.966 Y37.164 E.01847
G1 X124.259 Y36.996 E.01059
G1 X124.801 Y36.796 E.01811
G1 X125.416 Y36.712 E.01946
G1 X126.038 Y36.789 E.01965
G1 X126.621 Y36.996 E.0194
G1 X127.106 Y37.294 E.01785
G1 X127.582 Y37.802 E.02183
G1 X127.684 Y37.946 E.00553
G1 X127.935 Y37.548 E.01475
G1 X128.393 Y37.176 E.0185
G1 X128.925 Y36.987 E.0177
G1 X129.218 Y36.962 E.00922
G1 X165.661 Y36.962 E1.14264
G1 X166.149 Y37.033 E.01546
G1 X166.578 Y37.231 E.01481
G1 X167 Y37.616 E.01791
G1 X167.243 Y38.043 E.0154
;WIDTH:0.460842
G1 X167.292 Y38.197 E.00562
;WIDTH:0.501684
G1 X167.341 Y38.351 E.00616
;WIDTH:0.542526
G1 X167.39 Y38.505 E.00671
;WIDTH:0.583368
G1 X167.44 Y38.658 E.00723
G1 X167.489 Y38.505 E.00722
;WIDTH:0.542526
G1 X167.538 Y38.351 E.00671
;WIDTH:0.501684
G1 X167.588 Y38.197 E.00618
;WIDTH:0.460842
G1 X167.637 Y38.043 E.00562
;WIDTH:0.419999
G1 X167.879 Y37.616 E.01539
G1 X168.301 Y37.231 E.01791
G1 X168.731 Y37.033 E.01484
G1 X169.218 Y36.962 E.01543
G1 X178.016 Y36.962 E.27585
G1 X178.016 Y35.675 E.04035
;WIPE_START
G1 F8640
G1 X178.016 Y35.615 E-.01385
G1 X178.016 Y32.21 E-.78615
;WIPE_END
G1 Z.6 F10800
G1 X195.082 Y39.793
G1 Z.2
G1 E.8 F2100
;WIDTH:0.622828
G1 F1200
G1 X195.072 Y39.21 E.02812
;WIPE_START
G1 F8640
G1 X195.082 Y39.793 E-.13464
;WIPE_END
G1 E-.66536 F2100
G1 Z.6 F10800
G1 X195.082 Y65.793
G1 Z.2
G1 E.8 F2100
G1 F1200
G1 X195.072 Y65.21 E.02812
;WIPE_START
G1 F8640
G1 X195.082 Y65.793 E-.13464
;WIPE_END
G1 E-.66536 F2100
G1 Z.6 F10800
G1 X174.6 Y73.593
G1 Z.2
G1 E.8 F2100
;WIDTH:0.471346
G1 F1200
G1 X174.47 Y73.261 E.0127
G1 X174.244 Y72.946 E.01381
G1 X174.873 Y72.946 E.02241
G1 X174.873 Y73.713 E.02732
;WIDTH:0.514714
G1 X174.851 Y73.878 E.00653
;WIDTH:0.558082
G1 X174.829 Y74.044 E.00717
;WIDTH:0.60145
G1 X174.808 Y74.21 E.00777
G1 X174.759 Y74.057 E.00746
;WIDTH:0.558082
G1 X174.71 Y73.903 E.00692
;WIDTH:0.514714
G1 X174.662 Y73.75 E.00629
;WIDTH:0.471346
G1 X174.622 Y73.648 E.0039
G1 X174.622 Y73.648 F10800
G1 X174.808 Y74.21
;WIDTH:0.612714
G1 F1200
G1 X174.805 Y74.697 E.02307
;WIPE_START
G1 F8640
G1 X174.808 Y74.21 E-.11245
;WIPE_END
G1 E-.68755 F2100
G1 Z.6 F10800
G1 X196.638 Y63.233
G1 Z.2
G1 E.8 F2100
;WIDTH:0.419999
G1 F1200
G1 X197.178 Y63.11 E.01736
G1 X197.622 Y63.105 E.01392
G1 X198.073 Y63.18 E.01433
G1 X198.432 Y63.322 E.0121
G1 X198.725 Y63.491 E.01061
G1 X199.076 Y63.786 E.01438
G1 X199.319 Y64.076 E.01186
G1 X199.522 Y64.441 E.0131
G1 X199.637 Y64.759 E.0106
G1 X199.717 Y65.21 E.01436
G1 X199.697 Y65.776 E.01776
G1 X199.535 Y66.286 E.01678
G1 X199.318 Y66.674 E.01394
G1 X199.09 Y66.954 E.01132
G1 X198.725 Y67.267 E.01508
G1 X198.21 Y67.537 E.01823
G1 X197.669 Y67.651 E.01734
G1 X197.211 Y67.651 E.01436
G1 X196.878 Y67.592 E.0106
G1 X196.447 Y67.435 E.01438
G1 X196.155 Y67.267 E.01056
G1 X195.804 Y66.972 E.01438
G1 X195.587 Y66.714 E.01057
;WIDTH:0.456985
G1 X195.397 Y66.363 E.01374
;WIDTH:0.493971
G1 X195.207 Y66.012 E.01497
;WIDTH:0.536924
G1 X195.166 Y65.939 E.00344
;WIDTH:0.579876
G1 X195.124 Y65.866 E.00376
;WIDTH:0.622828
G1 X195.082 Y65.793 E.00406
G1 X195.062 Y65.911 E.00577
;WIDTH:0.582263
G1 X195.042 Y66.029 E.00537
;WIDTH:0.541697
G1 X195.022 Y66.147 E.00496
;WIDTH:0.501131
G1 X195.001 Y66.265 E.00457
;WIDTH:0.460565
G1 X194.981 Y66.383 E.00416
;WIDTH:0.419999
G1 X194.981 Y74.6 E.25764
G1 X194.915 Y75.014 E.01314
G1 X194.805 Y75.259 E.00842
G1 X194.647 Y75.478 E.00847
G1 X194.287 Y75.762 E.01438
G1 X193.889 Y75.9 E.01321
G1 X193.661 Y75.92 E.00718
G1 X176.218 Y75.92 E.54691
