; generated by PrusaSlicer 2.8.0+win64 on 2024-07-21 at 18:28:27 UTC

; 

; external perimeters extrusion width = 0.45mm
; perimeters extrusion width = 0.45mm
; infill extrusion width = 0.45mm
; solid infill extrusion width = 0.45mm
; top infill extrusion width = 0.40mm
; support material extrusion width = 0.35mm
; first layer extrusion width = 0.42mm

M73 P0 R34
M73 Q0 S34

; printing object nozzle.stl id:0 copy 0
; stop printing object nozzle.stl id:0 copy 0

;TYPE:Custom
M862.3 P "MK3S" ; printer model check
M862.1 P0.4 ; nozzle diameter check
M115 U3.9.3 ; tell printer latest fw version
G90 ; use absolute coordinates
M83 ; extruder relative mode
M104 S205 ; set extruder temp
M140 S67 ; set bed temp
M190 S67 ; wait for bed temp
M109 S205 ; wait for extruder temp
G28 W ; home all without mesh bed level
G80 ; mesh bed leveling
G1 Y-3.0 F1000.0 ; go outside print area
G92 E0.0
G1 X60.0 E9.0 F1000.0 ; intro line
G1 X100.0 E12.5 F1000.0 ; intro line
G92 E0.0
M221 S95

; Don't change E values below. Excessive value can damage the printer.
M907 E430 ; set extruder motor current
G21 ; set units to millimeters
G90 ; use absolute coordinates
M83 ; use relative distances for extrusion
M900 K0.05 ; Filament gcode LA 1.5
M900 K30 ; Filament gcode LA 1.0
M107
;LAYER_CHANGE
;Z:0.2
;HEIGHT:0.2
G1 E-.8 F2100
G1 Z.6 F10800
G1 X177.27 Y42.179
G1 Z.2
G1 E.8 F2100
M204 S1000
;TYPE:Skirt/Brim
;WIDTH:0.42
G1 F1200
G1 X177.523 Y41.207 E.03149
G1 X177.962 Y40.464 E.02706
G1 X178.572 Y39.832 E.02754
G1 X179.005 Y39.502 E.01707
G1 X180.398 Y39.035 E.04607
G1 X190.882 Y39.038 E.32872
G1 X191.601 Y39.187 E.02302
G1 X192.261 Y39.482 E.02267
G1 X193.215 Y40.309 E.03959
G1 X193.735 Y41.1 E.02968
G1 X194.013 Y42.023 E.03022
G1 X194.035 Y52.654 E.33333
G1 X193.782 Y53.627 E.03152
G1 X193.344 Y54.37 E.02704
G1 X192.734 Y55.002 E.02754
G1 X192.301 Y55.332 E.01707
G1 X190.908 Y55.799 E.04607
G1 X180.415 Y55.799 E.329
G1 X179.443 Y55.546 E.03149
G1 X178.699 Y55.108 E.02707
G1 X178.068 Y54.498 E.02752
G1 X177.738 Y54.065 E.01707
G1 X177.27 Y52.672 E.04608
G1 X177.27 Y42.239 E.32712
G1 X177.27 Y42.239 F10800
G1 X177.648 Y42.239
G1 F1200
G1 X177.648 Y42.204 E.0011
G1 X177.88 Y41.331 E.02832
G1 X178.273 Y40.678 E.0239
G1 X178.831 Y40.106 E.02505
G1 X179.207 Y39.821 E.01479
G1 X180.429 Y39.412 E.0404
G1 X190.863 Y39.415 E.32715
G1 X191.466 Y39.54 E.01931
G1 X192.08 Y39.814 E.02108
G1 X192.946 Y40.574 E.03613
G1 X193.403 Y41.281 E.0264
G1 X193.644 Y42.102 E.02683
G1 X193.658 Y52.63 E.3301
G1 X193.425 Y53.503 E.02833
G1 X193.032 Y54.156 E.0239
G1 X192.474 Y54.728 E.02505
G1 X192.098 Y55.012 E.01477
G1 X190.877 Y55.422 E.04038
G1 X180.44 Y55.422 E.32724
G1 X179.567 Y55.189 E.02833
G1 X178.914 Y54.797 E.02388
G1 X178.342 Y54.238 E.02508
G1 X178.057 Y53.862 E.01479
G1 X177.648 Y52.641 E.04037
G1 X177.648 Y42.299 E.32427
G1 X177.648 Y42.299 F10800
G1 X178.025 Y42.299
G1 F1200
G1 X178.025 Y42.23 E.00216
G1 X178.236 Y41.458 E.02509
G1 X178.582 Y40.894 E.02075
G1 X179.409 Y40.141 E.03507
G1 X180.459 Y39.789 E.03472
G1 X190.842 Y39.792 E.32555
G1 X191.367 Y39.904 E.01683
G1 X191.897 Y40.145 E.01826
G1 X192.674 Y40.837 E.03262
G1 X193.07 Y41.459 E.02312
G1 X193.274 Y42.179 E.02346
G1 X193.281 Y52.604 E.32687
G1 X193.069 Y53.376 E.0251
G1 X192.723 Y53.939 E.02072
G1 X191.896 Y54.693 E.03509
G1 X190.846 Y55.045 E.03472
G1 X180.466 Y55.045 E.32546
G1 X179.694 Y54.833 E.0251
G1 X179.13 Y54.487 E.02075
G1 X178.377 Y53.66 E.03507
G1 X178.025 Y52.611 E.03469
G1 X178.025 Y42.359 E.32144
G1 X178.025 Y42.359 F10800
G1 X178.402 Y42.359
G1 F1200
G1 X178.402 Y42.257 E.0032
G1 X178.591 Y41.588 E.0218
G1 X178.889 Y41.114 E.01756
G1 X179.61 Y40.462 E.03048
G1 X180.49 Y40.166 E.02911
G1 X190.821 Y40.169 E.32392
G1 X191.264 Y40.267 E.01423
G1 X191.712 Y40.474 E.01547
G1 X192.402 Y41.1 E.02921
G1 X192.714 Y41.588 E.01816
G1 X192.904 Y42.257 E.02181
G1 X192.904 Y52.577 E.32358
G1 X192.714 Y53.245 E.02178
G1 X192.416 Y53.719 E.01756
G1 X191.96 Y54.175 E.02022
G1 X191.696 Y54.372 E.01033
G1 X190.816 Y54.668 E.02911
G1 X180.493 Y54.668 E.32367
G1 X179.824 Y54.478 E.02181
G1 X179.35 Y54.18 E.01756
G1 X178.894 Y53.725 E.0202
G1 X178.697 Y53.46 E.01035
G1 X178.402 Y52.58 E.0291
G1 X178.402 Y42.419 E.31859
G1 X178.402 Y42.419 F10800
G1 X178.779 Y42.419
G1 F1200
G1 X178.779 Y42.285 E.0042
G1 X178.945 Y41.721 E.01843
G1 X179.17 Y41.367 E.01315
G1 X179.809 Y40.783 E.02714
G1 X180.521 Y40.543 E.02356
G1 X190.798 Y40.547 E.32223
G1 X191.524 Y40.802 E.02413
G1 X192.129 Y41.36 E.02581
G1 X192.361 Y41.721 E.01345
G1 X192.527 Y42.285 E.01843
G1 X192.527 Y52.549 E.32182
G1 X192.361 Y53.112 E.0184
G1 X192.135 Y53.467 E.01319
G1 X191.496 Y54.051 E.02714
G1 X190.785 Y54.291 E.02353
G1 X180.521 Y54.291 E.32182
G1 X179.957 Y54.125 E.01843
M73 P1 R34
M73 Q1 S34
G1 X179.602 Y53.9 E.01318
G1 X179.019 Y53.261 E.02712
G1 X178.779 Y52.549 E.02356
G1 X178.779 Y42.479 E.31574
G1 X178.779 Y42.479 F10800
G1 X179.156 Y42.479
G1 F1200
G1 X179.156 Y42.314 E.00517
G1 X179.297 Y41.859 E.01494
G1 X179.856 Y41.213 E.02679
G1 X180.552 Y40.92 E.02368
G1 X190.777 Y40.924 E.3206
G1 X191.335 Y41.13 E.01865
G1 X191.853 Y41.618 E.02231
G1 X192.15 Y42.314 E.02373
G1 X192.15 Y52.519 E.31997
G1 X192.009 Y52.975 E.01497
G1 X191.449 Y53.62 E.02678
G1 X190.754 Y53.914 E.02366
G1 X180.55 Y53.914 E.31994
G1 X180.095 Y53.773 E.01494
G1 X179.449 Y53.213 E.02681
G1 X179.156 Y52.518 E.02365
G1 X179.156 Y42.539 E.31288
G1 X179.156 Y42.539 F10800
M73 P1 R33
G1 X179.533 Y42.539
G1 F1200
G1 X179.533 Y42.346 E.00605
G1 X179.73 Y41.873 E.01607
G1 X180.201 Y41.429 E.0203
G1 X180.583 Y41.297 E.01267
G1 X190.754 Y41.301 E.3189
G1 X191.145 Y41.457 E.0132
G1 X191.576 Y41.874 E.0188
G1 X191.772 Y42.346 E.01602
G1 X191.772 Y52.487 E.31796
G1 X191.575 Y52.961 E.01609
G1 X191.105 Y53.405 E.02027
G1 X190.722 Y53.537 E.0127
G1 X180.582 Y53.537 E.31793
G1 X180.108 Y53.339 E.01611
G1 X179.665 Y52.869 E.02025
G1 X179.533 Y52.486 E.0127
G1 X179.533 Y42.599 E.31
G1 X179.533 Y42.599 F10800
G1 X179.91 Y42.599
G1 F1200
G1 X179.91 Y42.381 E.00684
G1 X180.009 Y42.127 E.00855
G1 X180.363 Y41.774 E.01567
G1 X180.617 Y41.674 E.00856
G1 X190.702 Y41.674 E.31621
G1 X190.953 Y41.784 E.00859
G1 X191.296 Y42.127 E.01521
G1 X191.395 Y42.381 E.00855
G1 X191.395 Y52.452 E.31577
G1 X191.296 Y52.707 E.00858
G1 X190.943 Y53.06 E.01565
G1 X190.688 Y53.16 E.00859
G1 X180.617 Y53.16 E.31577
G1 X180.363 Y53.06 E.00856
G1 X180.009 Y52.707 E.01567
G1 X179.91 Y52.452 E.00858
G1 X179.91 Y42.659 E.30705
G1 X179.91 Y42.659 F10800
G1 X180.315 Y42.66
G1 F1200
G1 X180.316 Y42.354 E.00959
G1 X180.659 Y42.051 E.01435
G1 X190.716 Y42.08 E.31533
G1 X191.018 Y42.423 E.01433
G1 X190.99 Y52.48 E.31533
G1 X190.646 Y52.782 E.01435
M73 Q1 S33
G1 X180.59 Y52.754 E.3153
G1 X180.287 Y52.411 E.01435
G1 X180.315 Y42.72 E.30386
G1 X180.315 Y42.72 F10800
G1 X180.664 Y42.72
G1 F1200
G1 X180.664 Y42.539 E.00568
G1 X180.775 Y42.428 E.00492
G1 X190.531 Y42.428 E.30589
G1 X190.641 Y42.539 E.0049
G1 X190.641 Y52.295 E.30589
G1 X190.531 Y52.405 E.00488
G1 X180.775 Y52.405 E.30589
G1 X180.664 Y52.295 E.0049
G1 X180.664 Y42.78 E.29834
;WIPE_START
G1 F8640
G1 X180.664 Y42.72 E-.01385
G1 X180.664 Y42.539 E-.04179
G1 X180.775 Y42.428 E-.03625
G1 X183.842 Y42.428 E-.70811
;WIPE_END
G1 Z.6 F10800
; printing object nozzle.stl id:0 copy 0
G1 X195.367 Y42.745
G1 Z.2
G1 E.8 F2100
;TYPE:Support material
G1 F1200
G1 X197.443 Y43.746 E.07226
G1 X197.444 Y51.061 E.22936
G1 X194.863 Y52.32 E.09004
G1 X194.863 Y42.515 E.30743
G1 X195.316 Y42.722 E.01562
G1 X195.316 Y42.722 F10800
G1 X197.074 Y51.056
G1 F1200
G1 X197.074 Y43.945 E.22296
G1 X196.655 Y43.743 E.01458
G1 X196.655 Y51.076 E.22992
G1 X196.236 Y51.285 E.01468
G1 X196.236 Y43.541 E.24281
G1 X195.817 Y43.339 E.01458
G1 X195.817 Y51.494 E.25569
G1 X195.398 Y51.697 E.0146
G1 X195.398 Y42.949 E.27429
;WIPE_START
G1 F8640
G1 X195.398 Y46.414 E-.8
;WIPE_END
G1 Z.6 F10800
G1 X185.79 Y45.582
G1 Z.2
G1 E.8 F2100
G1 F1200
G1 X186.451 Y45.759 E.02146
G1 X187.001 Y46.166 E.02145
G1 X187.365 Y46.745 E.02144
G1 X187.487 Y47.554 E.02565
G1 X187.31 Y48.215 E.02146
G1 X186.904 Y48.765 E.02143
G1 X186.325 Y49.129 E.02144
G1 X185.515 Y49.251 E.02568
G1 X184.855 Y49.074 E.02143
G1 X184.304 Y48.668 E.02146
G1 X183.94 Y48.089 E.02144
G1 X183.818 Y47.279 E.02568
G1 X183.995 Y46.619 E.02143
G1 X184.402 Y46.068 E.02148
G1 X184.981 Y45.704 E.02144
G1 X185.734 Y45.58 E.02393
G1 X185.734 Y45.58 F10800
G1 X187.018 Y48.376
G1 F1200
G1 X187.018 Y46.799 E.04945
G1 X186.599 Y46.254 E.02155
G1 X186.599 Y48.58 E.07293
G1 X186.18 Y48.82 E.01514
G1 X186.18 Y46.014 E.08798
G1 X185.761 Y45.921 E.01346
G1 X185.761 Y48.913 E.09381
G1 X185.342 Y48.884 E.01317
G1 X185.342 Y45.95 E.09199
G1 X184.923 Y46.107 E.01403
G1 X184.923 Y48.727 E.08215
G1 X184.632 Y48.516 E.01127
G1 X184.505 Y48.38 E.00583
G1 X184.505 Y46.205 E.0682
;WIPE_START
G1 F8640
G1 X184.505 Y48.38 E-.50221
G1 X184.632 Y48.516 E-.04297
G1 X184.923 Y48.727 E-.083
G1 X184.923 Y47.983 E-.17182
;WIPE_END
G1 Z.6 F10800
G1 X176.343 Y40.382
G1 Z.2
G1 E.8 F2100
G1 F1200
G1 X177.111 Y40.267 E.02435
G1 X176.854 Y40.59 E.01294
G1 X176.443 Y42.393 E.05798
G1 X176.443 Y52.429 E.31467
G1 X176.55 Y53.374 E.02982
G1 X177.061 Y54.43 E.03678
G1 X175.97 Y54.446 E.03421
G1 X175.557 Y54.334 E.01342
G1 X174.261 Y54.327 E.04064
G1 X173.73 Y54.438 E.01701
G1 X170.705 Y54.46 E.09485
G1 X169.71 Y53.073 E.05352
G1 X169.199 Y52.973 E.01633
G1 X168.589 Y52.702 E.02093
G1 X168.283 Y52.693 E.0096
G1 X164.863 Y51.062 E.1188
G1 X164.838 Y43.773 E.22854
G1 X168.216 Y42.162 E.11734
M73 Q2 S33
G1 X168.554 Y42.147 E.01061
M73 P2 R33
G1 X169.125 Y41.888 E.01966
G1 X169.517 Y41.874 E.0123
G1 X169.792 Y41.282 E.02047
G1 X170.983 Y40.505 E.04459
G1 X171.932 Y40.297 E.03046
G1 X172.9 Y40.28 E.03036
G1 X173.617 Y40.383 E.02271
G1 X174.451 Y40.26 E.02643
G1 X175.418 Y39.958 E.03176
G1 X176.292 Y40.359 E.03015
G1 X176.292 Y40.359 F10800
G1 X176.125 Y54.274
G1 F1200
G1 X176.125 Y40.655 E.42701
G1 X175.706 Y40.463 E.01445
G1 X175.706 Y54.023 E.42516
G1 X175.287 Y53.986 E.01319
G1 X175.287 Y40.354 E.42742
G1 X174.868 Y40.485 E.01376
G1 X174.868 Y53.993 E.42353
G1 X174.449 Y53.999 E.01314
G1 X174.449 Y40.6 E.42012
G1 X174.03 Y40.625 E.01316
G1 X174.03 Y53.996 E.41924
G1 X173.611 Y54.1 E.01354
G1 X173.611 Y40.722 E.41946
G1 X173.192 Y40.71 E.01314
G1 X173.192 Y54.102 E.4199
G1 X172.773 Y54.105 E.01314
G1 X172.773 Y40.622 E.42275
G1 X172.354 Y40.629 E.01314
G1 X172.354 Y54.108 E.42262
G1 X171.935 Y54.111 E.01314
G1 X171.935 Y40.651 E.42203
G1 X171.516 Y40.764 E.01361
G1 X171.516 Y54.114 E.41858
G1 X171.097 Y54.117 E.01314
G1 X171.097 Y40.836 E.41642
G1 X170.678 Y41.109 E.01568
G1 X170.678 Y53.828 E.3988
G1 X170.259 Y53.227 E.02297
G1 X170.259 Y41.383 E.37136
G1 X170.059 Y41.513 E.00748
G1 X169.84 Y41.983 E.01626
G1 X169.84 Y52.759 E.33787
G1 X169.421 Y52.64 E.01366
G1 X169.421 Y42.217 E.32681
G1 X169.002 Y42.316 E.0135
G1 X169.002 Y52.514 E.31975
G1 X168.583 Y52.362 E.01398
G1 X168.583 Y42.485 E.30969
G1 X168.164 Y42.559 E.01334
G1 X168.164 Y52.269 E.30445
G1 X167.745 Y52.083 E.01437
G1 X167.745 Y42.75 E.29263
G1 X167.326 Y42.941 E.01444
G1 X167.326 Y51.893 E.28068
G1 X166.907 Y51.697 E.0145
G1 X166.907 Y43.137 E.26839
G1 X166.488 Y43.342 E.01463
G1 X166.488 Y51.494 E.2556
G1 X166.07 Y51.285 E.01465
G1 X166.07 Y43.547 E.24262
G1 X165.651 Y43.753 E.01464
G1 X165.651 Y51.076 E.22961
G1 X165.232 Y50.867 E.01468
G1 X165.232 Y43.769 E.22255
;WIPE_START
G1 F8640
G1 X165.232 Y47.234 E-.8
;WIPE_END
G1 Z.6 F10800
G1 X182.365 Y46.899
G1 Z.2
G1 E.8 F2100
;TYPE:Perimeter
;WIDTH:0.419999
G1 F1200
G1 X182.526 Y46.26 E.02066
G1 X182.863 Y45.591 E.02349
G1 X183.178 Y45.179 E.01626
G1 X183.722 Y44.698 E.02277
G1 X184.167 Y44.43 E.01629
G1 X184.849 Y44.181 E.02276
G1 X185.575 Y44.084 E.02297
G1 X186.106 Y44.112 E.01667
G1 X186.812 Y44.29 E.02283
G1 X187.478 Y44.627 E.0234
G1 X187.891 Y44.943 E.0163
G1 X188.289 Y45.376 E.01844
G1 X188.628 Y45.911 E.01986
G1 X188.885 Y46.599 E.02303
G1 X188.986 Y47.352 E.02382
G1 X188.959 Y47.858 E.01589
G1 X188.78 Y48.574 E.02314
G1 X188.443 Y49.242 E.02346
G1 X187.967 Y49.818 E.02343
G1 X187.374 Y50.272 E.02342
G1 X186.911 Y50.506 E.01627
G1 X186.38 Y50.673 E.01745
G1 X185.718 Y50.75 E.0209
G1 X185.212 Y50.723 E.01589
G1 X184.496 Y50.544 E.02314
G1 X183.827 Y50.207 E.02349
G1 X183.252 Y49.731 E.0234
G1 X182.797 Y49.139 E.02341
G1 X182.563 Y48.675 E.01629
G1 X182.397 Y48.145 E.01741
G1 X182.319 Y47.482 E.02093
G1 X182.346 Y46.976 E.01589
G1 X182.351 Y46.958 E.00059
G1 X182.351 Y46.958 F10800
G1 X182.726 Y47
;TYPE:External perimeter
G1 F1200
G1 X182.728 Y46.969 E.00097
G1 X182.89 Y46.356 E.01988
G1 X183.196 Y45.767 E.02081
G1 X183.498 Y45.389 E.01517
G1 X183.968 Y44.984 E.01945
G1 X184.387 Y44.742 E.01517
G1 X184.973 Y44.537 E.01947
G1 X185.618 Y44.458 E.02037
G1 X186.115 Y44.494 E.01562
G1 X186.714 Y44.655 E.01945
G1 X187.302 Y44.96 E.02077
G1 X187.706 Y45.289 E.01634
G1 X187.97 Y45.577 E.01225
G1 X188.309 Y46.113 E.01989
G1 X188.529 Y46.724 E.02036
G1 X188.612 Y47.395 E.0212
G1 X188.577 Y47.864 E.01475
G1 X188.415 Y48.477 E.01988
G1 X188.109 Y49.066 E.02081
G1 X187.681 Y49.572 E.02078
G1 X187.15 Y49.969 E.02079
G1 X186.721 Y50.177 E.01495
G1 X186.304 Y50.303 E.01366
G1 X185.674 Y50.376 E.01989
G1 X185.205 Y50.341 E.01475
G1 X184.592 Y50.179 E.01988
G1 X184.004 Y49.874 E.02077
G1 X183.498 Y49.445 E.0208
G1 X183.101 Y48.915 E.02076
G1 X182.893 Y48.485 E.01498
G1 X182.767 Y48.069 E.01363
G1 X182.694 Y47.439 E.01989
G1 X182.722 Y47.06 E.01192
;WIPE_START
G1 F8640
G1 X182.726 Y47 E-.01388
G1 X182.728 Y46.969 E-.00717
G1 X182.89 Y46.356 E-.1464
G1 X183.196 Y45.767 E-.15326
G1 X183.498 Y45.389 E-.11172
G1 X183.968 Y44.984 E-.14326
G1 X184.387 Y44.742 E-.11173
G1 X184.847 Y44.581 E-.11258
;WIPE_END
G1 Z.6 F10800
G1 X182.271 Y44.985
G1 Z.2
G1 E.8 F2100
;TYPE:Perimeter
;WIDTH:0.565005
G1 F1200
G1 X182.266 Y44.031 E.04142
G1 X183.241 Y44.031 E.04233
G1 X182.7 Y44.487 E.03072
G1 X182.31 Y44.939 E.02592
G1 X182.31 Y44.939 F10800
G1 X182.681 Y45.213
;WIDTH:0.419999
G1 F1200
G1 X182.529 Y45.415 E.00793
G1 X182.161 Y46.164 E.02617
;WIDTH:0.466328
G1 X182.098 Y46.311 E.00563
;WIDTH:0.512656
G1 X182.035 Y46.458 E.00625
;WIDTH:0.558984
G1 X181.972 Y46.605 E.00686
;WIDTH:0.605312
G1 X181.91 Y46.753 E.0075
G1 X181.886 Y46.594 E.00752
;WIDTH:0.558984
G1 X181.863 Y46.436 E.00685
;WIDTH:0.512656
G1 X181.84 Y46.277 E.00627
;WIDTH:0.466328
G1 X181.817 Y46.119 E.00562
;WIDTH:0.419999
G1 X181.817 Y43.581 E.07958
G1 X184.062 Y43.581 E.07039
M73 Q3 S33
;WIDTH:0.461366
G1 X184.22 Y43.602 E.00555
M73 P3 R33
;WIDTH:0.502732
G1 X184.379 Y43.622 E.00613
;WIDTH:0.544098
G1 X184.538 Y43.643 E.00668
;WIDTH:0.585464
G1 X184.696 Y43.664 E.00719
;WIDTH:0.62683
G1 X184.855 Y43.684 E.00778
G1 X184.78 Y43.727 E.0042
;WIDTH:0.581938
G1 X184.705 Y43.77 E.00387
;WIDTH:0.537045
G1 X184.463 Y43.881 E.01094
;WIDTH:0.49803
G1 X184.221 Y43.992 E.01008
;WIDTH:0.459015
G1 X183.978 Y44.103 E.00924
;WIDTH:0.419999
G1 X183.476 Y44.412 E.01848
G1 X182.884 Y44.944 E.02496
G1 X182.717 Y45.165 E.00869
;WIPE_START
G1 F8640
G1 X182.681 Y45.213 E-.01385
G1 X182.529 Y45.415 E-.05837
G1 X182.161 Y46.164 E-.19269
G1 X182.098 Y46.311 E-.03693
G1 X182.035 Y46.458 E-.03693
G1 X181.972 Y46.605 E-.03693
G1 X181.91 Y46.753 E-.03705
G1 X181.886 Y46.594 E-.03713
G1 X181.863 Y46.436 E-.03687
G1 X181.84 Y46.277 E-.0371
G1 X181.817 Y46.119 E-.03687
G1 X181.817 Y45.083 E-.23928
;WIPE_END
G1 Z.6 F10800
G1 X184.855 Y43.684
G1 Z.2
G1 E.8 F2100
;WIDTH:0.62683
G1 F1200
G1 X185.19 Y43.665 E.01629
;WIDTH:0.587673
G1 X185.525 Y43.645 E.0152
;WIDTH:0.57502
G1 X186.138 Y43.658 E.02713
;WIDTH:0.607766
G1 X186.334 Y43.675 E.00924
;WIPE_START
G1 F8640
G1 X186.138 Y43.658 E-.04543
G1 X185.525 Y43.645 E-.14158
G1 X185.19 Y43.665 E-.07749
G1 X184.855 Y43.684 E-.07748
;WIPE_END
G1 E-.45802 F2100
G1 Z.6 F10800
G1 X188.085 Y44.035
G1 Z.2
G1 E.8 F2100
;WIDTH:0.564735
G1 F1200
G1 X189.039 Y44.03 E.04139
G1 X189.039 Y44.291 E.01132
G1 X189.039 Y45.016 E.03146
G1 X188.987 Y44.934 E.00421
G1 X188.557 Y44.437 E.02852
G1 X188.13 Y44.074 E.02432
