; generated by PrusaSlicer 2.8.0+win64 on 2024-07-23 at 19:39:52 UTC

; 

; external perimeters extrusion width = 0.60mm
; perimeters extrusion width = 0.50mm
; infill extrusion width = 0.50mm
; solid infill extrusion width = 0.50mm
; top infill extrusion width = 0.45mm
; support material extrusion width = 0.38mm
; first layer extrusion width = 0.42mm

M73 P0 R111
M73 Q0 S114

; printing object top.stl id:0 copy 0
; stop printing object top.stl id:0 copy 0

;TYPE:Custom
M862.3 P "MK3S" ; printer model check
M862.1 P0.4 ; nozzle diameter check
M115 U3.9.3 ; tell printer latest fw version
G90 ; use absolute coordinates
M83 ; extruder relative mode
M104 S205 ; set extruder temp
M140 S67 ; set bed temp
M190 S67 ; wait for bed temp
M109 S205 ; wait for extruder temp
G28 W ; home all without mesh bed level
G80 ; mesh bed leveling
G1 Y-3.0 F1000.0 ; go outside print area
G92 E0.0
G1 X60.0 E9.0 F1000.0 ; intro line
G1 X100.0 E12.5 F1000.0 ; intro line
G92 E0.0
M221 S95

; Don't change E values below. Excessive value can damage the printer.

M907 E538 ; set extruder motor current
G21 ; set units to millimeters
G90 ; use absolute coordinates
M83 ; use relative distances for extrusion
M900 K0.05 ; Filament gcode LA 1.5
M900 K30 ; Filament gcode LA 1.0
M107
;LAYER_CHANGE
;Z:0.2
;HEIGHT:0.2
G1 E-.8 F2100
G1 Z.6 F10800
; printing object top.stl id:0 copy 0
G1 X112.546 Y83.815
G1 Z.2
G1 E.8 F2100
M204 S1000
;TYPE:Support material
;WIDTH:0.42
G1 F1200
G1 X112.546 Y87.527 E.11639
G1 X112.962 Y87.943 E.01845
G1 X117.119 Y87.943 E.13034
G1 X117.759 Y88.014 E.02019
G1 X118.349 Y88.221 E.0196
G1 X118.878 Y88.553 E.01958
G1 X119.5 Y89.249 E.02927
G1 X119.771 Y89.812 E.01959
G1 X119.91 Y90.421 E.01959
G1 X119.929 Y95.074 E.14589
G1 X120.345 Y95.49 E.01845
G1 X124.057 Y95.49 E.11639
G1 X126.137 Y97.57 E.09223
G1 X110.466 Y97.57 E.49135
G1 X110.466 Y81.735 E.4965
G1 X112.506 Y83.775 E.09046
;WIPE_START
G1 F8640
G1 X110.466 Y81.735 E-.66615
G1 X110.466 Y82.315 E-.13385
;WIPE_END
G1 Z.6 F10800
G1 X124.9 Y97.401
G1 Z.2
G1 E.8 F2100
G1 F1200
G1 X124.9 Y96.814 E.0184
G1 X124.481 Y96.395 E.01858
G1 X124.481 Y97.231 E.02621
G1 X124.062 Y97.231 E.01314
G1 X124.062 Y95.976 E.03935
G1 X123.916 Y95.83 E.00647
G1 X123.643 Y95.83 E.00856
G1 X123.643 Y97.231 E.04393
G1 X123.224 Y97.231 E.01314
G1 X123.224 Y95.83 E.04393
G1 X122.805 Y95.83 E.01314
G1 X122.805 Y97.231 E.04393
G1 X122.386 Y97.231 E.01314
G1 X122.386 Y95.83 E.04393
G1 X121.968 Y95.83 E.01311
G1 X121.968 Y97.231 E.04393
G1 X121.549 Y97.231 E.01314
G1 X121.549 Y95.83 E.04393
G1 X121.13 Y95.83 E.01314
G1 X121.13 Y97.231 E.04393
G1 X120.711 Y97.231 E.01314
G1 X120.711 Y95.83 E.04393
G1 X120.292 Y95.83 E.01314
G1 X120.292 Y97.231 E.04393
G1 X119.873 Y97.231 E.01314
G1 X119.873 Y95.498 E.05434
G1 X119.589 Y95.215 E.01257
G1 X119.589 Y90.763 E.13959
G1 X119.454 Y89.936 E.02627
G1 X119.454 Y97.231 E.22873
G1 X119.035 Y97.231 E.01314
G1 X119.035 Y89.185 E.25228
G1 X118.616 Y88.783 E.01821
G1 X118.616 Y97.231 E.26488
G1 X118.197 Y97.231 E.01314
G1 X118.197 Y88.525 E.27297
G1 X117.778 Y88.373 E.01398
G1 X117.778 Y97.231 E.27774
G1 X117.359 Y97.231 E.01314
G1 X117.359 Y88.297 E.28012
G1 X117.109 Y88.283 E.00785
G1 X116.94 Y88.283 E.0053
G1 X116.94 Y97.231 E.28056
G1 X116.521 Y97.231 E.01314
G1 X116.521 Y88.283 E.28056
G1 X116.102 Y88.283 E.01314
G1 X116.102 Y97.231 E.28056
G1 X115.683 Y97.231 E.01314
G1 X115.683 Y88.283 E.28056
G1 X115.264 Y88.283 E.01314
G1 X115.264 Y97.231 E.28056
G1 X114.845 Y97.231 E.01314
G1 X114.845 Y88.283 E.28056
G1 X114.426 Y88.283 E.01314
G1 X114.426 Y97.231 E.28056
G1 X114.007 Y97.231 E.01314
G1 X114.007 Y88.283 E.28056
G1 X113.588 Y88.283 E.01314
G1 X113.588 Y97.231 E.28056
G1 X113.169 Y97.231 E.01314
G1 X113.169 Y88.283 E.28056
G1 X112.822 Y88.283 E.01088
G1 X112.75 Y88.211 E.00319
G1 X112.75 Y97.231 E.28282
G1 X112.331 Y97.231 E.01314
G1 X112.331 Y87.792 E.29595
G1 X112.207 Y87.668 E.0055
G1 X112.207 Y83.956 E.11639
G1 X111.912 Y83.661 E.01308
G1 X111.912 Y97.231 E.42548
G1 X111.493 Y97.231 E.01314
G1 X111.493 Y83.242 E.43862
G1 X111.074 Y82.823 E.01858
G1 X111.074 Y97.401 E.45708
;WIPE_START
G1 F8640
G1 X111.074 Y93.936 E-.8
;WIPE_END
G1 Z.6 F10800
G1 X124.175 Y45.07
G1 Z.2
G1 E.8 F2100
G1 F1200
G1 X120.462 Y45.07 E.11642
G1 X120.046 Y45.486 E.01845
G1 X120.028 Y50.093 E.14445
G1 X119.769 Y50.99 E.02927
G1 X119.437 Y51.519 E.01958
G1 X118.74 Y52.142 E.02931
G1 X118.178 Y52.413 E.01956
G1 X117.569 Y52.552 E.01959
G1 X112.962 Y52.57 E.14445
G1 X112.546 Y52.986 E.01845
G1 X112.546 Y56.698 E.11639
G1 X110.466 Y58.778 E.09223
G1 X110.466 Y42.99 E.49502
G1 X126.255 Y42.99 E.49505
G1 X124.215 Y45.03 E.09046
G1 X124.215 Y45.03 F10800
G1 X125.319 Y43.686
G1 F1200
G1 X125.319 Y43.33 E.01116
G1 X124.9 Y43.33 E.01314
G1 X124.9 Y43.865 E.01677
G1 X124.481 Y44.284 E.01858
G1 X124.481 Y43.33 E.02991
G1 X124.062 Y43.33 E.01314
G1 X124.062 Y44.703 E.04305
G1 X123.643 Y44.731 E.01317
G1 X123.643 Y43.33 E.04393
G1 X123.224 Y43.33 E.01314
G1 X123.224 Y44.731 E.04393
G1 X122.805 Y44.731 E.01314
G1 X122.805 Y43.33 E.04393
G1 X122.386 Y43.33 E.01314
G1 X122.386 Y44.731 E.04393
G1 X121.968 Y44.731 E.01311
G1 X121.968 Y43.33 E.04393
G1 X121.549 Y43.33 E.01314
G1 X121.549 Y44.731 E.04393
G1 X121.13 Y44.731 E.01314
G1 X121.13 Y43.33 E.04393
G1 X120.711 Y43.33 E.01314
G1 X120.711 Y44.731 E.04393
G1 X120.292 Y44.761 E.01317
G1 X120.292 Y43.33 E.04487
G1 X119.873 Y43.33 E.01314
G1 X119.873 Y45.18 E.05801
G1 X119.707 Y45.346 E.00736
G1 X119.707 Y49.751 E.13812
G1 X119.644 Y50.325 E.01811
G1 X119.454 Y50.86 E.0178
G1 X119.454 Y43.33 E.2361
G1 X119.035 Y43.33 E.01314
G1 X119.035 Y51.46 E.25491
G1 X118.616 Y51.814 E.0172
G1 X118.616 Y43.33 E.26601
G1 X118.197 Y43.33 E.01314
G1 X118.197 Y52.037 E.273
G1 X117.778 Y52.172 E.0138
G1 X117.778 Y43.33 E.27723
G1 X117.359 Y43.33 E.01314
G1 X117.359 Y52.224 E.27887
G1 X116.94 Y52.231 E.01314
G1 X116.94 Y43.33 E.27908
G1 X116.521 Y43.33 E.01314
G1 X116.521 Y52.231 E.27908
G1 X116.102 Y52.231 E.01314
G1 X116.102 Y43.33 E.27908
G1 X115.683 Y43.33 E.01314
G1 X115.683 Y52.231 E.27908
G1 X115.264 Y52.231 E.01314
G1 X115.264 Y43.33 E.27908
G1 X114.845 Y43.33 E.01314
G1 X114.845 Y52.231 E.27908
G1 X114.426 Y52.231 E.01314
G1 X114.426 Y43.33 E.27908
G1 X114.007 Y43.33 E.01314
G1 X114.007 Y52.231 E.27908
G1 X113.588 Y52.231 E.01314
G1 X113.588 Y43.33 E.27908
G1 X113.169 Y43.33 E.01314
G1 X113.169 Y52.231 E.27908
G1 X112.822 Y52.231 E.01088
G1 X112.75 Y52.303 E.00319
G1 X112.75 Y43.33 E.28134
G1 X112.331 Y43.33 E.01314
G1 X112.331 Y52.722 E.29448
G1 X112.207 Y52.846 E.0055
G1 X112.207 Y56.558 E.11639
G1 X111.912 Y56.853 E.01308
G1 X111.912 Y43.33 E.424
G1 X111.493 Y43.33 E.01314
M73 P0 R110
G1 X111.493 Y57.272 E.43714
G1 X111.074 Y57.691 E.01858
G1 X111.074 Y43.16 E.45561
;WIPE_START
G1 F8640
G1 X111.074 Y46.625 E-.8
;WIPE_END
G1 Z.6 F10800
G1 X208.046 Y35.99
G1 Z.2
G1 E.8 F2100
G1 F1200
G1 X208.046 Y51.308 E.48029
G1 X205.938 Y49.195 E.09358
G1 X205.948 Y45.488 E.11623
G1 X205.532 Y45.07 E.01849
G1 X202.973 Y45.07 E.08024
G1 X202.131 Y45.429 E.0287
G1 X201.216 Y45.569 E.02902
G1 X200.602 Y45.491 E.01941
G1 X199.75 Y45.128 E.02904
G1 X199.27 Y44.738 E.01939
G1 X198.887 Y44.252 E.0194
G1 X198.536 Y43.395 E.02904
G1 X198.466 Y42.761 E.02
G1 X198.466 Y38.486 E.13404
G1 X198.051 Y38.07 E.01842
G1 X194.338 Y38.07 E.11642
G1 X192.258 Y35.99 E.09223
G1 X207.99 Y35.99 E.49327
G1 X207.99 Y35.99 F10800
M73 Q0 S113
G1 X207.439 Y50.459
G1 F1200
G1 X207.439 Y36.33 E.443
G1 X207.02 Y36.33 E.01314
G1 X207.02 Y49.798 E.42228
G1 X206.601 Y49.378 E.0186
G1 X206.601 Y36.33 E.40911
G1 X206.182 Y36.33 E.01314
G1 X206.182 Y45.241 E.2794
G1 X205.763 Y44.821 E.0186
G1 X205.763 Y36.33 E.26623
G1 X205.344 Y36.33 E.01314
G1 X205.344 Y44.731 E.26341
G1 X204.925 Y44.731 E.01314
G1 X204.925 Y36.33 E.26341
G1 X204.506 Y36.33 E.01314
G1 X204.506 Y44.731 E.26341
G1 X204.087 Y44.731 E.01314
G1 X204.087 Y36.33 E.26341
G1 X203.668 Y36.33 E.01314
G1 X203.668 Y44.731 E.26341
G1 X203.249 Y44.731 E.01314
G1 X203.249 Y36.33 E.26341
G1 X202.83 Y36.33 E.01314
G1 X202.83 Y44.756 E.26419
G1 X202.411 Y44.936 E.0143
G1 X202.411 Y36.33 E.26984
G1 X201.992 Y36.33 E.01314
G1 X201.992 Y45.115 E.27545
G1 X201.573 Y45.206 E.01344
G1 X201.573 Y36.33 E.2783
G1 X201.154 Y36.33 E.01314
G1 X201.154 Y45.224 E.27887
G1 X200.735 Y45.171 E.01324
G1 X200.735 Y36.33 E.2772
G1 X200.316 Y36.33 E.01314
G1 X200.316 Y45.038 E.27303
G1 X199.897 Y44.815 E.01488
G1 X199.897 Y36.33 E.26604
G1 X199.478 Y36.33 E.01314
G1 X199.478 Y44.461 E.25494
G1 X199.059 Y43.859 E.023
G1 X199.059 Y36.33 E.23607
G1 X198.64 Y36.33 E.01314
G1 X198.64 Y38.18 E.05801
G1 X198.221 Y37.761 E.01858
G1 X198.221 Y36.33 E.04487
G1 X197.802 Y36.33 E.01314
G1 X197.802 Y37.731 E.04393
G1 X197.706 Y37.731 E.00301
G1 X197.383 Y37.731 E.01013
G1 X197.383 Y36.33 E.04393
G1 X196.964 Y36.33 E.01314
G1 X196.964 Y37.731 E.04393
G1 X196.545 Y37.731 E.01314
G1 X196.545 Y36.33 E.04393
G1 X196.126 Y36.33 E.01314
G1 X196.126 Y37.731 E.04393
G1 X195.707 Y37.731 E.01314
G1 X195.707 Y36.33 E.04393
G1 X195.288 Y36.33 E.01314
G1 X195.288 Y37.731 E.04393
G1 X194.87 Y37.731 E.01311
G1 X194.87 Y36.33 E.04393
G1 X194.451 Y36.33 E.01314
G1 X194.451 Y37.703 E.04305
G1 X194.032 Y37.284 E.01858
G1 X194.032 Y36.33 E.02991
G1 X193.613 Y36.33 E.01314
G1 X193.613 Y36.865 E.01677
G1 X193.194 Y36.446 E.01858
G1 X193.194 Y36.16 E.00897
;WIPE_START
G1 F8640
G1 X193.194 Y36.446 E-.06604
G1 X193.613 Y36.865 E-.13682
G1 X193.613 Y36.33 E-.12353
G1 X194.032 Y36.33 E-.09675
G1 X194.032 Y37.284 E-.22028
G1 X194.451 Y37.703 E-.13682
G1 X194.451 Y37.617 E-.01976
;WIPE_END
G1 Z.6 F10800
G1 X195.796 Y91.32
G1 Z.2
G1 E.8 F2100
G1 F1200
G1 X178.716 Y91.32 E.53553
G1 X178.716 Y42.24 E1.53887
G1 X195.796 Y42.24 E.53553
G1 X195.796 Y91.264 E1.53711
G1 X195.796 Y91.264 F10800
G1 X183.046 Y86.99
G1 F1200
G1 X183.046 Y63.57 E.73432
G1 X191.466 Y63.57 E.264
G1 X191.466 Y86.99 E.73432
G1 X183.103 Y86.99 E.26222
G1 X183.103 Y86.99 F10800
G1 X183.046 Y52.99
G1 F1200
G1 X183.046 Y46.57 E.20129
G1 X191.466 Y46.57 E.264
M73 P1 R110
G1 X191.466 Y52.99 E.20129
G1 X183.103 Y52.99 E.26222
M73 Q1 S113
;WIPE_START
G1 F8640
G1 X186.568 Y52.99 E-.8
;WIPE_END
G1 Z.6 F10800
G1 X195.288 Y91.151
G1 Z.2
G1 E.8 F2100
G1 F1200
G1 X195.288 Y42.58 E1.52291
G1 X194.87 Y42.58 E.01311
G1 X194.87 Y90.981 E1.51758
G1 X194.451 Y90.981 E.01314
G1 X194.451 Y42.58 E1.51758
G1 X194.032 Y42.58 E.01314
G1 X194.032 Y90.981 E1.51758
G1 X193.613 Y90.981 E.01314
G1 X193.613 Y42.58 E1.51758
G1 X193.194 Y42.58 E.01314
G1 X193.194 Y90.981 E1.51758
G1 X192.775 Y90.981 E.01314
G1 X192.775 Y42.58 E1.51758
G1 X192.356 Y42.58 E.01314
G1 X192.356 Y90.981 E1.51758
G1 X191.937 Y90.981 E.01314
G1 X191.937 Y42.58 E1.51758
G1 X191.518 Y42.58 E.01314
G1 X191.518 Y46.231 E.11447
G1 X191.099 Y46.231 E.01314
G1 X191.099 Y42.58 E.11447
G1 X190.68 Y42.58 E.01314
G1 X190.68 Y46.231 E.11447
G1 X190.261 Y46.231 E.01314
G1 X190.261 Y42.58 E.11447
G1 X189.842 Y42.58 E.01314
G1 X189.842 Y46.231 E.11447
G1 X189.423 Y46.231 E.01314
G1 X189.423 Y42.58 E.11447
G1 X189.004 Y42.58 E.01314
G1 X189.004 Y46.231 E.11447
G1 X188.585 Y46.231 E.01314
G1 X188.585 Y42.58 E.11447
G1 X188.166 Y42.58 E.01314
G1 X188.166 Y46.231 E.11447
G1 X187.747 Y46.231 E.01314
G1 X187.747 Y42.58 E.11447
G1 X187.328 Y42.58 E.01314
G1 X187.328 Y46.231 E.11447
G1 X186.909 Y46.231 E.01314
G1 X186.909 Y42.58 E.11447
G1 X186.49 Y42.58 E.01314
G1 X186.49 Y46.231 E.11447
G1 X186.071 Y46.231 E.01314
G1 X186.071 Y42.58 E.11447
G1 X185.652 Y42.58 E.01314
G1 X185.652 Y46.231 E.11447
G1 X185.233 Y46.231 E.01314
G1 X185.233 Y42.58 E.11447
G1 X184.814 Y42.58 E.01314
G1 X184.814 Y46.231 E.11447
G1 X184.395 Y46.231 E.01314
G1 X184.395 Y42.58 E.11447
G1 X183.976 Y42.58 E.01314
G1 X183.976 Y46.231 E.11447
G1 X183.557 Y46.231 E.01314
G1 X183.557 Y42.58 E.11447
G1 X183.138 Y42.58 E.01314
G1 X183.138 Y46.401 E.1198
;WIPE_START
G1 F8640
G1 X183.138 Y42.936 E-.8
;WIPE_END
G1 Z.6 F10800
G1 X191.518 Y91.151
G1 Z.2
G1 E.8 F2100
G1 F1200
G1 X191.518 Y87.33 E.1198
G1 X191.099 Y87.33 E.01314
G1 X191.099 Y90.981 E.11447
G1 X190.68 Y90.981 E.01314
G1 X190.68 Y87.33 E.11447
G1 X190.261 Y87.33 E.01314
G1 X190.261 Y90.981 E.11447
G1 X189.842 Y90.981 E.01314
G1 X189.842 Y87.33 E.11447
G1 X189.423 Y87.33 E.01314
M73 P1 R109
G1 X189.423 Y90.981 E.11447
G1 X189.004 Y90.981 E.01314
G1 X189.004 Y87.33 E.11447
G1 X188.585 Y87.33 E.01314
G1 X188.585 Y90.981 E.11447
G1 X188.166 Y90.981 E.01314
G1 X188.166 Y87.33 E.11447
G1 X187.747 Y87.33 E.01314
G1 X187.747 Y90.981 E.11447
G1 X187.328 Y90.981 E.01314
G1 X187.328 Y87.33 E.11447
G1 X186.909 Y87.33 E.01314
G1 X186.909 Y90.981 E.11447
G1 X186.49 Y90.981 E.01314
G1 X186.49 Y87.33 E.11447
G1 X186.071 Y87.33 E.01314
G1 X186.071 Y90.981 E.11447
G1 X185.652 Y90.981 E.01314
G1 X185.652 Y87.33 E.11447
G1 X185.233 Y87.33 E.01314
G1 X185.233 Y90.981 E.11447
G1 X184.814 Y90.981 E.01314
G1 X184.814 Y87.33 E.11447
G1 X184.395 Y87.33 E.01314
G1 X184.395 Y90.981 E.11447
G1 X183.976 Y90.981 E.01314
G1 X183.976 Y87.33 E.11447
G1 X183.557 Y87.33 E.01314
G1 X183.557 Y90.981 E.11447
G1 X183.138 Y90.981 E.01314
G1 X183.138 Y87.16 E.1198
;WIPE_START
G1 F8640
G1 X183.138 Y90.625 E-.8
;WIPE_END
G1 Z.6 F10800
G1 X191.518 Y63.401
G1 Z.2
G1 E.8 F2100
G1 F1200
G1 X191.518 Y53.33 E.31577
G1 X191.099 Y53.33 E.01314
G1 X191.099 Y63.231 E.31044
G1 X190.68 Y63.231 E.01314
M73 Q1 S112
G1 X190.68 Y53.33 E.31044
G1 X190.261 Y53.33 E.01314
G1 X190.261 Y63.231 E.31044
G1 X189.842 Y63.231 E.01314
G1 X189.842 Y53.33 E.31044
G1 X189.423 Y53.33 E.01314
G1 X189.423 Y63.231 E.31044
G1 X189.004 Y63.231 E.01314
G1 X189.004 Y53.33 E.31044
G1 X188.585 Y53.33 E.01314
G1 X188.585 Y63.231 E.31044
G1 X188.166 Y63.231 E.01314
G1 X188.166 Y53.33 E.31044
G1 X187.747 Y53.33 E.01314
G1 X187.747 Y63.231 E.31044
G1 X187.328 Y63.231 E.01314
G1 X187.328 Y53.33 E.31044
G1 X186.909 Y53.33 E.01314
G1 X186.909 Y63.231 E.31044
G1 X186.49 Y63.231 E.01314
G1 X186.49 Y53.33 E.31044
G1 X186.071 Y53.33 E.01314
G1 X186.071 Y63.231 E.31044
G1 X185.652 Y63.231 E.01314
G1 X185.652 Y53.33 E.31044
G1 X185.233 Y53.33 E.01314
G1 X185.233 Y63.231 E.31044
G1 X184.814 Y63.231 E.01314
G1 X184.814 Y53.33 E.31044
G1 X184.395 Y53.33 E.01314
G1 X184.395 Y63.231 E.31044
G1 X183.976 Y63.231 E.01314
G1 X183.976 Y53.33 E.31044
G1 X183.557 Y53.33 E.01314
G1 X183.557 Y63.231 E.31044
G1 X183.138 Y63.231 E.01314
G1 X183.138 Y53.16 E.31577
G1 X183.138 Y53.16 F10800
G1 X182.719 Y91.151
G1 F1200
G1 X182.719 Y42.58 E1.52291
G1 X182.3 Y42.58 E.01314
G1 X182.3 Y90.981 E1.51758
G1 X181.881 Y90.981 E.01314
G1 X181.881 Y42.58 E1.51758
G1 X181.462 Y42.58 E.01314
G1 X181.462 Y90.981 E1.51758
G1 X181.043 Y90.981 E.01314
G1 X181.043 Y42.58 E1.51758
G1 X180.624 Y42.58 E.01314
G1 X180.624 Y90.981 E1.51758
G1 X180.205 Y90.981 E.01314
G1 X180.205 Y42.58 E1.51758
G1 X179.786 Y42.58 E.01314
G1 X179.786 Y90.981 E1.51758
G1 X179.367 Y90.981 E.01314
G1 X179.367 Y42.41 E1.52291
;WIPE_START
G1 F8640
M73 P2 R109
G1 X179.367 Y45.875 E-.8
;WIPE_END
G1 Z.6 F10800
G1 X208.046 Y97.57
G1 Z.2
G1 E.8 F2100
M73 Q2 S112
G1 F1200
G1 X192.258 Y97.57 E.49502
G1 X194.338 Y95.49 E.09223
G1 X198.051 Y95.49 E.11642
G1 X198.466 Y95.074 E.01842
G1 X198.485 Y90.468 E.14442
G1 X198.624 Y89.859 E.01959
G1 X199.076 Y89.041 E.0293
G1 X199.773 Y88.419 E.02929
G1 X200.335 Y88.148 E.01956
G1 X200.944 Y88.009 E.01959
G1 X205.42 Y87.99 E.14034
G1 X205.835 Y87.576 E.01838
G1 X205.842 Y84.99 E.08108
G1 X208.046 Y84.99 E.0691
G1 X208.046 Y97.514 E.39268
G1 X208.046 Y97.514 F10800
G1 X207.439 Y97.401
G1 F1200
G1 X207.439 Y85.33 E.37848
G1 X207.02 Y85.33 E.01314
G1 X207.02 Y97.231 E.37315
G1 X206.601 Y97.231 E.01314
G1 X206.601 Y85.33 E.37315
G1 X206.182 Y85.33 E.01314
G1 X206.182 Y97.231 E.37315
G1 X205.763 Y97.231 E.01314
G1 X205.763 Y88.127 E.28545
G1 X205.56 Y88.33 E.009
G1 X205.344 Y88.33 E.00677
G1 X205.344 Y97.231 E.27908
G1 X204.925 Y97.231 E.01314
G1 X204.925 Y88.33 E.27908
G1 X204.506 Y88.33 E.01314
G1 X204.506 Y97.231 E.27908
G1 X204.087 Y97.231 E.01314
G1 X204.087 Y88.33 E.27908
G1 X203.668 Y88.33 E.01314
G1 X203.668 Y97.231 E.27908
