; generated by PrusaSlicer 2.8.0+win64 on 2024-07-22 at 08:18:35 UTC

; 

; external perimeters extrusion width = 0.60mm
; perimeters extrusion width = 0.50mm
; infill extrusion width = 0.50mm
; solid infill extrusion width = 0.50mm
; top infill extrusion width = 0.45mm
; support material extrusion width = 0.38mm
; first layer extrusion width = 0.42mm

M73 P0 R34
M73 Q0 S34

; printing object ui_top.stl id:0 copy 0
; stop printing object ui_top.stl id:0 copy 0

;TYPE:Custom
M862.3 P "MK3S" ; printer model check
M862.1 P0.4 ; nozzle diameter check
M115 U3.9.3 ; tell printer latest fw version
G90 ; use absolute coordinates
M83 ; extruder relative mode
M104 S205 ; set extruder temp
M140 S67 ; set bed temp
M190 S67 ; wait for bed temp
M109 S205 ; wait for extruder temp
G28 W ; home all without mesh bed level
G80 ; mesh bed leveling
G1 Y-3.0 F1000.0 ; go outside print area
G92 E0.0
G1 X60.0 E9.0 F1000.0 ; intro line
G1 X100.0 E12.5 F1000.0 ; intro line
G92 E0.0
M221 S95

; Don't change E values below. Excessive value can damage the printer.

M907 E538 ; set extruder motor current
G21 ; set units to millimeters
G90 ; use absolute coordinates
M83 ; use relative distances for extrusion
M900 K0.05 ; Filament gcode LA 1.5
M900 K30 ; Filament gcode LA 1.0
M107
;LAYER_CHANGE
;Z:0.2
;HEIGHT:0.2
G1 E-.8 F2100
G1 Z.6 F10800
; printing object ui_top.stl id:0 copy 0
G1 X202.58 Y19.877
G1 Z.2
G1 E.8 F2100
M204 S1000
;TYPE:Support material
;WIDTH:0.42
G1 F1200
G1 X203.968 Y20.455 E.04714
G1 X204.858 Y21.078 E.03406
G1 X205.617 Y21.857 E.0341
G1 X206.291 Y22.922 E.03952
G1 X225.896 Y22.922 E.6147
G1 X225.896 Y27.532 E.14454
G1 X173.708 Y27.532 E1.63632
G1 X173.146 Y28.094 E.02492
G1 X173.146 Y30.751 E.08331
G1 X171.316 Y30.751 E.05738
G1 X171.316 Y22.922 E.24547
G1 X195.92 Y22.922 E.77144
G1 X196.274 Y22.296 E.02255
G1 X196.955 Y21.45 E.03405
G1 X197.784 Y20.746 E.0341
G1 X199.143 Y19.887 E.05041
G1 X201.936 Y19.601 E.08803
G1 X202.528 Y19.855 E.0202
;WIPE_START
G1 F8640
G1 X201.936 Y19.601 E-.14875
G1 X199.143 Y19.887 E-.64828
G1 X199.132 Y19.894 E-.00297
;WIPE_END
G1 Z.6 F10800
G1 X225.149 Y27.362
G1 Z.2
G1 E.8 F2100
G1 F1200
G1 X225.149 Y23.261 E.12858
G1 X224.73 Y23.261 E.01314
G1 X224.73 Y27.192 E.12325
G1 X224.312 Y27.192 E.01311
G1 X224.312 Y23.261 E.12325
G1 X223.893 Y23.261 E.01314
G1 X223.893 Y27.192 E.12325
G1 X223.474 Y27.192 E.01314
G1 X223.474 Y23.261 E.12325
G1 X223.055 Y23.261 E.01314
G1 X223.055 Y27.192 E.12325
G1 X222.636 Y27.192 E.01314
G1 X222.636 Y23.261 E.12325
G1 X222.217 Y23.261 E.01314
G1 X222.217 Y27.192 E.12325
G1 X221.798 Y27.192 E.01314
G1 X221.798 Y23.261 E.12325
G1 X221.379 Y23.261 E.01314
G1 X221.379 Y27.192 E.12325
G1 X220.96 Y27.192 E.01314
G1 X220.96 Y23.261 E.12325
G1 X220.541 Y23.261 E.01314
G1 X220.541 Y27.192 E.12325
G1 X220.122 Y27.192 E.01314
G1 X220.122 Y23.261 E.12325
G1 X219.703 Y23.261 E.01314
G1 X219.703 Y27.192 E.12325
G1 X219.284 Y27.192 E.01314
G1 X219.284 Y23.261 E.12325
G1 X218.865 Y23.261 E.01314
G1 X218.865 Y27.192 E.12325
G1 X218.446 Y27.192 E.01314
G1 X218.446 Y23.261 E.12325
G1 X218.027 Y23.261 E.01314
G1 X218.027 Y27.192 E.12325
G1 X217.608 Y27.192 E.01314
G1 X217.608 Y23.261 E.12325
G1 X217.189 Y23.261 E.01314
G1 X217.189 Y27.192 E.12325
G1 X216.77 Y27.192 E.01314
G1 X216.77 Y23.261 E.12325
G1 X216.351 Y23.261 E.01314
G1 X216.351 Y27.192 E.12325
G1 X215.932 Y27.192 E.01314
G1 X215.932 Y23.261 E.12325
G1 X215.513 Y23.261 E.01314
G1 X215.513 Y27.192 E.12325
G1 X215.094 Y27.192 E.01314
G1 X215.094 Y23.261 E.12325
G1 X214.675 Y23.261 E.01314
G1 X214.675 Y27.192 E.12325
G1 X214.256 Y27.192 E.01314
M73 P0 R33
G1 X214.256 Y23.261 E.12325
G1 X213.837 Y23.261 E.01314
M73 Q1 S34
G1 X213.837 Y27.192 E.12325
G1 X213.418 Y27.192 E.01314
M73 P1 R33
G1 X213.418 Y23.261 E.12325
G1 X212.999 Y23.261 E.01314
G1 X212.999 Y27.192 E.12325
G1 X212.58 Y27.192 E.01314
G1 X212.58 Y23.261 E.12325
G1 X212.161 Y23.261 E.01314
G1 X212.161 Y27.192 E.12325
G1 X211.742 Y27.192 E.01314
G1 X211.742 Y23.261 E.12325
G1 X211.323 Y23.261 E.01314
G1 X211.323 Y27.192 E.12325
G1 X210.904 Y27.192 E.01314
G1 X210.904 Y23.261 E.12325
G1 X210.485 Y23.261 E.01314
G1 X210.485 Y27.192 E.12325
G1 X210.066 Y27.192 E.01314
G1 X210.066 Y23.261 E.12325
G1 X209.647 Y23.261 E.01314
G1 X209.647 Y27.192 E.12325
G1 X209.228 Y27.192 E.01314
G1 X209.228 Y23.261 E.12325
G1 X208.809 Y23.261 E.01314
G1 X208.809 Y27.192 E.12325
G1 X208.39 Y27.192 E.01314
G1 X208.39 Y23.261 E.12325
G1 X207.971 Y23.261 E.01314
G1 X207.971 Y27.192 E.12325
G1 X207.552 Y27.192 E.01314
G1 X207.552 Y23.261 E.12325
G1 X207.133 Y23.261 E.01314
G1 X207.133 Y27.192 E.12325
G1 X206.714 Y27.192 E.01314
G1 X206.714 Y23.261 E.12325
G1 X206.295 Y23.261 E.01314
G1 X206.295 Y27.192 E.12325
G1 X205.877 Y27.192 E.01311
G1 X205.877 Y22.856 E.13595
G1 X205.458 Y22.214 E.02404
G1 X205.458 Y27.192 E.15608
G1 X205.039 Y27.192 E.01314
G1 X205.039 Y21.716 E.1717
G1 X204.62 Y21.323 E.01801
G1 X204.62 Y27.192 E.18402
G1 X204.201 Y27.192 E.01314
G1 X204.201 Y21.005 E.19399
G1 X203.782 Y20.741 E.01553
G1 X203.782 Y27.192 E.20227
G1 X203.363 Y27.192 E.01314
G1 X203.363 Y20.528 E.20895
G1 X202.944 Y20.361 E.01414
G1 X202.944 Y27.192 E.21418
G1 X202.525 Y27.192 E.01314
G1 X202.525 Y20.217 E.2187
G1 X202.106 Y20.043 E.01423
G1 X202.106 Y27.192 E.22415
G1 X201.687 Y27.192 E.01314
G1 X201.687 Y19.966 E.22657
G1 X201.268 Y20.005 E.01319
G1 X201.268 Y27.192 E.22534
G1 X200.849 Y27.192 E.01314
G1 X200.849 Y20.044 E.22412
G1 X200.43 Y20.084 E.0132
G1 X200.43 Y27.192 E.22287
G1 X200.011 Y27.192 E.01314
G1 X200.011 Y20.155 E.22064
G1 X199.592 Y20.192 E.01319
G1 X199.592 Y27.192 E.21948
G1 X199.173 Y27.192 E.01314
G1 X199.173 Y20.269 E.21707
G1 X198.754 Y20.534 E.01554
G1 X198.754 Y27.192 E.20876
G1 X198.335 Y27.192 E.01314
G1 X198.335 Y20.799 E.20045
M73 Q1 S33
G1 X197.916 Y21.072 E.01568
G1 X197.916 Y27.192 E.19189
G1 X197.497 Y27.192 E.01314
G1 X197.497 Y21.408 E.18135
G1 X197.078 Y21.823 E.01849
G1 X197.078 Y27.192 E.16834
G1 X196.659 Y27.192 E.01314
G1 X196.659 Y22.344 E.15201
G1 X196.24 Y23.039 E.02545
G1 X196.24 Y27.192 E.13021
G1 X195.821 Y27.192 E.01314
G1 X195.821 Y23.261 E.12325
G1 X195.402 Y23.261 E.01314
G1 X195.402 Y27.192 E.12325
G1 X194.983 Y27.192 E.01314
G1 X194.983 Y23.261 E.12325
G1 X194.564 Y23.261 E.01314
G1 X194.564 Y27.192 E.12325
G1 X194.145 Y27.192 E.01314
G1 X194.145 Y23.261 E.12325
G1 X193.726 Y23.261 E.01314
G1 X193.726 Y27.192 E.12325
G1 X193.307 Y27.192 E.01314
G1 X193.307 Y23.261 E.12325
G1 X192.888 Y23.261 E.01314
G1 X192.888 Y27.192 E.12325
G1 X192.469 Y27.192 E.01314
G1 X192.469 Y23.261 E.12325
G1 X192.05 Y23.261 E.01314
G1 X192.05 Y27.192 E.12325
G1 X191.631 Y27.192 E.01314
G1 X191.631 Y23.261 E.12325
G1 X191.212 Y23.261 E.01314
G1 X191.212 Y27.192 E.12325
G1 X190.793 Y27.192 E.01314
G1 X190.793 Y23.261 E.12325
G1 X190.374 Y23.261 E.01314
G1 X190.374 Y27.192 E.12325
G1 X189.955 Y27.192 E.01314
G1 X189.955 Y23.261 E.12325
G1 X189.536 Y23.261 E.01314
G1 X189.536 Y27.192 E.12325
G1 X189.117 Y27.192 E.01314
G1 X189.117 Y23.261 E.12325
G1 X188.698 Y23.261 E.01314
G1 X188.698 Y27.192 E.12325
G1 X188.279 Y27.192 E.01314
G1 X188.279 Y23.261 E.12325
G1 X187.861 Y23.261 E.01311
G1 X187.861 Y27.192 E.12325
G1 X187.442 Y27.192 E.01314
G1 X187.442 Y23.261 E.12325
G1 X187.023 Y23.261 E.01314
G1 X187.023 Y27.192 E.12325
G1 X186.604 Y27.192 E.01314
G1 X186.604 Y23.261 E.12325
G1 X186.185 Y23.261 E.01314
G1 X186.185 Y27.192 E.12325
G1 X185.766 Y27.192 E.01314
G1 X185.766 Y23.261 E.12325
G1 X185.347 Y23.261 E.01314
G1 X185.347 Y27.192 E.12325
G1 X184.928 Y27.192 E.01314
G1 X184.928 Y23.261 E.12325
G1 X184.509 Y23.261 E.01314
G1 X184.509 Y27.192 E.12325
G1 X184.09 Y27.192 E.01314
G1 X184.09 Y23.261 E.12325
G1 X183.671 Y23.261 E.01314
G1 X183.671 Y27.192 E.12325
G1 X183.252 Y27.192 E.01314
G1 X183.252 Y23.261 E.12325
G1 X182.833 Y23.261 E.01314
G1 X182.833 Y27.192 E.12325
G1 X182.414 Y27.192 E.01314
G1 X182.414 Y23.261 E.12325
G1 X181.995 Y23.261 E.01314
G1 X181.995 Y27.192 E.12325
G1 X181.576 Y27.192 E.01314
M73 Q2 S33
G1 X181.576 Y23.261 E.12325
G1 X181.157 Y23.261 E.01314
M73 P2 R33
G1 X181.157 Y27.192 E.12325
G1 X180.738 Y27.192 E.01314
G1 X180.738 Y23.261 E.12325
G1 X180.319 Y23.261 E.01314
G1 X180.319 Y27.192 E.12325
G1 X179.9 Y27.192 E.01314
G1 X179.9 Y23.261 E.12325
G1 X179.481 Y23.261 E.01314
G1 X179.481 Y27.192 E.12325
G1 X179.062 Y27.192 E.01314
G1 X179.062 Y23.261 E.12325
G1 X178.643 Y23.261 E.01314
G1 X178.643 Y27.192 E.12325
G1 X178.224 Y27.192 E.01314
G1 X178.224 Y23.261 E.12325
G1 X177.805 Y23.261 E.01314
G1 X177.805 Y27.192 E.12325
G1 X177.386 Y27.192 E.01314
G1 X177.386 Y23.261 E.12325
G1 X176.967 Y23.261 E.01314
G1 X176.967 Y27.192 E.12325
G1 X176.548 Y27.192 E.01314
G1 X176.548 Y23.261 E.12325
G1 X176.129 Y23.261 E.01314
G1 X176.129 Y27.192 E.12325
G1 X175.71 Y27.192 E.01314
G1 X175.71 Y23.261 E.12325
G1 X175.291 Y23.261 E.01314
G1 X175.291 Y27.192 E.12325
G1 X174.872 Y27.192 E.01314
G1 X174.872 Y23.261 E.12325
G1 X174.453 Y23.261 E.01314
G1 X174.453 Y27.192 E.12325
G1 X174.034 Y27.192 E.01314
G1 X174.034 Y23.261 E.12325
G1 X173.615 Y23.261 E.01314
G1 X173.615 Y27.192 E.12325
G1 X173.196 Y27.563 E.01755
G1 X173.196 Y23.261 E.13489
G1 X172.777 Y23.261 E.01314
G1 X172.777 Y30.412 E.22421
G1 X172.358 Y30.412 E.01314
G1 X172.358 Y23.261 E.22421
G1 X171.939 Y23.261 E.01314
G1 X171.939 Y30.581 E.22951
;WIPE_START
G1 F8640
G1 X171.939 Y27.116 E-.8
;WIPE_END
G1 Z.6 F10800
G1 X178.323 Y51.962
G1 Z.2
G1 E.8 F2100
G1 F1200
G1 X178.96 Y52.101 E.02044
G1 X179.541 Y52.397 E.02044
G1 X180.027 Y52.831 E.02043
G1 X180.433 Y53.416 E.02233
G1 X180.862 Y53.649 E.01531
G1 X223.348 Y53.649 E1.33212
G1 X223.773 Y53.42 E.01514
G1 X224.334 Y52.673 E.02929
G1 X224.855 Y52.282 E.02042
G1 X225.459 Y52.036 E.02045
G1 X226.224 Y51.952 E.02413
G1 X225.399 Y54.47 E.08308
G1 X226.045 Y58.062 E.11443
G1 X206.291 Y58.062 E.61937
G1 X205.924 Y58.707 E.02327
G1 X204.894 Y60.069 E.05354
G1 X203.441 Y60.793 E.0509
G1 X202.157 Y61.206 E.04229
G1 X200.024 Y61.201 E.06688
G1 X198.746 Y60.782 E.04217
G1 X197.797 Y60.247 E.03416
G1 X196.965 Y59.543 E.03417
G1 X196.602 Y59.135 E.01712
G1 X195.92 Y58.062 E.03986
G1 X178.816 Y58.062 E.53628
G1 X178.812 Y54.44 E.11357
G1 X178.042 Y51.952 E.08166
G1 X178.267 Y51.959 E.00706
;WIPE_START
G1 F8640
G1 X178.042 Y51.952 E-.05198
G1 X178.812 Y54.44 E-.60137
G1 X178.813 Y55.075 E-.14665
;WIPE_END
G1 Z.6 F10800
G1 X225.568 Y57.892
G1 Z.2
G1 E.8 F2100
G1 F1200
G1 X225.568 Y56.413 E.04637
G1 X225.568 Y56.413 F10800
G1 X225.568 Y53.351
G1 F1200
G1 X225.568 Y52.36 E.03107
G1 X225.149 Y52.513 E.01399
G1 X225.149 Y57.722 E.16332
G1 X224.73 Y57.722 E.01314
G1 X224.73 Y52.776 E.15508
G1 X224.312 Y53.221 E.01914
G1 X224.312 Y57.722 E.14113
G1 X223.893 Y57.722 E.01314
G1 X223.893 Y53.741 E.12482
G1 X223.474 Y53.966 E.01491
G1 X223.474 Y57.722 E.11777
G1 X223.055 Y57.722 E.01314
G1 X223.055 Y53.988 E.11708
G1 X222.636 Y53.988 E.01314
G1 X222.636 Y57.722 E.11708
G1 X222.217 Y57.722 E.01314
G1 X222.217 Y53.988 E.11708
G1 X221.798 Y53.988 E.01314
G1 X221.798 Y57.722 E.11708
G1 X221.379 Y57.722 E.01314
G1 X221.379 Y53.988 E.11708
G1 X220.96 Y53.988 E.01314
G1 X220.96 Y57.722 E.11708
G1 X220.541 Y57.722 E.01314
G1 X220.541 Y53.988 E.11708
G1 X220.122 Y53.988 E.01314
G1 X220.122 Y57.722 E.11708
G1 X219.703 Y57.722 E.01314
G1 X219.703 Y53.988 E.11708
G1 X219.284 Y53.988 E.01314
G1 X219.284 Y57.722 E.11708
G1 X218.865 Y57.722 E.01314
G1 X218.865 Y53.988 E.11708
G1 X218.446 Y53.988 E.01314
G1 X218.446 Y57.722 E.11708
G1 X218.027 Y57.722 E.01314
G1 X218.027 Y53.988 E.11708
G1 X217.608 Y53.988 E.01314
G1 X217.608 Y57.722 E.11708
G1 X217.189 Y57.722 E.01314
G1 X217.189 Y53.988 E.11708
G1 X216.77 Y53.988 E.01314
G1 X216.77 Y57.722 E.11708
G1 X216.351 Y57.722 E.01314
G1 X216.351 Y53.988 E.11708
G1 X215.932 Y53.988 E.01314
G1 X215.932 Y57.722 E.11708
G1 X215.513 Y57.722 E.01314
G1 X215.513 Y53.988 E.11708
G1 X215.094 Y53.988 E.01314
G1 X215.094 Y57.722 E.11708
G1 X214.675 Y57.722 E.01314
G1 X214.675 Y53.988 E.11708
G1 X214.256 Y53.988 E.01314
G1 X214.256 Y57.722 E.11708
G1 X213.837 Y57.722 E.01314
G1 X213.837 Y53.988 E.11708
G1 X213.418 Y53.988 E.01314
G1 X213.418 Y57.722 E.11708
G1 X212.999 Y57.722 E.01314
G1 X212.999 Y53.988 E.11708
G1 X212.58 Y53.988 E.01314
G1 X212.58 Y57.722 E.11708
G1 X212.161 Y57.722 E.01314
M73 Q3 S33
G1 X212.161 Y53.988 E.11708
G1 X211.742 Y53.988 E.01314
G1 X211.742 Y57.722 E.11708
G1 X211.323 Y57.722 E.01314
M73 P3 R33
G1 X211.323 Y53.988 E.11708
G1 X210.904 Y53.988 E.01314
G1 X210.904 Y57.722 E.11708
G1 X210.485 Y57.722 E.01314
G1 X210.485 Y53.988 E.11708
G1 X210.066 Y53.988 E.01314
G1 X210.066 Y57.722 E.11708
G1 X209.647 Y57.722 E.01314
G1 X209.647 Y53.988 E.11708
G1 X209.228 Y53.988 E.01314
G1 X209.228 Y57.722 E.11708
G1 X208.809 Y57.722 E.01314
G1 X208.809 Y53.988 E.11708
G1 X208.39 Y53.988 E.01314
G1 X208.39 Y57.722 E.11708
G1 X207.971 Y57.722 E.01314
G1 X207.971 Y53.988 E.11708
G1 X207.552 Y53.988 E.01314
G1 X207.552 Y57.722 E.11708
G1 X207.133 Y57.722 E.01314
G1 X207.133 Y53.988 E.11708
G1 X206.714 Y53.988 E.01314
G1 X206.714 Y57.722 E.11708
G1 X206.295 Y57.722 E.01314
G1 X206.295 Y53.988 E.11708
G1 X205.877 Y53.988 E.01311
G1 X205.877 Y58.128 E.12981
G1 X205.458 Y58.768 E.02398
G1 X205.458 Y53.988 E.14987
G1 X205.039 Y53.988 E.01314
G1 X205.039 Y59.284 E.16605
G1 X204.62 Y59.827 E.0215
G1 X204.62 Y53.988 E.18308
G1 X204.201 Y53.988 E.01314
G1 X204.201 Y60.035 E.1896
G1 X203.782 Y60.244 E.01468
G1 X203.782 Y53.988 E.19615
G1 X203.363 Y53.988 E.01314
G1 X203.363 Y60.453 E.20271
G1 X202.944 Y60.621 E.01415
G1 X202.944 Y53.988 E.20797
G1 X202.525 Y53.988 E.01314
G1 X202.525 Y60.751 E.21205
G1 X202.111 Y60.867 E.01348
G1 X202.106 Y53.988 E.21569
G1 X201.687 Y53.988 E.01314
G1 X201.687 Y60.866 E.21565
G1 X201.268 Y60.865 E.01314
G1 X201.268 Y53.988 E.21562
G1 X200.849 Y53.988 E.01314
G1 X200.849 Y60.864 E.21559
G1 X200.43 Y60.862 E.01314
G1 X200.43 Y53.988 E.21553
G1 X200.011 Y53.988 E.01314
G1 X200.011 Y60.844 E.21497
G1 X199.592 Y60.724 E.01367
G1 X199.592 Y53.988 E.2112
G1 X199.173 Y53.988 E.01314
G1 X199.173 Y60.585 E.20684
G1 X198.754 Y60.406 E.01429
G1 X198.754 Y53.988 E.20123
G1 X198.335 Y53.988 E.01314
G1 X198.335 Y60.184 E.19427
G1 X197.916 Y59.91 E.0157
G1 X197.916 Y53.988 E.18568
G1 X197.497 Y53.988 E.01314
G1 X197.497 Y59.574 E.17515
G1 X197.078 Y59.16 E.01847
G1 X197.078 Y53.988 E.16216
G1 X196.659 Y53.988 E.01314
G1 X196.659 Y58.639 E.14583
G1 X196.24 Y57.944 E.02545
G1 X196.24 Y53.988 E.12404
G1 X195.821 Y53.988 E.01314
G1 X195.821 Y57.722 E.11708
G1 X195.402 Y57.722 E.01314
G1 X195.402 Y53.988 E.11708
G1 X194.983 Y53.988 E.01314
G1 X194.983 Y57.722 E.11708
G1 X194.564 Y57.722 E.01314
G1 X194.564 Y53.988 E.11708
G1 X194.145 Y53.988 E.01314
G1 X194.145 Y57.722 E.11708
G1 X193.726 Y57.722 E.01314
G1 X193.726 Y53.988 E.11708
G1 X193.307 Y53.988 E.01314
G1 X193.307 Y57.722 E.11708
G1 X192.888 Y57.722 E.01314
G1 X192.888 Y53.988 E.11708
G1 X192.469 Y53.988 E.01314
G1 X192.469 Y57.722 E.11708
G1 X192.05 Y57.722 E.01314
G1 X192.05 Y53.988 E.11708
G1 X191.631 Y53.988 E.01314
G1 X191.631 Y57.722 E.11708
G1 X191.212 Y57.722 E.01314
G1 X191.212 Y53.988 E.11708
G1 X190.793 Y53.988 E.01314
G1 X190.793 Y57.722 E.11708
G1 X190.374 Y57.722 E.01314
G1 X190.374 Y53.988 E.11708
G1 X189.955 Y53.988 E.01314
G1 X189.955 Y57.722 E.11708
G1 X189.536 Y57.722 E.01314
G1 X189.536 Y53.988 E.11708
G1 X189.117 Y53.988 E.01314
G1 X189.117 Y57.722 E.11708
G1 X188.698 Y57.722 E.01314
G1 X188.698 Y53.988 E.11708
G1 X188.279 Y53.988 E.01314
G1 X188.279 Y57.722 E.11708
G1 X187.861 Y57.722 E.01311
G1 X187.861 Y53.988 E.11708
G1 X187.442 Y53.988 E.01314
G1 X187.442 Y57.722 E.11708
G1 X187.023 Y57.722 E.01314
G1 X187.023 Y53.988 E.11708
G1 X186.604 Y53.988 E.01314
G1 X186.604 Y57.722 E.11708
G1 X186.185 Y57.722 E.01314
G1 X186.185 Y53.988 E.11708
G1 X185.766 Y53.988 E.01314
G1 X185.766 Y57.722 E.11708
G1 X185.347 Y57.722 E.01314
G1 X185.347 Y53.988 E.11708
G1 X184.928 Y53.988 E.01314
G1 X184.928 Y57.722 E.11708
G1 X184.509 Y57.722 E.01314
G1 X184.509 Y53.988 E.11708
